; generated by Slic3r 1.1.7 on 2014-11-24 at 10:47:29

; perimeters extrusion width = 0.35mm
; infill extrusion width = 0.46mm
; solid infill extrusion width = 0.46mm
; top infill extrusion width = 0.46mm

G21 ; set units to millimeters
M107
G28 ; home all axes
G1 Z5 F5000 ; lift nozzle
G90 ; use absolute coordinates
G92 E0
M82 ; use absolute distances for extrusion
G1 F1800.000 E-1.00000
G92 E0
G1 Z0.350 F7800.000
G1 X131.019 Y121.491 F7800.000
G1 E1.00000 F1800.000
G1 X133.133 Y119.453 E1.10068 F1080.000
G1 X134.688 Y118.233 E1.16845
G1 X135.489 Y117.674 E1.20193
G1 X138.037 Y116.195 E1.30295
G1 X140.740 Y115.037 E1.40376
G1 X142.626 Y114.448 E1.47149
G1 X143.571 Y114.209 E1.50490
G1 X145.515 Y113.852 E1.57266
G1 X146.482 Y113.729 E1.60610
G1 X149.419 Y113.605 E1.70687
G1 X151.389 Y113.723 E1.77455
G1 X152.359 Y113.835 E1.80801 F1080.000
G1 X155.251 Y114.419 E1.90915
G1 X158.043 Y115.346 E2.01002
G1 X159.843 Y116.155 E2.07768
G1 X160.708 Y116.602 E2.11107
G1 X162.397 Y117.623 E2.17871
G1 X163.206 Y118.174 E2.21227
G1 X165.486 Y120.028 E2.31302
G1 X166.883 Y121.423 E2.38072
G1 X167.536 Y122.151 E2.41425
G1 X169.310 Y124.503 E2.51524
G1 X170.790 Y127.054 E2.61636
G1 X171.946 Y129.754 E2.71706
G1 X172.536 Y131.640 E2.78480
G1 X172.775 Y132.586 E2.81825
G1 X173.255 Y135.498 E2.91943
G1 X173.379 Y138.432 E3.02013
G1 X173.261 Y140.405 E3.08787
G1 X173.149 Y141.377 E3.12141
G1 X172.793 Y143.314 E3.18894
G1 X172.565 Y144.265 E3.22246
G1 X171.638 Y147.057 E3.32333
G1 X170.830 Y148.854 E3.39089
G1 X170.382 Y149.722 E3.42438
G1 X169.360 Y151.414 E3.49215
G1 X168.813 Y152.216 E3.52540
G1 X167.598 Y153.767 E3.59297
G1 X166.955 Y154.503 E3.62649
G1 X164.833 Y156.550 E3.72756
G1 X162.486 Y158.321 E3.82835
G1 X160.792 Y159.347 E3.89626
G1 X159.932 Y159.805 E3.92965
G1 X157.224 Y160.965 E4.03068
G1 X154.398 Y161.789 E4.13158
G1 X151.493 Y162.268 E4.23253
G1 X149.525 Y162.388 E4.30014
G1 X148.545 Y162.394 E4.33374
G1 X145.608 Y162.163 E4.43474
G1 X143.670 Y161.807 E4.50228
G1 X142.726 Y161.581 E4.53558
G1 X140.841 Y160.994 E4.60326
G1 X139.927 Y160.654 E4.63669
G1 X138.127 Y159.845 E4.70434
G1 X137.257 Y159.395 E4.73792
G1 X134.768 Y157.828 E4.83875
G1 X133.212 Y156.609 E4.90651
G1 X132.481 Y155.969 E4.93985
G1 X130.434 Y153.847 E5.04091
G1 X128.660 Y151.495 E5.14191
G1 X127.184 Y148.952 E5.24272
G1 X126.371 Y147.150 E5.31049
G1 X126.019 Y146.238 E5.34403
G1 X125.195 Y143.413 E5.44489
G1 X124.716 Y140.508 E5.54583
G1 X124.596 Y138.538 E5.61350
G1 X124.590 Y137.558 E5.64710
G1 X124.821 Y134.625 E5.74798
G1 X125.177 Y132.685 E5.81558
G1 X125.404 Y131.738 E5.84900
G1 X125.990 Y129.857 E5.91654
G1 X126.331 Y128.939 E5.95009
G1 X127.588 Y126.276 E6.05106
G1 X129.156 Y123.782 E6.15206
G1 X130.375 Y122.226 E6.21981
G1 X130.984 Y121.531 E6.25151
G1 X131.460 Y121.933 F7800.000
G1 X133.519 Y119.945 E6.34963 F1080.000
G1 X135.074 Y118.725 E6.41739
G1 X135.812 Y118.208 E6.44828
G1 X138.294 Y116.765 E6.54672
G1 X140.926 Y115.633 E6.64496
G1 X142.812 Y115.045 E6.71268
G1 X143.683 Y114.824 E6.74350
G1 X145.627 Y114.467 E6.81124
G1 X146.520 Y114.353 E6.84210
G1 X149.382 Y114.229 E6.94031
G1 X151.352 Y114.347 E7.00797
G1 X152.246 Y114.450 E7.03885 F1080.000
G1 X155.065 Y115.016 E7.13740
G1 X157.787 Y115.915 E7.23570
G1 X159.586 Y116.725 E7.30334
G1 X160.385 Y117.137 E7.33416
G1 X162.073 Y118.157 E7.40179
G1 X162.820 Y118.666 E7.43276
G1 X165.044 Y120.470 E7.53095
G1 X166.441 Y121.865 E7.59863
G1 X167.044 Y122.536 E7.62957
G1 X168.776 Y124.826 E7.72798
G1 X170.220 Y127.310 E7.82650
G1 X171.350 Y129.940 E7.92465
G1 X171.939 Y131.826 E7.99237
G1 X172.160 Y132.698 E8.02323
G1 X172.631 Y135.535 E8.12182
G1 X172.755 Y138.395 E8.21996
G1 X172.637 Y140.367 E8.28769
G1 X172.534 Y141.264 E8.31863
G1 X172.179 Y143.201 E8.38616
G1 X171.968 Y144.079 E8.41709
G1 X171.069 Y146.801 E8.51540
G1 X170.260 Y148.598 E8.58295
G1 X169.847 Y149.399 E8.61385
G1 X168.825 Y151.090 E8.68160
G1 X168.321 Y151.830 E8.71229
G1 X167.106 Y153.382 E8.77985
G1 X166.513 Y154.061 E8.81079
G1 X164.448 Y156.058 E8.90926
G1 X162.163 Y157.787 E9.00749
G1 X160.469 Y158.812 E9.07537
G1 X159.676 Y159.235 E9.10618
G1 X157.038 Y160.368 E9.20462
G1 X154.285 Y161.174 E9.30295
G1 X151.455 Y161.645 E9.40133
G1 X149.487 Y161.765 E9.46892
G1 X148.583 Y161.771 E9.49993
G1 X145.720 Y161.548 E9.59835
G1 X143.783 Y161.193 E9.66589
G1 X142.911 Y160.984 E9.69661
G1 X141.026 Y160.398 E9.76428
G1 X140.183 Y160.084 E9.79513
G1 X138.384 Y159.275 E9.86277
G1 X137.581 Y158.860 E9.89376
G1 X135.154 Y157.336 E9.99203
G1 X133.598 Y156.117 E10.05977
G1 X132.923 Y155.527 E10.09053
G1 X130.926 Y153.462 E10.18900
G1 X129.194 Y151.172 E10.28742
G1 X127.753 Y148.695 E10.38566
G1 X126.941 Y146.894 E10.45341
G1 X126.616 Y146.052 E10.48436
G1 X125.810 Y143.301 E10.58265
G1 X125.339 Y140.470 E10.68101
G1 X125.219 Y138.501 E10.74867
G1 X125.213 Y137.596 E10.77967
G1 X125.436 Y134.737 E10.87798
G1 X125.791 Y132.798 E10.94558
G1 X126.001 Y131.923 E10.97641
G1 X126.586 Y130.042 E11.04395
G1 X126.901 Y129.196 E11.07491
G1 X128.123 Y126.599 E11.17331
G1 X129.648 Y124.168 E11.27172
G1 X130.867 Y122.612 E11.33946
G1 X131.426 Y121.973 E11.36857
G1 X132.657 Y123.131 F7800.000
G1 X134.220 Y121.570 E11.44427 F1080.000
G1 X134.459 Y121.358 E11.45523
G1 X136.303 Y119.913 E11.53555
G1 X136.568 Y119.730 E11.54658
G1 X138.578 Y118.515 E11.62711
G1 X138.861 Y118.366 E11.63809
G1 X140.999 Y117.403 E11.71847
G1 X141.301 Y117.288 E11.72953
G1 X143.544 Y116.590 E11.81008
G1 X143.857 Y116.513 E11.82112
G1 X146.162 Y116.090 E11.90148
G1 X146.658 Y116.041 E11.91857
G1 X148.825 Y115.910 E11.99300
G1 X149.146 Y115.910 E12.00400
G1 X151.486 Y116.051 E12.08438 F1080.000
G1 X151.803 Y116.089 E12.09532
G1 X154.116 Y116.514 E12.17596
G1 X154.427 Y116.591 E12.18691
G1 X156.666 Y117.288 E12.26732
G1 X156.968 Y117.402 E12.27838
G1 X159.109 Y118.366 E12.35888
G1 X159.393 Y118.516 E12.36990
G1 X161.401 Y119.729 E12.45031
G1 X161.665 Y119.911 E12.46131
G1 X163.514 Y121.361 E12.54186
G1 X163.753 Y121.573 E12.55283
G1 X165.412 Y123.232 E12.63326
G1 X165.625 Y123.473 E12.64428
G1 X167.071 Y125.317 E12.72464
G1 X167.254 Y125.582 E12.73567
G1 X168.469 Y127.592 E12.81620
G1 X168.618 Y127.876 E12.82718
G1 X169.582 Y130.017 E12.90768
G1 X169.696 Y130.317 E12.91870
G1 X170.394 Y132.559 E12.99919
G1 X170.470 Y132.869 E13.01015
G1 X170.894 Y135.175 E13.09053
G1 X170.933 Y135.494 E13.10156
G1 X171.074 Y137.839 E13.18209
G1 X171.074 Y138.160 E13.19309
G1 X170.933 Y140.502 E13.27352
G1 X170.894 Y140.821 E13.28456
G1 X170.470 Y143.132 E13.36509
G1 X170.393 Y143.442 E13.37605
G1 X169.696 Y145.682 E13.45646
G1 X169.509 Y146.145 E13.47361
G1 X168.617 Y148.125 E13.54805
G1 X168.467 Y148.409 E13.55907
G1 X167.255 Y150.415 E13.63940
G1 X167.073 Y150.679 E13.65040
G1 X165.625 Y152.528 E13.73092
G1 X165.412 Y152.768 E13.74194
G1 X163.753 Y154.427 E13.82236
G1 X163.514 Y154.639 E13.83331
G1 X161.666 Y156.088 E13.91382
G1 X161.399 Y156.272 E13.92492
G1 X159.392 Y157.485 E14.00534
G1 X159.108 Y157.634 E14.01632
G1 X156.964 Y158.597 E14.09691
G1 X156.666 Y158.710 E14.10784
G1 X154.429 Y159.409 E14.18819
G1 X154.116 Y159.486 E14.19925
G1 X151.805 Y159.908 E14.27979
G1 X151.488 Y159.947 E14.29073
G1 X149.145 Y160.088 E14.37121
G1 X148.824 Y160.088 E14.38220
G1 X146.482 Y159.947 E14.46264
G1 X146.163 Y159.908 E14.47368
G1 X143.856 Y159.487 E14.55407
G1 X143.373 Y159.357 E14.57122
G1 X141.298 Y158.709 E14.64573
G1 X140.999 Y158.595 E14.65669
G1 X138.864 Y157.635 E14.73696
G1 X138.580 Y157.486 E14.74794
G1 X136.569 Y156.271 E14.82853
G1 X136.303 Y156.087 E14.83960
G1 X134.457 Y154.639 E14.92005
G1 X134.217 Y154.427 E14.93101
G1 X132.559 Y152.771 E15.01136
G1 X132.233 Y152.387 E15.02862
G1 X130.895 Y150.676 E15.10308
G1 X130.714 Y150.413 E15.11402
G1 X129.501 Y148.406 E15.19445
G1 X129.351 Y148.121 E15.20548
G1 X128.389 Y145.985 E15.28580
G1 X128.274 Y145.683 E15.29686
G1 X127.575 Y143.445 E15.37725
G1 X127.498 Y143.132 E15.38829
G1 X127.076 Y140.818 E15.46895
G1 X127.027 Y140.326 E15.48591
G1 X126.896 Y138.159 E15.56034
G1 X126.896 Y137.837 E15.57135
G1 X127.037 Y135.496 E15.65176
G1 X127.076 Y135.177 E15.66278
G1 X127.497 Y132.871 E15.74315
G1 X127.574 Y132.558 E15.75419
G1 X128.275 Y130.314 E15.83480
G1 X128.389 Y130.015 E15.84577
G1 X129.352 Y127.876 E15.92619
G1 X129.500 Y127.594 E15.93713
G1 X130.715 Y125.583 E16.01769
G1 X130.899 Y125.317 E16.02876
G1 X132.343 Y123.473 E16.10906
G1 X132.620 Y123.168 E16.12320
G1 X133.099 Y123.572 F7800.000
G1 X134.648 Y122.026 E16.19824 F1080.000
G1 X134.859 Y121.839 E16.20791
G1 X136.674 Y120.416 E16.28695
G1 X136.907 Y120.255 E16.29669
G1 X138.885 Y119.060 E16.37591
G1 X139.135 Y118.928 E16.38560
G1 X141.238 Y117.980 E16.46469
G1 X141.655 Y117.832 E16.47986
G1 X143.711 Y117.192 E16.55368
G1 X143.987 Y117.124 E16.56343
G1 X146.256 Y116.708 E16.64251
G1 X146.538 Y116.674 E16.65225
G1 X148.844 Y116.535 E16.73145
G1 X149.127 Y116.535 E16.74115 F1080.000
G1 X151.430 Y116.674 E16.82025
G1 X151.709 Y116.708 E16.82990
G1 X153.985 Y117.125 E16.90922
G1 X154.259 Y117.193 E16.91888
G1 X156.462 Y117.879 E16.99801
G1 X156.728 Y117.980 E17.00776
G1 X158.835 Y118.928 E17.08697
G1 X159.086 Y119.060 E17.09668
G1 X161.061 Y120.254 E17.17581
G1 X161.420 Y120.513 E17.19097
G1 X163.113 Y121.841 E17.26476
G1 X163.324 Y122.028 E17.27444
G1 X164.956 Y123.660 E17.35357
G1 X165.145 Y123.873 E17.36330
G1 X166.568 Y125.688 E17.44237
G1 X166.729 Y125.921 E17.45211
G1 X167.925 Y127.899 E17.53133
G1 X168.056 Y128.149 E17.54102
G1 X169.004 Y130.256 E17.62022
G1 X169.152 Y130.672 E17.63537
G1 X169.791 Y132.726 E17.70913
G1 X169.859 Y133.000 E17.71881
G1 X170.276 Y135.269 E17.79790
G1 X170.310 Y135.551 E17.80763
G1 X170.449 Y137.858 E17.88686
G1 X170.449 Y138.141 E17.89656
G1 X170.310 Y140.445 E17.97570
G1 X170.276 Y140.727 E17.98544
G1 X169.859 Y143.000 E18.06467
G1 X169.791 Y143.274 E18.07435
G1 X169.105 Y145.478 E18.15347
G1 X169.005 Y145.743 E18.16319
G1 X168.055 Y147.851 E18.24246
G1 X167.923 Y148.102 E18.25218
G1 X166.730 Y150.075 E18.33123
G1 X166.569 Y150.308 E18.34094
G1 X165.144 Y152.127 E18.42016
G1 X164.956 Y152.340 E18.42989
G1 X163.324 Y153.972 E18.50902
G1 X163.113 Y154.159 E18.51868
G1 X161.295 Y155.584 E18.59788
G1 X161.060 Y155.747 E18.60768
G1 X159.085 Y156.940 E18.68681
G1 X158.835 Y157.072 E18.69650
G1 X156.725 Y158.019 E18.77578
G1 X156.462 Y158.119 E18.78543
G1 X154.261 Y158.807 E18.86450
G1 X153.984 Y158.875 E18.87425
G1 X151.711 Y159.290 E18.95348
G1 X151.431 Y159.324 E18.96314
G1 X149.126 Y159.463 E19.04232
G1 X148.843 Y159.463 E19.05202
G1 X146.539 Y159.324 E19.13117
G1 X146.257 Y159.290 E19.14091
G1 X143.987 Y158.875 E19.22001
G1 X143.559 Y158.760 E19.23521
G1 X141.503 Y158.118 E19.30906
G1 X141.239 Y158.018 E19.31874
G1 X139.138 Y157.073 E19.39773
G1 X138.887 Y156.942 E19.40742
G1 X136.908 Y155.746 E19.48670
G1 X136.674 Y155.584 E19.49647
G1 X134.857 Y154.159 E19.57562
G1 X134.646 Y153.972 E19.58529
G1 X133.014 Y152.342 E19.66436
G1 X132.725 Y152.002 E19.67965
G1 X131.399 Y150.306 E19.75347
G1 X131.239 Y150.074 E19.76312
G1 X130.045 Y148.099 E19.84226
G1 X129.913 Y147.847 E19.85199
G1 X128.966 Y145.745 E19.93103
G1 X128.865 Y145.479 E19.94079
G1 X128.178 Y143.277 E20.01989
G1 X128.109 Y143.001 E20.02964
G1 X127.694 Y140.724 E20.10898
G1 X127.650 Y140.288 E20.12401
G1 X127.521 Y138.140 E20.19779
G1 X127.521 Y137.856 E20.20751
G1 X127.660 Y135.553 E20.28662
G1 X127.694 Y135.271 E20.29635
G1 X128.109 Y133.002 E20.37543
G1 X128.177 Y132.726 E20.38518
G1 X128.866 Y130.519 E20.46447
G1 X128.966 Y130.255 E20.47415
G1 X129.914 Y128.150 E20.55329
G1 X130.045 Y127.901 E20.56294
G1 X131.240 Y125.922 E20.64220
G1 X131.402 Y125.688 E20.65196
G1 X132.823 Y123.873 E20.73098
G1 X133.062 Y123.610 E20.74317
G1 X133.541 Y124.014 F7800.000
G1 X135.076 Y122.481 E20.81755 F1080.000
G1 X135.259 Y122.319 E20.82594
G1 X137.044 Y120.920 E20.90370
G1 X137.247 Y120.780 E20.91214
G1 X139.192 Y119.604 E20.99006
G1 X139.409 Y119.490 E20.99846
G1 X141.478 Y118.558 E21.07626
G1 X141.708 Y118.470 E21.08472
G1 X143.879 Y117.795 E21.16265
G1 X144.118 Y117.736 E21.17110
G1 X146.350 Y117.326 E21.24891
G1 X146.733 Y117.288 E21.26209
G1 X148.863 Y117.160 E21.33524
G1 X149.108 Y117.160 E21.34365
G1 X151.374 Y117.296 E21.42146 F1080.000
G1 X151.616 Y117.326 E21.42982
G1 X153.854 Y117.737 E21.50783
G1 X154.091 Y117.795 E21.51620
G1 X156.258 Y118.470 E21.59404
G1 X156.489 Y118.557 E21.60249
G1 X158.561 Y119.490 E21.68040
G1 X158.779 Y119.604 E21.68882
G1 X160.722 Y120.779 E21.76666
G1 X160.924 Y120.918 E21.77507
G1 X162.713 Y122.321 E21.85302
G1 X162.896 Y122.483 E21.86140
G1 X164.501 Y124.089 E21.93924
G1 X164.664 Y124.273 E21.94767
G1 X166.064 Y126.058 E22.02547
G1 X166.204 Y126.261 E22.03390
G1 X167.380 Y128.206 E22.11183
G1 X167.494 Y128.423 E22.12022
G1 X168.427 Y130.495 E22.19813
G1 X168.514 Y130.725 E22.20656
G1 X169.189 Y132.894 E22.28445
G1 X169.248 Y133.132 E22.29284
G1 X169.658 Y135.364 E22.37064
G1 X169.687 Y135.608 E22.37907
G1 X169.824 Y137.877 E22.45700
G1 X169.824 Y138.122 E22.46541
G1 X169.688 Y140.389 E22.54326
G1 X169.658 Y140.633 E22.55170
G1 X169.247 Y142.869 E22.62964
G1 X169.189 Y143.106 E22.63802
G1 X168.514 Y145.274 E22.71585
G1 X168.370 Y145.631 E22.72904
G1 X167.493 Y147.577 E22.80222
G1 X167.379 Y147.794 E22.81065
G1 X166.205 Y149.736 E22.88843
G1 X166.066 Y149.938 E22.89684
G1 X164.664 Y151.727 E22.97477
G1 X164.501 Y151.911 E22.98320
G1 X162.896 Y153.517 E23.06103
G1 X162.713 Y153.679 E23.06941
G1 X160.925 Y155.081 E23.14731
G1 X160.721 Y155.222 E23.15580
G1 X158.778 Y156.396 E23.23364
G1 X158.561 Y156.510 E23.24204
G1 X156.486 Y157.442 E23.32001
G1 X156.258 Y157.528 E23.32837
G1 X154.092 Y158.204 E23.40616
G1 X153.853 Y158.263 E23.41462
G1 X151.617 Y158.672 E23.49254
G1 X151.375 Y158.701 E23.50091
G1 X149.107 Y158.838 E23.57880
G1 X148.862 Y158.838 E23.58720
G1 X146.595 Y158.702 E23.66506
G1 X146.351 Y158.672 E23.67350
G1 X144.118 Y158.264 E23.75132
G1 X143.745 Y158.164 E23.76456
G1 X141.707 Y157.527 E23.83776
G1 X141.478 Y157.440 E23.84615
G1 X139.411 Y156.511 E23.92386
G1 X139.194 Y156.397 E23.93225
G1 X137.248 Y155.221 E24.01023
G1 X137.044 Y155.080 E24.01869
G1 X135.257 Y153.679 E24.09655
G1 X135.074 Y153.517 E24.10493
G1 X133.469 Y151.913 E24.18273
G1 X133.217 Y151.617 E24.19605
G1 X131.903 Y149.936 E24.26922
G1 X131.764 Y149.735 E24.27758
G1 X130.590 Y147.792 E24.35543
G1 X130.476 Y147.574 E24.36386
G1 X129.544 Y145.506 E24.44162
G1 X129.456 Y145.275 E24.45008
G1 X128.780 Y143.109 E24.52790
G1 X128.721 Y142.870 E24.53634
G1 X128.312 Y140.631 E24.61437
G1 X128.274 Y140.251 E24.62746
G1 X128.146 Y138.121 E24.70061
G1 X128.146 Y137.875 E24.70903
G1 X128.282 Y135.610 E24.78685
G1 X128.312 Y135.365 E24.79528
G1 X128.720 Y133.133 E24.87308
G1 X128.779 Y132.894 E24.88153
G1 X129.457 Y130.723 E24.95951
G1 X129.544 Y130.494 E24.96790
G1 X130.476 Y128.424 E25.04575
G1 X130.589 Y128.207 E25.05411
G1 X131.765 Y126.261 E25.13206
G1 X131.906 Y126.058 E25.14053
G1 X133.304 Y124.273 E25.21826
G1 X133.504 Y124.051 E25.22851
G1 X133.983 Y124.456 F7800.000
G1 X135.660 Y122.800 E25.30931 F1080.000
G1 X137.586 Y121.305 E25.39293
G1 X139.499 Y120.149 E25.46955
G1 X141.717 Y119.135 E25.55316
G1 X142.028 Y119.025 E25.56444
G1 X144.249 Y118.347 E25.64407
G1 X146.651 Y117.919 E25.72773
G1 X148.882 Y117.785 E25.80433
G1 X151.522 Y117.944 E25.89502 F1080.000
G1 X153.722 Y118.348 E25.97171
G1 X156.055 Y119.061 E26.05533
G1 X156.250 Y119.135 E26.06248
G1 X158.471 Y120.149 E26.14621
G1 X160.382 Y121.304 E26.22277
G1 X160.649 Y121.496 E26.23403
G1 X162.467 Y122.938 E26.31360
G1 X164.046 Y124.517 E26.39015
G1 X165.561 Y126.429 E26.47378
G1 X165.679 Y126.601 E26.48092
G1 X166.932 Y128.697 E26.56463
G1 X167.849 Y130.734 E26.64125
G1 X167.959 Y131.043 E26.65248
G1 X168.636 Y133.263 E26.73205
G1 X169.065 Y135.665 E26.81569
G1 X169.199 Y137.896 E26.89231
G1 X169.065 Y140.332 E26.97598
G1 X169.040 Y140.539 E26.98312
G1 X168.636 Y142.738 E27.05976
G1 X167.923 Y145.070 E27.14338
G1 X166.931 Y147.303 E27.22714
G1 X165.680 Y149.396 E27.31076
G1 X165.562 Y149.567 E27.31787
