;-- START GCODE --
;Sliced for Type A Machines Series 1
;Sliced at: Sat 16-01-2016 11:59:54
;Basic settings: Layer height: 0.2 Walls: 1 Fill: 40
;Print Speed: 100 Support: 0
;Retraction Speed: 60 Retraction Distance: 1.4
;Print time: 16 minutes
;Filament used: 0.942m 2.0g
;Filament cost: None
G21        ;metric values
G90        ;absolute positioning
G28     ;move to endstops
G29		;allows for auto-levelling
G1 X150 Y5  Z15.0 F12000 ;center and move the platform down 15mm
M109 S225 ;Heat To temp
G1 X150 Y5 Z0.3 ;move the platform to purge extrusion
G92 E0 ;zero the extruded length
G1 F200 X250 E30 ;extrude 30mm of feed stock
G92 E0 ;zero the extruded length again
G1 X150 Y150  Z25 F12000 ;recenter and begin
G1 F12000

;Layer count: 104
;LAYER:0
M107
G0 F12000 X141.48 Y135.50 Z0.20
;TYPE:SKIRT
G1 F2700 X147.40 Y135.44 E0.24589
G1 X152.43 Y135.47 E0.45539
G1 X154.34 Y136.37 E0.54297
G1 X155.48 Y137.98 E0.62494
G1 X155.80 Y139.34 E0.68302
G1 X155.87 Y139.91 E0.70654
G1 X155.85 Y159.16 E1.50715
G1 X155.86 Y163.73 E1.69707
G1 X156.27 Y164.53 E1.73450
G1 X156.55 Y165.51 E1.77669
G1 X156.66 Y166.45 E1.81618
G1 X156.65 Y166.69 E1.82596
G1 X156.66 Y167.53 E1.86105
G1 X156.63 Y173.43 E2.10618
G1 X144.38 Y173.43 E2.61560
G1 X144.38 Y167.59 E2.85811
G1 X144.38 Y166.35 E2.90974
G1 X144.38 Y164.32 E2.99402
G1 X144.40 Y164.08 E3.00429
G1 X144.40 Y161.77 E3.10033
G1 X142.37 Y159.74 E3.21980
G1 X142.37 Y155.33 E3.40303
G1 X140.21 Y155.33 E3.49275
G1 X140.21 Y142.75 E4.01580
G1 X141.48 Y142.75 E4.06856
G1 X141.48 Y135.50 E4.36990
G0 F12000 X141.98 Y136.00
G1 F2700 X147.40 Y135.94 E4.59504
G1 X152.32 Y135.97 E4.79976
G1 X154.01 Y136.77 E4.87728
G1 X155.01 Y138.19 E4.94973
G1 X155.30 Y139.43 E5.00273
G1 X155.37 Y139.94 E5.02383
G1 X155.35 Y159.16 E5.82311
G1 X155.36 Y163.86 E6.01839
G1 X155.38 Y163.88 E6.01948
G1 X155.80 Y164.72 E6.05849
G1 X156.06 Y165.61 E6.09700
G1 X156.16 Y166.47 E6.13319
G1 X156.15 Y166.67 E6.14155
G1 X156.16 Y167.53 E6.17718
G1 X156.13 Y172.93 E6.40156
G1 X144.88 Y172.93 E6.86949
G1 X144.88 Y167.59 E7.09117
G1 X144.88 Y166.35 E7.14285
G1 X144.88 Y164.35 E7.22613
G1 X144.90 Y164.10 E7.23653
G1 X144.90 Y161.56 E7.34204
G1 X142.87 Y159.53 E7.46152
G1 X142.87 Y154.83 E7.65692
G1 X140.71 Y154.83 E7.74664
G1 X140.71 Y143.25 E8.22812
G1 X141.98 Y143.25 E8.28088
G1 X141.98 Y136.00 E8.58247
G1 F3600 E7.18247
G0 F12000 X145.98 Y139.95
;TYPE:WALL-INNER
G1 F3600 E8.58247
G1 F2700 X147.40 Y139.94 E8.64159
G1 X151.32 Y139.97 E8.80444
G1 X151.37 Y140.20 E8.81439
G1 X151.35 Y159.16 E9.60262
G1 X151.37 Y165.33 E9.85909
G1 X151.79 Y165.76 E9.88417
G1 X151.96 Y165.98 E9.89582
G1 X152.06 Y166.19 E9.90554
G1 X152.13 Y166.40 E9.91469
G1 X152.15 Y166.63 E9.92418
G1 X152.16 Y167.53 E9.96148
G1 X152.15 Y168.93 E10.01972
G1 X148.88 Y168.93 E10.15576
G1 X148.88 Y164.54 E10.33815
G1 X148.90 Y164.30 E10.34822
G1 X148.90 Y159.91 E10.53090
G1 X146.87 Y157.87 E10.65034
G1 X146.87 Y150.83 E10.94320
G1 X144.71 Y150.83 E11.03292
G1 X144.71 Y147.25 E11.18180
G1 X145.98 Y147.25 E11.23456
G1 X145.98 Y139.95 E11.53789
G0 F12000 X145.48 Y139.46
;TYPE:WALL-OUTER
G1 F2700 X147.40 Y139.44 E11.61776
G1 X151.52 Y139.47 E11.78914
G1 X151.68 Y139.54 E11.79630
G1 X151.76 Y139.66 E11.80215
G1 X151.87 Y140.17 E11.82383
G1 X151.87 Y165.12 E12.86134
G1 X152.17 Y165.43 E12.87939
G1 X152.39 Y165.72 E12.89452
G1 X152.53 Y166.01 E12.90770
G1 X152.62 Y166.30 E12.92053
G1 X152.65 Y166.60 E12.93321
G1 X152.65 Y166.62 E12.93404
G1 X152.66 Y167.53 E12.97158
G1 X152.65 Y169.43 E13.05053
G1 X148.38 Y169.43 E13.22806
G1 X148.38 Y164.52 E13.43203
G1 X148.40 Y164.27 E13.44234
G1 X148.40 Y160.11 E13.61538
G1 X146.37 Y158.08 E13.73485
G1 X146.37 Y151.33 E14.01549
G1 X144.21 Y151.33 E14.10521
G1 X144.21 Y146.75 E14.29566
G1 X145.48 Y146.75 E14.34842
G1 X145.48 Y139.46 E14.65154
G0 F12000 X146.15 Y140.14
;TYPE:FILL
G1 F2700 X151.19 Y145.18 E14.94785
G0 F12000 X151.19 Y145.89
G1 F2700 X146.15 Y140.85 E15.24415
G0 F12000 X146.15 Y141.56
G1 F2700 X151.19 Y146.60 E15.54048
G0 F12000 X151.19 Y147.31
G1 F2700 X146.15 Y142.26 E15.83682
G0 F12000 X146.15 Y142.97
G1 F2700 X151.19 Y148.01 E16.13315
G0 F12000 X151.19 Y148.72
G1 F2700 X146.15 Y143.68 E16.42948
G0 F12000 X146.16 Y144.39
G1 F2700 X151.19 Y149.43 E16.72576
G0 F12000 X151.19 Y150.13
G1 F2700 X146.16 Y145.09 E17.02203
G0 F12000 X146.16 Y145.80
G1 F2700 X151.19 Y150.84 E17.31830
G0 F12000 X151.19 Y151.55
G1 F2700 X146.16 Y146.51 E17.61458
G0 F12000 X146.16 Y147.22
G1 F2700 X151.19 Y152.25 E17.91082
G0 F12000 X151.19 Y152.96
G1 F2700 X145.66 Y147.42 E18.23644
G0 F12000 X144.95 Y147.42
G1 F2700 X151.19 Y153.67 E18.60362
G0 F12000 X151.19 Y154.38
G1 F2700 X144.89 Y148.07 E18.97444
G0 F12000 X144.89 Y148.78
G1 F2700 X146.76 Y150.65 E19.08489
G0 F12000 X147.04 Y150.93
G1 F2700 X151.19 Y155.08 E19.32881
G0 F12000 X151.19 Y155.79
G1 F2700 X147.04 Y151.64 E19.57273
G0 F12000 X147.04 Y152.35
G1 F2700 X151.19 Y156.50 E19.81664
G0 F12000 X151.19 Y157.20
G1 F2700 X147.04 Y153.06 E20.06056
G0 F12000 X147.04 Y153.76
G1 F2700 X151.19 Y157.91 E20.30450
G0 F12000 X151.19 Y158.62
G1 F2700 X147.04 Y154.47 E20.54845
G0 F12000 X147.04 Y155.18
G1 F2700 X151.19 Y159.32 E20.79239
G0 F12000 X151.19 Y160.03
G1 F2700 X147.04 Y155.88 E21.03634
G0 F12000 X147.04 Y156.59
G1 F2700 X151.19 Y160.74 E21.28028
G0 F12000 X151.19 Y161.45
G1 F2700 X147.04 Y157.30 E21.52420
G0 F12000 X149.08 Y160.04
G1 F2700 X151.19 Y162.15 E21.64867
G0 F12000 X151.19 Y162.86
G1 F2700 X149.08 Y160.74 E21.77314
G0 F12000 X149.08 Y161.45
G1 F2700 X151.19 Y163.57 E21.89761
G0 F12000 X151.19 Y164.28
G1 F2700 X149.08 Y162.16 E22.02211
G0 F12000 X149.08 Y162.87
G1 F2700 X151.19 Y164.98 E22.14659
G0 F12000 X151.96 Y166.45
G1 F2700 X149.08 Y163.57 E22.31598
G0 F12000 X149.08 Y164.28
G1 F2700 X151.98 Y167.18 E22.48649
G0 F12000 X151.97 Y167.88
G1 F2700 X149.05 Y164.96 E22.65841
G0 F12000 X149.05 Y165.67
G1 F2700 X151.97 Y168.59 E22.83033
G0 F12000 X151.43 Y168.75
G1 F2700 X149.05 Y166.38 E22.97003
G0 F12000 X149.05 Y167.08
G1 F2700 X150.72 Y168.75 E23.06816
G0 F12000 X150.01 Y168.75
G1 F2700 X149.05 Y167.79 E23.12469
G0 F12000 X149.05 Y168.50
G1 F2700 X149.31 Y168.75 E23.13965
G0 F12000 X148.84 Y159.93
G0 X146.76 Y150.94
G0 X146.06 Y150.65
G1 F2700 X144.89 Y149.48 E23.20850
G0 F12000 X144.89 Y150.19
G1 F2700 X145.35 Y150.65 E23.23579
G0 F12000 X151.19 Y144.48
G1 F2700 X146.84 Y140.12 E23.49196
G0 F12000 X147.54 Y140.11
G1 F2700 X151.19 Y143.77 E23.70686
G0 F12000 X151.19 Y143.06
G1 F2700 X148.25 Y140.12 E23.87990
G0 F12000 X148.96 Y140.12
G1 F2700 X151.19 Y142.35 E24.01101
G0 F12000 X151.19 Y141.65
G1 F2700 X149.68 Y140.13 E24.10027
G0 F12000 X150.39 Y140.13
G1 F2700 X151.19 Y140.94 E24.14766
G0 F12000 X151.19 Y140.23
G1 F2700 X151.10 Y140.14 E24.15318
;LAYER:1
M106 S17
G0 F12000 X151.73 Y140.16 Z0.40
;TYPE:WALL-INNER
G1 F3120 X151.73 Y165.16 E25.19244
G1 X152.06 Y165.50 E25.21240
G1 X152.28 Y165.80 E25.22740
G1 X152.41 Y166.06 E25.23943
G1 X152.49 Y166.37 E25.25290
G1 X152.52 Y166.62 E25.26349
G1 X152.52 Y167.17 E25.28652
G1 X152.52 Y168.93 E25.35940
G1 X148.83 Y168.93 E25.51294
G1 X148.83 Y165.42 E25.65874
G1 X148.83 Y164.85 E25.68261
G1 X148.89 Y164.42 E25.70050
G1 X148.90 Y159.91 E25.88821
G1 X146.87 Y157.87 E26.00772
G1 X146.87 Y150.83 E26.30057
G1 X144.71 Y150.83 E26.39029
G1 X144.71 Y147.25 E26.53917
G1 X145.98 Y147.25 E26.59193
G1 X145.98 Y139.23 E26.92545
G1 X146.42 Y139.23 E26.94378
G1 X151.47 Y139.24 E27.15378
G1 X151.53 Y139.29 E27.15704
G1 X151.63 Y139.50 E27.16647
G1 X151.69 Y139.71 E27.17572
G1 X151.73 Y140.16 E27.19450
G0 F12000 X152.23 Y140.14
;TYPE:WALL-OUTER
G1 F3120 X152.23 Y164.96 E28.22640
G1 X152.45 Y165.19 E28.23960
G1 X152.70 Y165.53 E28.25712
G1 X152.87 Y165.87 E28.27324
G1 X152.99 Y166.27 E28.29052
G1 X153.02 Y166.59 E28.30378
G1 X153.02 Y167.18 E28.32806
G1 X153.02 Y169.43 E28.42169
G1 X148.33 Y169.43 E28.61676
G1 X148.33 Y164.79 E28.80942
G1 X148.39 Y164.39 E28.82654
G1 X148.40 Y160.11 E29.00423
G1 X146.37 Y158.08 E29.12373
G1 X146.37 Y151.33 E29.40436
G1 X144.21 Y151.33 E29.49408
G1 X144.21 Y146.75 E29.68454
G1 X145.48 Y146.75 E29.73730
G1 X145.48 Y138.73 E30.07073
G1 X146.42 Y138.73 E30.10981
G1 X151.54 Y138.74 E30.32264
G1 X151.72 Y138.79 E30.33061
G1 X151.91 Y138.96 E30.34108
G1 X152.01 Y139.10 E30.34831
G1 X152.10 Y139.33 E30.35870
G1 X152.18 Y139.62 E30.37109
G1 X152.23 Y140.14 E30.39259
G0 F12000 X151.55 Y140.13
;TYPE:FILL
G1 F3120 X146.16 Y145.53 E30.70962
G0 F12000 X146.16 Y146.23
G1 F3120 X151.55 Y140.84 E31.02689
G0 F12000 X151.55 Y141.54
G1 F3120 X146.16 Y146.94 E31.34415
G0 F12000 X145.67 Y147.42
G1 F3120 X144.89 Y148.21 E31.39030
G0 F12000 X144.89 Y148.91
G1 F3120 X151.55 Y142.25 E31.78218
G0 F12000 X151.55 Y142.96
G1 F3120 X144.89 Y149.62 E32.17406
G0 F12000 X144.89 Y150.33
G1 F3120 X151.55 Y143.66 E32.56593
G0 F12000 X151.55 Y144.37
G1 F3120 X145.27 Y150.65 E32.93532
G0 F12000 X145.98 Y150.65
G1 F3120 X151.55 Y145.08 E33.26314
G0 F12000 X151.55 Y145.78
G1 F3120 X146.68 Y150.65 E33.54939
G0 F12000 X147.04 Y151.00
G1 F3120 X151.55 Y146.49 E33.81447
G0 F12000 X151.55 Y147.20
G1 F3120 X147.04 Y151.71 E34.07955
G0 F12000 X147.04 Y152.41
G1 F3120 X151.55 Y147.91 E34.34464
G0 F12000 X151.55 Y148.61
G1 F3120 X147.04 Y153.12 E34.60972
G0 F12000 X147.04 Y153.83
G1 F3120 X151.55 Y149.32 E34.87480
G0 F12000 X151.55 Y150.03
G1 F3120 X147.04 Y154.54 E35.13997
G0 F12000 X147.04 Y155.24
G1 F3120 X151.55 Y150.73 E35.40514
G0 F12000 X151.55 Y151.44
G1 F3120 X147.04 Y155.95 E35.67028
G0 F12000 X147.04 Y156.66
G1 F3120 X151.55 Y152.15 E35.93543
G0 F12000 X151.55 Y152.85
G1 F3120 X147.04 Y157.36 E36.20060
G0 F12000 X147.18 Y157.94
G1 F3120 X151.55 Y153.56 E36.45777
G0 F12000 X151.55 Y154.27
G1 F3120 X147.53 Y158.29 E36.69416
G0 F12000 X147.89 Y158.64
G1 F3120 X151.55 Y154.97 E36.90977
G0 F12000 X151.55 Y155.68
G1 F3120 X148.24 Y159.00 E37.10459
G0 F12000 X148.59 Y159.35
G1 F3120 X151.56 Y156.39 E37.27868
G0 F12000 X151.56 Y157.10
G1 F3120 X148.95 Y159.70 E37.43196
G0 F12000 X149.08 Y160.28
G1 F3120 X151.56 Y157.80 E37.57769
G0 F12000 X151.56 Y158.51
G1 F3120 X149.07 Y160.99 E37.72350
G0 F12000 X149.07 Y161.70
G1 F3120 X151.56 Y159.22 E37.86944
G0 F12000 X151.56 Y159.92
G1 F3120 X149.07 Y162.41 E38.01546
G0 F12000 X149.07 Y163.12
G1 F3120 X151.56 Y160.63 E38.16157
G0 F12000 X151.56 Y161.34
G1 F3120 X149.07 Y163.82 E38.30773
G0 F12000 X149.05 Y164.55
G1 F3120 X151.56 Y162.04 E38.45508
G0 F12000 X151.56 Y162.75
G1 F3120 X149.00 Y165.31 E38.60536
G0 F12000 X149.00 Y166.01
G1 F3120 X151.56 Y163.46 E38.75561
G0 F12000 X151.56 Y164.17
G1 F3120 X149.00 Y166.72 E38.90587
G0 F12000 X149.00 Y167.43
G1 F3120 X151.56 Y164.87 E39.05609
G0 F12000 X151.73 Y165.41
G1 F3120 X149.00 Y168.13 E39.21646
G0 F12000 X149.09 Y168.75
G1 F3120 X152.05 Y165.79 E39.39061
G0 F12000 X152.28 Y166.27
G1 F3120 X149.80 Y168.75 E39.53663
G0 F12000 X150.51 Y168.75
G1 F3120 X152.35 Y166.91 E39.64479
G0 F12000 X152.35 Y167.62
G1 F3120 X151.21 Y168.75 E39.71134
G0 F12000 X151.92 Y168.75
G1 F3120 X152.35 Y168.33 E39.73633
G0 F12000 X146.76 Y150.94
G0 X144.89 Y147.50
G1 F3120 X144.97 Y147.42 E39.74092
G0 F12000 X145.87 Y147.14
G0 X146.16 Y144.82
G1 F3120 X151.45 Y139.52 E40.05216
G0 F12000 X150.85 Y139.41
G1 F3120 X146.16 Y144.11 E40.32835
G0 F12000 X146.16 Y143.40
G1 F3120 X150.15 Y139.41 E40.56310
G0 F12000 X149.44 Y139.41
G1 F3120 X146.16 Y142.70 E40.75630
G0 F12000 X146.16 Y141.99
G1 F3120 X148.74 Y139.41 E40.90805
G0 F12000 X148.03 Y139.41
G1 F3120 X146.16 Y141.28 E41.01835
G0 F12000 X146.16 Y140.57
G1 F3120 X147.33 Y139.40 E41.08723
G0 F12000 X146.62 Y139.40
G1 F3120 X146.16 Y139.87 E41.11466
;LAYER:2
M106 S35
G0 F12000 X145.98 Y138.80 Z0.60
;TYPE:WALL-INNER
G1 F3300 X151.51 Y138.78 E41.34453
G1 X151.56 Y138.79 E41.34674
G1 X151.62 Y138.83 E41.34949
G1 X151.68 Y138.90 E41.35349
G1 X151.84 Y139.25 E41.36967
G1 X151.93 Y139.70 E41.38858
G1 X151.96 Y165.06 E42.44276
G1 X152.23 Y165.35 E42.45956
G1 X152.47 Y165.68 E42.47642
G1 X152.62 Y165.98 E42.49036
G1 X152.70 Y166.28 E42.50322
G1 X152.74 Y166.64 E42.51848
G1 X152.74 Y168.93 E42.61339
G1 X148.78 Y168.93 E42.77811
G1 X148.78 Y165.04 E42.93972
G1 X148.86 Y164.71 E42.95391
G1 X148.90 Y164.30 E42.97098
G1 X148.90 Y159.91 E43.15370
G1 X146.87 Y157.87 E43.27315
G1 X146.87 Y150.83 E43.56600
G1 X144.71 Y150.83 E43.65572
G1 X144.71 Y147.25 E43.80460
G1 X145.98 Y147.25 E43.85736
G1 X145.98 Y138.80 E44.20863
G0 F12000 X145.48 Y138.30
;TYPE:WALL-OUTER
G1 F3300 X151.56 Y138.28 E44.46124
G1 X151.75 Y138.32 E44.46947
G1 X151.94 Y138.44 E44.47883
G1 X152.08 Y138.59 E44.48722
G1 X152.12 Y138.66 E44.49063
G1 X152.32 Y139.10 E44.51086
G1 X152.42 Y139.64 E44.53367
G1 X152.46 Y140.15 E44.55483
G1 X152.46 Y164.86 E45.58228
G1 X152.62 Y165.04 E45.59214
G1 X152.90 Y165.42 E45.61199
G1 X153.08 Y165.80 E45.62940
G1 X153.19 Y166.18 E45.64607
G1 X153.24 Y166.62 E45.66438
G1 X153.24 Y169.43 E45.78108
G1 X148.28 Y169.43 E45.98737
G1 X148.28 Y164.97 E46.17272
G1 X148.36 Y164.63 E46.18717
G1 X148.40 Y164.27 E46.20218
G1 X148.40 Y160.11 E46.37518
G1 X146.37 Y158.08 E46.49465
G1 X146.37 Y151.33 E46.77528
G1 X144.21 Y151.33 E46.86500
G1 X144.21 Y146.75 E47.05546
G1 X145.48 Y146.75 E47.10822
G1 X145.48 Y138.30 E47.45945
G0 F12000 X146.40 Y138.97
;TYPE:FILL
G1 F3300 X151.75 Y144.33 E47.77448
G0 F12000 X151.76 Y145.04
G1 F3300 X146.16 Y139.44 E48.10379
G0 F12000 X146.16 Y140.15
G1 F3300 X151.76 Y145.75 E48.43314
G0 F12000 X151.76 Y146.45
G1 F3300 X146.16 Y140.85 E48.76252
G0 F12000 X146.16 Y141.56
G1 F3300 X151.76 Y147.16 E49.09201
G0 F12000 X151.76 Y147.87
G1 F3300 X146.16 Y142.27 E49.42150
G0 F12000 X146.16 Y142.97
G1 F3300 X151.76 Y148.58 E49.75106
G0 F12000 X151.76 Y149.29
G1 F3300 X146.16 Y143.68 E50.08067
G0 F12000 X146.16 Y144.39
G1 F3300 X151.76 Y150.00 E50.41037
G0 F12000 X151.76 Y150.70
G1 F3300 X146.16 Y145.09 E50.74010
G0 F12000 X146.16 Y145.80
G1 F3300 X151.76 Y151.41 E51.06988
G0 F12000 X151.76 Y152.12
G1 F3300 X146.16 Y146.51 E51.39970
G0 F12000 X146.16 Y147.22
G1 F3300 X151.77 Y152.83 E51.72958
G0 F12000 X151.77 Y153.53
G1 F3300 X145.66 Y147.42 E52.08891
G0 F12000 X144.95 Y147.42
G1 F3300 X151.77 Y154.24 E52.48984
G0 F12000 X151.77 Y154.95
G1 F3300 X144.89 Y148.07 E52.89448
G0 F12000 X144.89 Y148.78
G1 F3300 X146.76 Y150.65 E53.00492
G0 F12000 X147.04 Y150.93
G1 F3300 X151.77 Y155.66 E53.28271
G0 F12000 X151.77 Y156.37
G1 F3300 X147.04 Y151.64 E53.56055
G0 F12000 X147.04 Y152.35
G1 F3300 X151.77 Y157.07 E53.83845
G0 F12000 X151.77 Y157.78
G1 F3300 X147.04 Y153.06 E54.11638
G0 F12000 X147.04 Y153.76
G1 F3300 X151.77 Y158.49 E54.39439
G0 F12000 X151.77 Y159.20
G1 F3300 X147.04 Y154.47 E54.67247
G0 F12000 X147.04 Y155.18
G1 F3300 X151.77 Y159.91 E54.95058
G0 F12000 X151.78 Y160.62
G1 F3300 X147.04 Y155.88 E55.22880
G0 F12000 X147.04 Y156.59
G1 F3300 X151.78 Y161.32 E55.50702
G0 F12000 X151.78 Y162.03
G1 F3300 X147.04 Y157.30 E55.78528
G0 F12000 X149.08 Y160.04
G1 F3300 X151.78 Y162.74 E55.94414
G0 F12000 X151.78 Y163.45
G1 F3300 X149.08 Y160.74 E56.10310
G0 F12000 X149.08 Y161.45
G1 F3300 X151.78 Y164.15 E56.26208
G0 F12000 X151.78 Y164.86
G1 F3300 X149.07 Y162.16 E56.42116
G0 F12000 X149.07 Y162.86
G1 F3300 X152.53 Y166.32 E56.62436
G0 F12000 X152.57 Y167.06
G1 F3300 X149.07 Y163.57 E56.82959
G0 F12000 X149.07 Y164.28
G1 F3300 X152.56 Y167.77 E57.03478
G0 F12000 X152.56 Y168.47
G1 F3300 X148.99 Y164.90 E57.24498
G0 F12000 X148.95 Y165.57
G1 F3300 X152.13 Y168.75 E57.43213
G0 F12000 X151.43 Y168.75
G1 F3300 X148.95 Y166.28 E57.57768
G0 F12000 X148.95 Y166.98
G1 F3300 X150.72 Y168.75 E57.68166
G0 F12000 X150.01 Y168.75
G1 F3300 X148.95 Y167.69 E57.74407
G0 F12000 X148.95 Y168.40
G1 F3300 X149.31 Y168.75 E57.76491
G0 F12000 X148.84 Y159.93
G0 X146.76 Y150.94
G0 X146.06 Y150.65
G1 F3300 X144.89 Y149.48 E57.83376
G0 F12000 X144.89 Y150.19
G1 F3300 X145.35 Y150.65 E57.86105
G0 F12000 X151.75 Y143.62
G1 F3300 X147.10 Y138.97 E58.13454
G0 F12000 X147.81 Y138.97
G1 F3300 X151.75 Y142.91 E58.36652
G0 F12000 X151.75 Y142.21
G1 F3300 X148.51 Y138.97 E58.55702
G0 F12000 X149.22 Y138.96
G1 F3300 X151.75 Y141.50 E58.70606
G0 F12000 X151.75 Y140.79
G1 F3300 X149.92 Y138.96 E58.81354
G0 F12000 X150.63 Y138.96
G1 F3300 X151.75 Y140.08 E58.87957
G0 F12000 X151.66 Y139.29
G1 F3300 X151.33 Y138.96 E58.89903
;LAYER:3
M106 S53
G0 F12000 X151.52 Y138.41 Z0.80
;TYPE:WALL-INNER
G1 F3420 X151.61 Y138.43 E58.90291
G1 X151.65 Y138.44 E58.90458
G1 X151.74 Y138.54 E58.91017
G1 X151.88 Y138.76 E58.92084
G1 X152.01 Y139.19 E58.93941
G1 X152.09 Y139.70 E58.96112
G1 X152.11 Y164.96 E60.01114
G1 X152.61 Y165.61 E60.04532
G1 X152.77 Y165.93 E60.06037
G1 X152.87 Y166.26 E60.07468
G1 X152.91 Y166.60 E60.08878
G1 X152.91 Y166.68 E60.09185
G1 X152.91 Y168.93 E60.18548
G1 X148.73 Y168.93 E60.35931
G1 X148.73 Y165.21 E60.51401
G1 X148.86 Y164.71 E60.53537
G1 X148.90 Y164.30 E60.55251
G1 X148.90 Y159.91 E60.73520
G1 X146.87 Y157.87 E60.85464
G1 X146.87 Y150.83 E61.14750
G1 X144.71 Y150.83 E61.23722
G1 X144.71 Y147.25 E61.38610
G1 X145.98 Y147.25 E61.43885
G1 X145.98 Y138.41 E61.80646
G1 X146.46 Y138.41 E61.82625
G1 X151.52 Y138.41 E62.03683
G0 F12000 X151.56 Y137.91
;TYPE:WALL-OUTER
G1 F3420 X151.77 Y137.94 E62.04568
G1 X151.95 Y138.04 E62.05423
G1 X152.14 Y138.24 E62.06567
G1 X152.33 Y138.54 E62.08073
G1 X152.50 Y139.07 E62.10389
G1 X152.59 Y139.65 E62.12816
G1 X152.61 Y164.79 E63.17315
G1 X153.03 Y165.34 E63.20206
G1 X153.24 Y165.75 E63.22128
G1 X153.36 Y166.17 E63.23926
G1 X153.41 Y166.57 E63.25629
G1 X153.41 Y166.68 E63.26053
G1 X153.41 Y169.43 E63.37487
G1 X148.23 Y169.43 E63.59027
G1 X148.23 Y165.13 E63.76908
G1 X148.34 Y164.76 E63.78501
G1 X148.40 Y164.27 E63.80544
G1 X148.40 Y160.11 E63.97839
G1 X146.37 Y158.08 E64.09786
G1 X146.37 Y151.33 E64.37850
G1 X144.21 Y151.33 E64.46821
G1 X144.21 Y146.75 E64.65867
G1 X145.48 Y146.75 E64.71143
G1 X145.48 Y137.91 E65.07891
G1 X146.46 Y137.91 E65.11941
G1 X151.56 Y137.91 E65.33161
G0 F12000 X151.61 Y138.66
;TYPE:FILL
G1 F3420 X146.16 Y144.11 E65.65225
G0 F12000 X146.16 Y144.82
G1 F3420 X151.82 Y139.16 E65.98519
G0 F12000 X151.91 Y139.77
G1 F3420 X146.16 Y145.53 E66.32356
G0 F12000 X146.16 Y146.23
G1 F3420 X151.91 Y140.48 E66.66193
G0 F12000 X151.91 Y141.18
G1 F3420 X146.16 Y146.94 E67.00033
G0 F12000 X145.67 Y147.42
G1 F3420 X144.89 Y148.21 E67.04649
G0 F12000 X144.89 Y148.91
G1 F3420 X151.91 Y141.89 E67.45953
G0 F12000 X151.91 Y142.60
G1 F3420 X144.89 Y149.62 E67.87263
G0 F12000 X144.89 Y150.33
G1 F3420 X151.91 Y143.30 E68.28579
G0 F12000 X151.91 Y144.01
G1 F3420 X145.27 Y150.65 E68.67646
G0 F12000 X145.98 Y150.65
G1 F3420 X151.91 Y144.72 E69.02562
G0 F12000 X151.92 Y145.42
G1 F3420 X146.68 Y150.65 E69.33324
G0 F12000 X147.04 Y151.00
G1 F3420 X151.92 Y146.13 E69.61970
G0 F12000 X151.92 Y146.83
G1 F3420 X147.04 Y151.71 E69.90621
G0 F12000 X147.04 Y152.41
G1 F3420 X151.92 Y147.54 E70.19270
G0 F12000 X151.92 Y148.25
G1 F3420 X147.04 Y153.12 E70.47924
G0 F12000 X147.04 Y153.83
G1 F3420 X151.92 Y148.95 E70.76584
G0 F12000 X151.92 Y149.66
G1 F3420 X147.04 Y154.54 E71.05247
G0 F12000 X147.04 Y155.24
G1 F3420 X151.92 Y150.37 E71.33916
G0 F12000 X151.92 Y151.07
G1 F3420 X147.04 Y155.95 E71.62588
G0 F12000 X147.04 Y156.66
G1 F3420 X151.92 Y151.78 E71.91263
G0 F12000 X151.92 Y152.49
G1 F3420 X147.04 Y157.36 E72.19944
G0 F12000 X147.18 Y157.94
G1 F3420 X151.92 Y153.19 E72.47828
G0 F12000 X151.92 Y153.90
G1 F3420 X147.53 Y158.29 E72.73634
G0 F12000 X147.89 Y158.64
G1 F3420 X151.92 Y154.61 E72.97367
G0 F12000 X151.92 Y155.31
G1 F3420 X148.24 Y159.00 E73.19021
G0 F12000 X148.59 Y159.35
G1 F3420 X151.93 Y156.02 E73.38606
G0 F12000 X151.93 Y156.72
G1 F3420 X148.95 Y159.70 E73.56116
G0 F12000 X149.08 Y160.28
G1 F3420 X151.93 Y157.43 E73.72870
G0 F12000 X151.93 Y158.14
G1 F3420 X149.08 Y160.99 E73.89630
G0 F12000 X149.08 Y161.70
G1 F3420 X151.93 Y158.84 E74.06393
G0 F12000 X151.93 Y159.55
G1 F3420 X149.08 Y162.40 E74.23164
G0 F12000 X149.08 Y163.11
G1 F3420 X151.93 Y160.26 E74.39936
G0 F12000 X151.93 Y160.97
G1 F3420 X149.08 Y163.82 E74.56710
G0 F12000 X149.05 Y164.55
G1 F3420 X151.93 Y161.67 E74.73652
G0 F12000 X151.93 Y162.38
G1 F3420 X148.90 Y165.41 E74.91468
G0 F12000 X148.90 Y166.11
G1 F3420 X151.93 Y163.08 E75.09283
G0 F12000 X151.93 Y163.79
G1 F3420 X148.90 Y166.82 E75.27107
G0 F12000 X148.90 Y167.53
G1 F3420 X151.93 Y164.50 E75.44934
G0 F12000 X152.01 Y165.12
G1 F3420 X148.90 Y168.24 E75.63240
G0 F12000 X149.09 Y168.75
G1 F3420 X152.32 Y165.52 E75.82225
G0 F12000 X152.59 Y165.96
G1 F3420 X149.80 Y168.75 E75.98630
G0 F12000 X150.51 Y168.75
G1 F3420 X152.72 Y166.53 E76.11662
G0 F12000 X152.73 Y167.23
G1 F3420 X151.21 Y168.75 E76.20578
G0 F12000 X151.92 Y168.75
G1 F3420 X152.73 Y167.94 E76.25341
G0 F12000 X152.73 Y168.65
G1 F3420 X152.63 Y168.75 E76.25946
G0 F12000 X146.76 Y150.94
G0 X144.89 Y147.50
G1 F3420 X144.97 Y147.42 E76.26405
G0 F12000 X145.87 Y147.14
G0 X146.16 Y143.40
G1 F3420 X150.97 Y138.59 E76.54739
G0 F12000 X150.27 Y138.58
G1 F3420 X146.16 Y142.70 E76.78916
G0 F12000 X146.16 Y141.99
G1 F3420 X149.56 Y138.58 E76.98942
G0 F12000 X148.85 Y138.58
G1 F3420 X146.16 Y141.28 E77.14811
G0 F12000 X146.16 Y140.57
G1 F3420 X148.15 Y138.58 E77.26529
G0 F12000 X147.44 Y138.58
G1 F3420 X146.16 Y139.87 E77.34096
G0 F12000 X146.16 Y139.16
G1 F3420 X146.74 Y138.58 E77.37509
;LAYER:4
M106 S71
G0 F12000 X145.98 Y138.12 Z1.00
;TYPE:WALL-INNER
G1 F3540 X151.08 Y138.10 E77.58696
G1 X151.52 Y138.10 E77.60542
G1 X151.62 Y138.11 E77.60942
G1 X151.68 Y138.14 E77.61230
G1 X151.79 Y138.25 E77.61875
G1 X151.90 Y138.38 E77.62569
G1 X152.03 Y138.69 E77.64006
G1 X152.16 Y139.22 E77.66264
G1 X152.20 Y139.69 E77.68214
G1 X152.22 Y164.90 E78.73033
G1 X152.76 Y165.60 E78.76717
G1 X152.93 Y165.93 E78.78241
G1 X153.03 Y166.27 E78.79696
G1 X153.06 Y166.63 E78.81211
G1 X153.06 Y166.76 E78.81751
G1 X153.06 Y168.93 E78.90769
G1 X148.68 Y168.93 E79.09016
G1 X148.68 Y165.43 E79.23547
G1 X148.68 Y165.34 E79.23908
G1 X148.71 Y165.27 E79.24253
G1 X148.86 Y164.69 E79.26738
G1 X148.86 Y164.63 E79.26984
G1 X148.90 Y164.30 E79.28373
G1 X148.90 Y159.91 E79.46641
G1 X146.87 Y157.87 E79.58586
G1 X146.87 Y150.83 E79.87871
G1 X144.71 Y150.83 E79.96843
G1 X144.71 Y147.25 E80.11731
G1 X145.98 Y147.25 E80.17007
G1 X145.98 Y138.12 E80.54957
G0 F12000 X145.48 Y137.62
;TYPE:WALL-OUTER
G1 F3540 X151.07 Y137.60 E80.78210
G1 X151.56 Y137.60 E80.80235
G1 X151.77 Y137.63 E80.81115
G1 X151.96 Y137.73 E80.82000
G1 X152.16 Y137.90 E80.83111
G1 X152.33 Y138.12 E80.84249
G1 X152.51 Y138.54 E80.86145
G1 X152.65 Y139.15 E80.88744
G1 X152.70 Y139.66 E80.90915
G1 X152.72 Y164.73 E81.95128
G1 X153.19 Y165.33 E81.98299
G1 X153.40 Y165.75 E82.00236
G1 X153.52 Y166.16 E82.02031
G1 X153.56 Y166.59 E82.03829
G1 X153.56 Y166.63 E82.03962
G1 X153.56 Y166.76 E82.04515
G1 X153.56 Y169.43 E82.15603
G1 X148.18 Y169.43 E82.38008
G1 X148.18 Y165.43 E82.54613
G1 X148.18 Y165.25 E82.55386
G1 X148.24 Y165.10 E82.56033
G1 X148.36 Y164.63 E82.58087
G1 X148.37 Y164.59 E82.58237
G1 X148.40 Y164.27 E82.59571
G1 X148.40 Y160.11 E82.76862
G1 X146.37 Y158.08 E82.88810
G1 X146.37 Y151.33 E83.16873
G1 X144.21 Y151.33 E83.25845
G1 X144.21 Y146.75 E83.44890
G1 X145.48 Y146.75 E83.50166
G1 X145.48 Y137.62 E83.88104
G0 F12000 X146.43 Y138.29
;TYPE:FILL
G1 F3540 X152.03 Y143.90 E84.21041
G0 F12000 X152.03 Y143.19
G1 F3540 X147.13 Y138.29 E84.49843
G0 F12000 X147.83 Y138.29
G1 F3540 X152.03 Y142.48 E84.74499
G0 F12000 X152.03 Y141.77
G1 F3540 X148.54 Y138.28 E84.95013
G0 F12000 X149.24 Y138.28
G1 F3540 X152.03 Y141.07 E85.11387
G0 F12000 X152.03 Y140.36
G1 F3540 X149.95 Y138.28 E85.23614
G0 F12000 X150.65 Y138.28
G1 F3540 X152.02 Y139.65 E85.31669
G0 F12000 X151.88 Y138.79
G1 F3540 X151.35 Y138.27 E85.34744
G0 F12000 X146.16 Y138.73
G1 F3540 X152.03 Y144.60 E85.69281
G0 F12000 X152.03 Y145.31
G1 F3540 X146.16 Y139.44 E86.03824
G0 F12000 X146.16 Y140.15
G1 F3540 X152.03 Y146.02 E86.38367
G0 F12000 X152.03 Y146.73
G1 F3540 X146.16 Y140.85 E86.72909
G0 F12000 X146.16 Y141.56
G1 F3540 X152.03 Y147.44 E87.07458
G0 F12000 X152.03 Y148.14
G1 F3540 X146.16 Y142.27 E87.42012
G0 F12000 X146.16 Y142.97
G1 F3540 X152.03 Y148.85 E87.76567
G0 F12000 X152.03 Y149.56
G1 F3540 X146.16 Y143.68 E88.11124
G0 F12000 X146.16 Y144.39
G1 F3540 X152.03 Y150.26 E88.45685
G0 F12000 X152.03 Y150.97
G1 F3540 X146.16 Y145.09 E88.80251
G0 F12000 X146.16 Y145.80
G1 F3540 X152.03 Y151.68 E89.14823
G0 F12000 X152.03 Y152.39
G1 F3540 X146.16 Y146.51 E89.49398
G0 F12000 X146.16 Y147.22
G1 F3540 X152.03 Y153.10 E89.83970
G0 F12000 X152.04 Y153.80
G1 F3540 X145.66 Y147.42 E90.21488
G0 F12000 X144.95 Y147.42
G1 F3540 X152.04 Y154.51 E90.63169
G0 F12000 X152.04 Y155.22
G1 F3540 X144.89 Y148.07 E91.05214
G0 F12000 X144.89 Y148.78
G1 F3540 X146.76 Y150.65 E91.16259
G0 F12000 X147.04 Y150.93
G1 F3540 X152.04 Y155.93 E91.45613
G0 F12000 X152.04 Y156.63
G1 F3540 X147.04 Y151.64 E91.74973
G0 F12000 X147.04 Y152.35
G1 F3540 X152.04 Y157.34 E92.04339
G0 F12000 X152.04 Y158.05
G1 F3540 X147.04 Y153.06 E92.33707
G0 F12000 X147.04 Y153.76
G1 F3540 X152.04 Y158.76 E92.63082
G0 F12000 X152.04 Y159.47
G1 F3540 X147.04 Y154.47 E92.92456
G0 F12000 X147.04 Y155.18
G1 F3540 X152.04 Y160.17 E93.21837
G0 F12000 X152.04 Y160.88
G1 F3540 X147.04 Y155.88 E93.51220
G0 F12000 X147.04 Y156.59
G1 F3540 X152.04 Y161.59 E93.80606
G0 F12000 X152.04 Y162.30
G1 F3540 X147.04 Y157.30 E94.09996
G0 F12000 X149.08 Y160.04
G1 F3540 X152.04 Y163.00 E94.27441
G0 F12000 X152.04 Y163.71
G1 F3540 X149.08 Y160.74 E94.44891
G0 F12000 X149.08 Y161.45
G1 F3540 X152.04 Y164.42 E94.62345
G0 F12000 X152.62 Y165.70
G1 F3540 X149.08 Y162.16 E94.83156
G0 F12000 X149.08 Y162.87
G1 F3540 X152.89 Y166.68 E95.05575
G0 F12000 X152.89 Y167.38
G1 F3540 X149.08 Y163.57 E95.27994
G0 F12000 X149.08 Y164.28
G1 F3540 X152.89 Y168.09 E95.50413
G0 F12000 X152.84 Y168.75
G1 F3540 X148.99 Y164.90 E95.73085
G0 F12000 X148.85 Y165.47
G1 F3540 X152.13 Y168.75 E95.92393
G0 F12000 X151.43 Y168.75
G1 F3540 X148.85 Y166.18 E96.07539
G0 F12000 X148.85 Y166.88
G1 F3540 X150.72 Y168.75 E96.18528
G0 F12000 X150.01 Y168.75
G1 F3540 X148.85 Y167.59 E96.25360
G0 F12000 X148.85 Y168.30
G1 F3540 X149.31 Y168.75 E96.28035
G0 F12000 X148.84 Y159.93
G0 X146.76 Y150.94
G0 X146.06 Y150.65
G1 F3540 X144.89 Y149.48 E96.34920
G0 F12000 X144.89 Y150.19
G1 F3540 X145.35 Y150.65 E96.37649
;LAYER:5
M106 S89
G0 F12000 X144.71 Y150.83 Z1.20
;TYPE:WALL-INNER
G1 F2700 X144.71 Y147.25 E96.52537
G1 X145.98 Y147.25 E96.57813
G1 X145.98 Y137.84 E96.96951
G1 X146.12 Y137.83 E96.97538
G1 X151.53 Y137.85 E97.20005
G1 X151.65 Y137.86 E97.20521
G1 X151.72 Y137.90 E97.20859
G1 X151.83 Y137.98 E97.21422
G1 X151.93 Y138.10 E97.22081
G1 X152.06 Y138.35 E97.23264
G1 X152.17 Y138.71 E97.24794
G1 X152.25 Y139.27 E97.27155
G1 X152.29 Y140.06 E97.30450
G1 X152.29 Y164.83 E98.33436
G1 X152.81 Y165.44 E98.36756
G1 X152.92 Y165.60 E98.37571
G1 X153.09 Y165.94 E98.39140
G1 X153.18 Y166.26 E98.40519
G1 X153.22 Y166.63 E98.42058
G1 X153.22 Y166.84 E98.42956
G1 X153.22 Y168.93 E98.51625
G1 X148.62 Y168.93 E98.70737
G1 X148.63 Y168.29 E98.73393
G1 X148.62 Y167.86 E98.75160
G1 X148.63 Y167.22 E98.77821
G1 X148.62 Y165.46 E98.85155
G1 X148.71 Y165.27 E98.86028
G1 X148.86 Y164.71 E98.88438
G1 X148.86 Y164.62 E98.88792
G1 X148.90 Y164.30 E98.90148
G1 X148.90 Y163.71 E98.92609
G1 X148.90 Y159.91 E99.08412
G1 X146.87 Y157.87 E99.20356
G1 X146.87 Y150.83 E99.49642
G1 X144.71 Y150.83 E99.58614
G0 F12000 X144.21 Y151.33
;TYPE:WALL-OUTER
G1 F2700 X144.21 Y146.75 E99.77659
G1 X145.48 Y146.75 E99.82935
G1 X145.48 Y137.34 E100.22061
G1 X146.12 Y137.33 E100.24718
G1 X151.56 Y137.35 E100.47335
G1 X151.78 Y137.38 E100.48263
G1 X151.98 Y137.46 E100.49141
G1 X152.19 Y137.62 E100.50250
G1 X152.35 Y137.83 E100.51364
G1 X152.52 Y138.16 E100.52912
G1 X152.66 Y138.60 E100.54795
G1 X152.75 Y139.22 E100.57398
G1 X152.79 Y140.06 E100.60915
G1 X152.79 Y164.65 E101.63144
G1 X153.20 Y165.13 E101.65753
G1 X153.35 Y165.34 E101.66856
G1 X153.55 Y165.75 E101.68755
G1 X153.67 Y166.16 E101.70527
G1 X153.72 Y166.60 E101.72338
G1 X153.72 Y166.63 E101.72471
G1 X153.72 Y166.84 E101.73365
G1 X153.72 Y169.43 E101.84108
G1 X148.12 Y169.43 E102.07377
G1 X148.12 Y165.35 E102.24307
G1 X148.24 Y165.10 E102.25461
G1 X148.36 Y164.63 E102.27496
G1 X148.40 Y164.27 E102.28993
G1 X148.40 Y160.11 E102.46275
G1 X146.37 Y158.08 E102.58226
G1 X146.37 Y151.33 E102.86289
G1 X144.21 Y151.33 E102.95261
G0 F12000 X145.45 Y150.65
;TYPE:FILL
G1 F2700 X151.94 Y144.16 E103.33461
G0 F12000 X152.11 Y143.81
G1 F2700 X151.29 Y144.63 E103.38282
G0 F12000 X151.29 Y143.92
G1 F2700 X152.11 Y143.10 E103.43097
G0 F12000 X152.11 Y142.40
G1 F2700 X151.29 Y143.22 E103.47913
G0 F12000 X151.07 Y142.73
G1 F2700 X152.11 Y141.69 E103.54016
G0 F12000 X152.11 Y140.98
G1 F2700 X150.37 Y142.73 E103.64279
G0 F12000 X149.74 Y142.65
G1 F2700 X152.11 Y140.28 E103.78228
G0 F12000 X152.09 Y139.59
G1 F2700 X149.74 Y141.94 E103.92054
G0 F12000 X149.74 Y141.23
G1 F2700 X152.03 Y138.95 E104.05495
G0 F12000 X151.88 Y138.39
G1 F2700 X149.74 Y140.53 E104.18071
G0 F12000 X149.53 Y140.03
G1 F2700 X151.53 Y138.02 E104.29857
G0 F12000 X150.83 Y138.02
G1 F2700 X148.83 Y140.02 E104.41643
G0 F12000 X148.13 Y140.02
G1 F2700 X150.13 Y138.02 E104.53402
G0 F12000 X149.42 Y138.01
G1 F2700 X147.43 Y140.01 E104.65146
G0 F12000 X146.71 Y140.02
G1 F2700 X148.72 Y138.01 E104.76941
G0 F12000 X148.01 Y138.01
G1 F2700 X146.16 Y139.87 E104.87854
G0 F12000 X146.16 Y139.16
G1 F2700 X147.31 Y138.01 E104.94624
G0 F12000 X146.60 Y138.01
G1 F2700 X146.16 Y138.46 E104.97243
G0 F12000 X147.90 Y139.37
G1 F2700 X146.16 Y141.10 E105.07468
G0 F12000 X146.16 Y142.87
G1 F2700 X149.65 Y139.38 E105.28008
G0 F12000 X150.39 Y140.41
G1 F2700 X146.16 Y144.64 E105.52903
G0 F12000 X146.16 Y146.41
G1 F2700 X150.49 Y142.08 E105.78376
G0 F12000 X151.94 Y142.39
G1 F2700 X144.89 Y149.44 E106.19860
G0 F12000 X144.89 Y147.68
G1 F2700 X145.14 Y147.42 E106.21356
G0 F12000 X147.04 Y150.82
G1 F2700 X151.94 Y145.93 E106.50157
G0 F12000 X152.11 Y145.93
G1 F2700 X151.29 Y146.75 E106.54982
G0 F12000 X151.29 Y146.04
G1 F2700 X152.11 Y145.22 E106.59806
G0 F12000 X152.11 Y144.52
G1 F2700 X151.29 Y145.34 E106.64630
G0 F12000 X152.11 Y146.64
G1 F2700 X151.29 Y147.46 E106.69457
G0 F12000 X151.94 Y147.69
G1 F2700 X147.04 Y152.59 E106.98259
G0 F12000 X147.04 Y154.36
G1 F2700 X151.94 Y149.46 E107.27060
G0 F12000 X152.11 Y149.47
G1 F2700 X151.29 Y150.29 E107.31887
G0 F12000 X151.29 Y150.99
G1 F2700 X152.11 Y150.17 E107.36714
G0 F12000 X152.11 Y150.88
G1 F2700 X151.29 Y151.70 E107.41541
G0 F12000 X151.29 Y152.41
G1 F2700 X152.11 Y151.59 E107.46371
G0 F12000 X151.94 Y151.23
G1 F2700 X147.04 Y156.13 E107.75176
G0 F12000 X147.09 Y157.85
G1 F2700 X151.94 Y153.00 E108.03698
G0 F12000 X152.12 Y153.00
G1 F2700 X151.29 Y153.82 E108.08534
G0 F12000 X151.29 Y153.12
G1 F2700 X152.11 Y152.29 E108.13364
G0 F12000 X152.12 Y153.71
G1 F2700 X151.29 Y154.53 E108.18197
G0 F12000 X151.94 Y154.76
G1 F2700 X147.98 Y158.73 E108.41515
G0 F12000 X148.86 Y159.62
G1 F2700 X151.94 Y156.53 E108.59639
G0 F12000 X152.12 Y156.53
G1 F2700 X151.29 Y157.36 E108.64478
G0 F12000 X151.29 Y158.06
G1 F2700 X152.12 Y157.24 E108.69317
G0 F12000 X152.12 Y157.95
G1 F2700 X151.29 Y158.77 E108.74159
G0 F12000 X151.29 Y159.48
G1 F2700 X152.12 Y158.66 E108.78998
G0 F12000 X151.94 Y158.30
G1 F2700 X149.08 Y161.16 E108.95843
G0 F12000 X149.08 Y162.93
G1 F2700 X151.94 Y160.07 E109.12694
G0 F12000 X152.12 Y160.07
G1 F2700 X151.29 Y160.89 E109.17539
G0 F12000 X151.29 Y161.60
G1 F2700 X152.12 Y160.78 E109.22384
G0 F12000 X152.12 Y161.48
G1 F2700 X151.29 Y162.31 E109.27228
G0 F12000 X151.29 Y163.01
G1 F2700 X152.12 Y162.19 E109.32073
G0 F12000 X151.94 Y161.84
G1 F2700 X149.03 Y164.75 E109.49201
G0 F12000 X148.80 Y166.75
G1 F2700 X151.94 Y163.60 E109.67674
G0 F12000 X152.12 Y163.60
G1 F2700 X151.29 Y164.43 E109.72519
G0 F12000 X151.29 Y163.72
G1 F2700 X152.12 Y162.90 E109.77364
G0 F12000 X152.12 Y164.31
G1 F2700 X151.29 Y165.14 E109.82212
G0 F12000 X151.53 Y165.60
G1 F2700 X152.18 Y164.96 E109.85975
G0 F12000 X152.08 Y165.23
G1 F2700 X148.80 Y168.51 E110.05275
G0 F12000 X150.33 Y168.75
G1 F2700 X152.70 Y166.38 E110.19221
G0 F12000 X153.00 Y166.26
G1 F2700 X152.08 Y167.18 E110.24645
G0 F12000 X152.06 Y166.49
G1 F2700 X152.80 Y165.75 E110.28990
G0 F12000 X152.50 Y165.35
G1 F2700 X151.87 Y165.98 E110.32703
G0 F12000 X153.05 Y166.92
G1 F2700 X152.08 Y167.89 E110.38409
G0 F12000 X152.72 Y168.12
G1 F2700 X152.10 Y168.75 E110.42099
G0 F12000 X152.07 Y168.60
G1 F2700 X153.05 Y167.63 E110.47808
G0 F12000 X153.05 Y168.33
G1 F2700 X152.63 Y168.75 E110.50265
G0 F12000 X151.29 Y160.19
G1 F2700 X152.12 Y159.36 E110.55110
G0 F12000 X151.29 Y156.65
G1 F2700 X152.12 Y155.83 E110.59949
G0 F12000 X152.12 Y155.12
G1 F2700 X151.29 Y155.94 E110.64782
G0 F12000 X151.29 Y155.24
G1 F2700 X152.12 Y154.41 E110.69615
G0 F12000 X151.29 Y149.58
G1 F2700 X152.11 Y148.76 E110.74442
G0 F12000 X152.11 Y148.05
G1 F2700 X151.29 Y148.87 E110.79270
G0 F12000 X151.29 Y148.17
G1 F2700 X152.11 Y147.34 E110.84097
;LAYER:6
M106 S107
G0 F12000 X145.98 Y147.25 Z1.40
;TYPE:WALL-INNER
G1 F2640 X145.98 Y137.62 E111.24113
G1 X151.30 Y137.60 E111.46227
G1 X151.53 Y137.60 E111.47170
G1 X151.65 Y137.62 E111.47683
G1 X151.73 Y137.66 E111.48042
G1 X151.84 Y137.74 E111.48616
G1 X151.96 Y137.86 E111.49328
G1 X152.07 Y138.05 E111.50232
G1 X152.19 Y138.41 E111.51815
G1 X152.27 Y138.83 E111.53581
G1 X152.34 Y140.15 E111.59083
G1 X152.34 Y164.77 E112.61454
G1 X152.69 Y165.10 E112.63453
G1 X153.08 Y165.60 E112.66090
G1 X153.25 Y165.94 E112.67659
G1 X153.34 Y166.27 E112.69076
G1 X153.38 Y166.63 E112.70573
G1 X153.38 Y166.93 E112.71821
G1 X153.38 Y168.93 E112.80140
G1 X148.57 Y168.93 E113.00117
G1 X148.57 Y165.56 E113.14111
G1 X148.71 Y165.27 E113.15443
G1 X148.86 Y164.70 E113.17890
G1 X148.86 Y164.62 E113.18211
G1 X148.90 Y164.30 E113.19579
G1 X148.90 Y163.62 E113.22377
G1 X148.90 Y159.91 E113.37839
G1 X146.87 Y157.87 E113.49783
G1 X146.87 Y150.83 E113.79069
G1 X144.71 Y150.83 E113.88041
G1 X144.71 Y147.25 E114.02929
G1 X145.98 Y147.25 E114.08205
G0 F12000 X145.48 Y146.75
;TYPE:WALL-OUTER
G1 F2640 X145.48 Y137.13 E114.48213
G1 X151.56 Y137.10 E114.73490
G1 X151.78 Y137.14 E114.74414
G1 X151.98 Y137.22 E114.75301
G1 X152.18 Y137.36 E114.76327
G1 X152.36 Y137.56 E114.77440
G1 X152.52 Y137.84 E114.78772
G1 X152.68 Y138.28 E114.80726
G1 X152.77 Y138.75 E114.82734
G1 X152.84 Y140.13 E114.88449
G1 X152.84 Y164.56 E115.90025
G1 X153.05 Y164.76 E115.91254
G1 X153.51 Y165.34 E115.94321
G1 X153.71 Y165.76 E115.96234
G1 X153.83 Y166.17 E115.98024
G1 X153.88 Y166.60 E115.99821
G1 X153.88 Y169.43 E116.11579
G1 X148.07 Y169.43 E116.35713
G1 X148.07 Y165.58 E116.51707
G1 X148.07 Y165.45 E116.52235
G1 X148.24 Y165.10 E116.53852
G1 X148.36 Y164.62 E116.55899
G1 X148.40 Y164.27 E116.57387
G1 X148.40 Y160.11 E116.74662
G1 X146.37 Y158.08 E116.86612
G1 X146.37 Y151.33 E117.14675
G1 X144.21 Y151.33 E117.23647
G1 X144.21 Y146.75 E117.42693
G1 X145.48 Y146.75 E117.47969
G0 F12000 X146.16 Y147.04
;TYPE:FILL
G1 F2640 X152.16 Y153.05 E117.83291
G0 F12000 X152.16 Y153.22
G1 F2640 X151.91 Y152.62 E117.86282
G1 X151.91 Y151.91 E117.89267
G1 X151.65 Y151.30 E117.92003
G0 F12000 X152.16 Y151.28
G1 F2640 X146.16 Y145.27 E118.27327
G0 F12000 X146.16 Y143.50
G1 F2640 X152.16 Y149.51 E118.62646
G0 F12000 X152.16 Y149.69
G1 F2640 X151.91 Y149.08 E118.65639
G1 X151.91 Y148.37 E118.68636
G1 X151.65 Y147.76 E118.71377
G0 F12000 X152.16 Y147.74
G1 F2640 X146.16 Y141.74 E119.06693
G0 F12000 X146.16 Y139.97
G1 F2640 X152.16 Y145.97 E119.42012
G0 F12000 X152.16 Y146.15
G1 F2640 X151.91 Y145.54 E119.45000
G1 X151.91 Y144.84 E119.47986
G1 X151.65 Y144.23 E119.50725
G0 F12000 X152.16 Y144.21
G1 F2640 X146.61 Y138.65 E119.83378
G0 F12000 X146.15 Y138.73
G1 F2640 X146.73 Y139.30 E119.86741
G0 F12000 X147.44 Y139.30
G1 F2640 X146.15 Y138.02 E119.94276
G0 F12000 X146.63 Y137.80
G1 F2640 X148.14 Y139.31 E120.03148
G0 F12000 X148.38 Y138.66
G1 F2640 X150.39 Y140.67 E120.14969
G0 F12000 X149.74 Y140.90
G1 F2640 X152.16 Y143.32 E120.29210
G0 F12000 X151.65 Y143.52
G1 F2640 X152.16 Y144.03 E120.32202
G0 F12000 X152.16 Y142.62
G1 F2640 X149.74 Y140.19 E120.46443
G0 F12000 X149.74 Y139.49
G1 F2640 X152.16 Y141.91 E120.60683
G0 F12000 X152.01 Y142.29
G1 F2640 X152.16 Y142.44 E120.61568
G0 F12000 X151.14 Y143.01
G1 F2640 X149.74 Y141.61 E120.69811
G0 F12000 X149.74 Y142.31
G1 F2640 X150.43 Y143.01 E120.73892
G0 F12000 X152.16 Y141.20
G1 F2640 X148.75 Y137.79 E120.93959
G0 F12000 X148.04 Y137.79
G1 F2640 X149.56 Y139.31 E121.02878
G0 F12000 X148.85 Y139.31
G1 F2640 X147.34 Y137.79 E121.11774
G0 F12000 X149.45 Y137.79
G1 F2640 X152.16 Y140.50 E121.27696
G0 F12000 X152.01 Y140.52
G1 F2640 X152.16 Y140.67 E121.28584
G0 F12000 X152.14 Y139.77
G1 F2640 X150.16 Y137.78 E121.40246
G0 F12000 X150.86 Y137.78
G1 F2640 X152.11 Y139.03 E121.47554
G0 F12000 X151.90 Y138.11
G1 F2640 X151.58 Y137.79 E121.49424
G0 F12000 X150.39 Y138.90
G1 F2640 X150.15 Y138.66 E121.50821
G0 F12000 X151.65 Y146.35
G1 F2640 X151.91 Y146.96 E121.53814
G1 X152.16 Y147.57 E121.56555
G0 F12000 X151.65 Y149.89
G1 F2640 X151.91 Y150.49 E121.59546
G1 X152.16 Y151.10 E121.62288
G0 F12000 X151.66 Y153.42
G1 F2640 X151.91 Y154.03 E121.65269
G1 X152.16 Y154.64 E121.68009
G0 F12000 X152.16 Y154.81
G1 F2640 X144.89 Y147.54 E122.10792
G0 F12000 X144.89 Y149.31
G1 F2640 X146.23 Y150.65 E122.18718
G0 F12000 X147.04 Y151.46
G1 F2640 X152.16 Y156.58 E122.48815
G0 F12000 X152.16 Y156.76
G1 F2640 X151.91 Y156.15 E122.51792
G1 X151.91 Y155.44 E122.54777
G1 X151.66 Y154.84 E122.57512
G0 F12000 X151.66 Y156.96
G1 F2640 X151.91 Y157.57 E122.60492
G1 X152.16 Y158.17 E122.63232
G0 F12000 X152.16 Y158.35
G1 F2640 X147.04 Y153.23 E122.93327
G0 F12000 X147.04 Y155.00
G1 F2640 X152.16 Y160.12 E123.23430
G0 F12000 X152.16 Y160.30
G1 F2640 X151.91 Y159.69 E123.26416
G1 X151.91 Y158.98 E123.29397
G1 X151.66 Y158.37 E123.32136
G0 F12000 X151.66 Y160.50
G1 F2640 X151.91 Y161.10 E123.35118
G1 X152.16 Y161.71 E123.37858
G0 F12000 X152.16 Y161.89
G1 F2640 X147.04 Y156.77 E123.67961
G0 F12000 X149.08 Y160.57
G1 F2640 X152.16 Y163.65 E123.86117
G0 F12000 X152.16 Y163.83
G1 F2640 X151.91 Y163.22 E123.89094
G1 X151.91 Y162.52 E123.92074
G1 X151.66 Y161.91 E123.94814
G0 F12000 X151.66 Y164.03
G1 F2640 X152.16 Y164.54 E123.97795
G0 F12000 X151.66 Y164.74
G1 F2640 X153.15 Y166.23 E124.06555
G0 F12000 X153.18 Y166.44
G1 F2640 X149.07 Y162.33 E124.30712
G0 F12000 X149.07 Y164.10
G1 F2640 X153.21 Y168.23 E124.54995
G0 F12000 X153.21 Y168.41
G1 F2640 X152.45 Y167.65 E124.59457
G0 F12000 X152.44 Y168.35
G1 F2640 X152.84 Y168.75 E124.61786
G0 F12000 X151.96 Y168.75
G1 F2640 X148.77 Y165.56 E124.80542
G0 F12000 X148.75 Y167.31
G1 F2640 X150.19 Y168.75 E124.89008
G0 F12000 X152.45 Y166.94
G1 F2640 X153.21 Y167.70 E124.93468
G0 F12000 X153.21 Y166.99
G1 F2640 X152.35 Y166.14 E124.98477
;LAYER:7
M106 S127
G0 F12000 X153.24 Y165.60 Z1.60
;TYPE:WALL-INNER
G1 F2580 X153.40 Y165.93 E125.00000
G1 X153.50 Y166.27 E125.01455
G1 X153.54 Y166.63 E125.02961
G1 X153.54 Y167.01 E125.04541
G1 X153.54 Y168.93 E125.12515
G1 X148.53 Y168.93 E125.33356
G1 X148.52 Y165.67 E125.46893
G1 X148.71 Y165.28 E125.48690
G1 X148.86 Y164.72 E125.51119
G1 X148.90 Y164.30 E125.52870
G1 X148.90 Y163.54 E125.56000
G1 X148.90 Y159.91 E125.71125
G1 X146.87 Y157.87 E125.83070
G1 X146.87 Y150.83 E126.12355
G1 X144.71 Y150.83 E126.21327
G1 X144.71 Y147.25 E126.36215
G1 X145.98 Y147.25 E126.41491
G1 X145.98 Y137.42 E126.82339
G1 X148.65 Y137.41 E126.93444
G1 X151.53 Y137.42 E127.05417
G1 X151.67 Y137.43 E127.06012
G1 X151.77 Y137.47 E127.06428
G1 X151.86 Y137.53 E127.06900
G1 X151.97 Y137.64 E127.07527
G1 X152.09 Y137.82 E127.08426
G1 X152.19 Y138.06 E127.09507
G1 X152.28 Y138.45 E127.11187
G1 X152.33 Y138.88 E127.12978
G1 X152.35 Y139.47 E127.15457
G1 X152.35 Y140.15 E127.18259
G1 X152.35 Y164.66 E128.20164
G1 X152.85 Y165.12 E128.22976
G1 X153.24 Y165.60 E128.25557
G0 F12000 X153.66 Y165.33
;TYPE:WALL-OUTER
G1 F2580 X153.87 Y165.75 E128.27505
G1 X153.99 Y166.17 E128.29308
G1 X154.04 Y166.60 E128.31110
G1 X154.04 Y169.43 E128.42859
G1 X148.03 Y169.43 E128.67858
G1 X148.02 Y165.56 E128.83956
G1 X148.24 Y165.11 E128.86015
G1 X148.36 Y164.63 E128.88051
G1 X148.40 Y164.27 E128.89585
G1 X148.40 Y160.11 E129.06856
G1 X146.37 Y158.08 E129.18806
G1 X146.37 Y151.33 E129.46869
G1 X144.21 Y151.33 E129.55841
G1 X144.21 Y146.75 E129.74887
G1 X145.48 Y146.75 E129.80163
G1 X145.48 Y136.93 E130.21002
G1 X148.65 Y136.91 E130.34181
G1 X151.57 Y136.92 E130.46305
G1 X151.79 Y136.94 E130.47226
G1 X151.99 Y137.02 E130.48136
G1 X152.18 Y137.14 E130.49075
G1 X152.36 Y137.32 E130.50142
G1 X152.53 Y137.58 E130.51425
G1 X152.66 Y137.90 E130.52864
G1 X152.78 Y138.37 E130.54848
G1 X152.83 Y138.84 E130.56831
G1 X152.85 Y139.47 E130.59452
G1 X152.85 Y140.15 E130.62275
G1 X152.85 Y164.44 E131.63269
G1 X153.22 Y164.78 E131.65331
G1 X153.66 Y165.33 E131.68284
G0 F12000 X152.98 Y165.57
;TYPE:FILL
G1 F2580 X152.42 Y165.78 E131.70865
G1 X152.66 Y165.18 E131.73557
G0 F12000 X152.39 Y164.93
G1 F2580 X148.70 Y168.61 E131.95235
G0 F12000 X150.33 Y168.75
G1 F2580 X153.19 Y165.90 E132.12027
G0 F12000 X153.24 Y166.01
G1 F2580 X153.01 Y166.60 E132.15451
G1 X153.01 Y167.30 E132.19526
G1 X153.01 Y168.01 E132.23623
G1 X152.66 Y168.71 E132.26881
G0 F12000 X152.10 Y168.75
G1 F2580 X153.36 Y167.49 E132.34315
G0 F12000 X151.96 Y165.17
G1 F2580 X152.09 Y164.69 E132.36266
G1 X152.03 Y164.05 E132.38019
G1 X152.18 Y163.54 E132.40205
G0 F12000 X152.18 Y163.37
G1 F2580 X148.70 Y166.85 E132.60661
G0 F12000 X149.03 Y164.75
G1 F2580 X152.18 Y161.60 E132.79176
G0 F12000 X152.18 Y161.42
G1 F2580 X152.03 Y161.93 E132.80939
G1 X152.03 Y162.63 E132.82700
G1 X151.88 Y163.14 E132.84886
G0 F12000 X151.88 Y161.02
G1 F2580 X152.03 Y160.51 E132.86658
G1 X152.18 Y160.01 E132.88849
G0 F12000 X152.18 Y159.83
G1 F2580 X149.08 Y162.93 E133.07088
G0 F12000 X149.08 Y161.16
G1 F2580 X152.18 Y158.06 E133.25320
G0 F12000 X152.18 Y157.89
G1 F2580 X152.02 Y158.39 E133.27106
G1 X152.03 Y159.10 E133.28893
G1 X151.87 Y159.61 E133.31085
G0 F12000 X151.87 Y157.49
G1 F2580 X152.02 Y156.98 E133.32881
G1 X152.18 Y156.47 E133.35084
G0 F12000 X152.18 Y156.30
G1 F2580 X148.86 Y159.62 E133.54596
G0 F12000 X147.98 Y158.73
G1 F2580 X152.18 Y154.53 E133.79305
G0 F12000 X152.18 Y154.35
G1 F2580 X152.02 Y154.86 E133.81116
G1 X152.02 Y155.57 E133.82921
G1 X151.87 Y156.07 E133.85122
G0 F12000 X151.87 Y153.96
G1 F2580 X152.02 Y153.45 E133.86935
G1 X152.18 Y152.94 E133.89144
G0 F12000 X152.18 Y152.76
G1 F2580 X147.09 Y157.85 E134.19044
G0 F12000 X147.04 Y156.13
G1 F2580 X152.18 Y150.99 E134.49224
G0 F12000 X152.18 Y150.82
G1 F2580 X152.02 Y151.33 E134.51053
G1 X152.02 Y152.03 E134.52873
G1 X151.87 Y152.54 E134.55083
G0 F12000 X151.86 Y150.43
G1 F2580 X152.02 Y149.92 E134.56916
G1 X152.17 Y149.41 E134.59133
G0 F12000 X152.18 Y149.23
G1 F2580 X147.04 Y154.36 E134.89313
G0 F12000 X147.04 Y152.59
G1 F2580 X152.18 Y147.46 E135.19491
G0 F12000 X152.17 Y147.29
G1 F2580 X152.02 Y147.80 E135.21336
G1 X152.02 Y148.50 E135.23180
G1 X151.86 Y149.01 E135.25397
G0 F12000 X151.86 Y146.89
G1 F2580 X152.01 Y146.38 E135.27249
G1 X152.17 Y145.87 E135.29473
G0 F12000 X152.18 Y145.69
G1 F2580 X147.04 Y150.82 E135.59650
G0 F12000 X145.45 Y150.65
G1 F2580 X152.18 Y143.92 E135.99226
G0 F12000 X152.17 Y143.75
G1 F2580 X152.01 Y144.26 E136.01089
G1 X152.01 Y144.97 E136.02947
G1 X151.86 Y145.48 E136.05170
G0 F12000 X151.85 Y143.36
G1 F2580 X152.17 Y143.04 E136.07042
G0 F12000 X151.76 Y142.58
G1 F2580 X144.89 Y149.44 E136.47429
G0 F12000 X144.89 Y147.68
G1 F2580 X145.14 Y147.42 E136.48926
G0 F12000 X146.16 Y146.41
G1 F2580 X150.39 Y142.18 E136.73820
G0 F12000 X149.74 Y141.94
G1 F2580 X152.17 Y139.51 E136.88113
G0 F12000 X152.15 Y138.83
G1 F2580 X149.74 Y141.23 E137.02268
G0 F12000 X149.74 Y140.53
G1 F2580 X152.04 Y138.22 E137.15815
G0 F12000 X151.82 Y137.74
G1 F2580 X149.74 Y139.82 E137.28051
G0 F12000 X149.74 Y139.11
G1 F2580 X151.26 Y137.59 E137.36999
G0 F12000 X150.55 Y137.59
G1 F2580 X149.28 Y138.86 E137.44484
G0 F12000 X149.05 Y138.21
G1 F2580 X146.16 Y141.10 E137.61488
G0 F12000 X146.16 Y139.34
G1 F2580 X147.27 Y138.22 E137.68061
G0 F12000 X147.15 Y138.87
G1 F2580 X148.43 Y137.59 E137.75567
G0 F12000 X149.14 Y137.59
G1 F2580 X147.86 Y138.87 E137.83063
G0 F12000 X148.57 Y138.87
G1 F2580 X149.84 Y137.59 E137.90548
G0 F12000 X150.39 Y138.64
G1 F2580 X146.16 Y142.87 E138.15442
G0 F12000 X146.16 Y144.64
G1 F2580 X150.39 Y140.41 E138.40337
G0 F12000 X152.17 Y140.22
G1 F2580 X149.74 Y142.65 E138.54630
G0 F12000 X149.87 Y143.23
G1 F2580 X152.17 Y140.92 E138.68171
G0 F12000 X152.17 Y141.63
G1 F2580 X150.57 Y143.23 E138.77560
G0 F12000 X151.28 Y143.23
G1 F2580 X152.17 Y142.34 E138.82799
G0 F12000 X147.72 Y137.59
G1 F2580 X146.44 Y138.87 E138.90307
G0 F12000 X146.16 Y138.46
G1 F2580 X147.01 Y137.60 E138.95355
G0 F12000 X146.31 Y137.60
G1 F2580 X146.16 Y137.75 E138.96240
;LAYER:8
M106 S145
G0 F12000 X145.98 Y137.22 Z1.80
;TYPE:WALL-INNER
G1 F2460 X151.54 Y137.23 E139.19352
G1 X151.67 Y137.25 E139.19901
G1 X151.77 Y137.28 E139.20343
G1 X151.88 Y137.35 E139.20866
G1 X151.99 Y137.46 E139.21534
G1 X152.09 Y137.60 E139.22248
G1 X152.20 Y137.83 E139.23288
G1 X152.28 Y138.11 E139.24530
G1 X152.33 Y138.50 E139.26143
G1 X152.34 Y138.56 E139.26380
G1 X149.82 Y138.56 E139.36861
G1 X149.82 Y141.74 E139.50107
G1 X151.81 Y141.74 E139.58397
G1 X152.36 Y141.74 E139.60667
G1 X152.36 Y164.57 E140.55583
G1 X152.94 Y165.05 E140.58691
G1 X153.28 Y165.45 E140.60914
G1 X153.39 Y165.60 E140.61682
G1 X153.56 Y165.94 E140.63264
G1 X153.66 Y166.27 E140.64671
G1 X153.69 Y166.63 E140.66185
G1 X153.69 Y167.09 E140.68114
G1 X153.69 Y168.93 E140.75739
G1 X148.47 Y168.93 E140.97445
G1 X148.47 Y167.99 E141.01345
G1 X148.47 Y167.53 E141.03249
G1 X148.47 Y166.87 E141.05989
G1 X148.47 Y165.78 E141.10545
G1 X148.71 Y165.27 E141.12863
G1 X148.82 Y164.87 E141.14586
G1 X148.86 Y164.71 E141.15277
G1 X148.90 Y164.29 E141.17017
G1 X148.90 Y159.91 E141.35256
G1 X146.87 Y157.87 E141.47203
G1 X146.87 Y150.83 E141.76489
G1 X144.71 Y150.83 E141.85460
G1 X144.71 Y147.25 E142.00349
G1 X145.98 Y147.25 E142.05624
G1 X145.98 Y137.22 E142.47299
G0 F12000 X145.60 Y136.72
;TYPE:WALL-OUTER
G1 F2460 X151.56 Y136.73 E142.72107
G1 X151.79 Y136.76 E142.73050
G1 X151.99 Y136.83 E142.73942
G1 X152.19 Y136.95 E142.74910
G1 X152.37 Y137.13 E142.75969
G1 X152.53 Y137.35 E142.77088
G1 X152.66 Y137.65 E142.78464
G1 X152.77 Y138.01 E142.80023
G1 X152.83 Y138.45 E142.81854
G1 X152.85 Y138.98 E142.84088
G1 X152.85 Y139.06 E142.84387
G1 X150.32 Y139.06 E142.94939
G1 X150.32 Y141.24 E143.04031
G1 X152.86 Y141.24 E143.14592
G1 X152.86 Y164.34 E144.10605
G1 X153.29 Y164.69 E144.12913
G1 X153.68 Y165.14 E144.15404
G1 X153.82 Y165.34 E144.16449
G1 X154.03 Y165.76 E144.18358
G1 X154.15 Y166.17 E144.20151
G1 X154.19 Y166.60 E144.21953
G1 X154.19 Y169.43 E144.33698
G1 X147.97 Y169.43 E144.59561
G1 X147.97 Y165.63 E144.75327
G1 X148.04 Y165.53 E144.75846
G1 X148.24 Y165.09 E144.77831
G1 X148.34 Y164.75 E144.79311
G1 X148.36 Y164.63 E144.79824
G1 X148.40 Y164.27 E144.81355
G1 X148.40 Y160.11 E144.98621
G1 X146.37 Y158.08 E145.10571
G1 X146.37 Y151.33 E145.38634
G1 X144.21 Y151.33 E145.47606
G1 X144.21 Y146.75 E145.66652
G1 X145.48 Y146.75 E145.71928
G1 X145.48 Y136.73 E146.13599
G1 X145.60 Y136.72 E146.14085
G0 F12000 X146.24 Y137.40
;TYPE:FILL
G1 F2460 X147.32 Y138.48 E146.20441
G0 F12000 X147.56 Y137.83
G1 F2460 X149.64 Y139.92 E146.32703
G0 F12000 X149.44 Y138.48
G1 F2460 X148.36 Y137.40 E146.39059
G0 F12000 X149.07 Y137.40
G1 F2460 X150.05 Y138.38 E146.44809
G0 F12000 X149.87 Y138.38
G1 F2460 X149.32 Y137.83 E146.48022
G0 F12000 X149.78 Y137.40
G1 F2460 X150.75 Y138.38 E146.53770
G0 F12000 X151.46 Y138.38
G1 F2460 X150.49 Y137.40 E146.59511
G0 F12000 X151.19 Y137.40
G1 F2460 X152.13 Y138.35 E146.65053
G0 F12000 X148.74 Y138.48
G1 F2460 X147.65 Y137.40 E146.71408
G0 F12000 X146.95 Y137.40
G1 F2460 X148.03 Y138.48 E146.77764
G0 F12000 X146.61 Y138.48
G1 F2460 X146.16 Y138.02 E146.80451
G0 F12000 X146.16 Y138.20
G1 F2460 X149.64 Y141.69 E147.00942
G0 F12000 X149.87 Y141.92
G1 F2460 X152.18 Y144.23 E147.14518
G0 F12000 X152.16 Y143.33
G1 F2460 X150.76 Y141.92 E147.22799
G0 F12000 X151.47 Y141.92
G1 F2460 X152.17 Y142.63 E147.26962
G0 F12000 X152.18 Y142.46
G1 F2460 X151.64 Y141.92 E147.30134
G0 F12000 X151.56 Y143.43
G1 F2460 X150.05 Y141.92 E147.39003
G0 F12000 X149.74 Y142.31
G1 F2460 X150.85 Y143.43 E147.45530
G0 F12000 X150.14 Y143.42
G1 F2460 X149.74 Y143.02 E147.47890
G0 F12000 X146.16 Y143.50
G1 F2460 X152.18 Y149.53 E147.83321
G0 F12000 X152.18 Y151.30
G1 F2460 X146.16 Y145.27 E148.18752
G0 F12000 X146.16 Y147.04
G1 F2460 X152.18 Y153.06 E148.54182
G0 F12000 X152.18 Y154.83
G1 F2460 X144.89 Y147.54 E148.97074
G0 F12000 X144.89 Y149.31
G1 F2460 X146.23 Y150.65 E149.05000
G0 F12000 X147.04 Y151.46
G1 F2460 X152.18 Y156.60 E149.35200
G0 F12000 X152.18 Y158.37
G1 F2460 X147.04 Y153.23 E149.65401
G0 F12000 X147.04 Y155.00
G1 F2460 X152.18 Y160.14 E149.95605
G0 F12000 X152.18 Y161.90
G1 F2460 X147.04 Y156.77 E150.25808
G0 F12000 X149.08 Y160.57
G1 F2460 X152.18 Y163.67 E150.44064
G0 F12000 X152.73 Y165.11
G1 F2460 X152.90 Y165.28 E150.45058
G0 F12000 X152.48 Y165.56
G1 F2460 X153.51 Y166.60 E150.51167
G0 F12000 X153.52 Y166.78
G1 F2460 X149.07 Y162.33 E150.77296
G0 F12000 X149.07 Y164.10
G1 F2460 X153.52 Y168.54 E151.03425
G0 F12000 X153.52 Y168.72
G1 F2460 X153.18 Y168.02 E151.07463
G1 X153.17 Y167.32 E151.11507
G1 X152.83 Y166.62 E151.14741
G0 F12000 X151.96 Y168.75
G1 F2460 X148.77 Y165.56 E151.33505
G0 F12000 X148.65 Y167.21
G1 F2460 X150.19 Y168.75 E151.42566
G0 F12000 X152.18 Y147.76
G1 F2460 X146.16 Y141.74 E151.77993
G0 F12000 X146.16 Y139.97
G1 F2460 X152.18 Y145.99 E152.13424
;LAYER:9
M106 S163
G0 F12000 X152.36 Y142.29 Z2.00
;TYPE:WALL-INNER
G1 F2460 X152.36 Y164.49 E153.05713
G1 X152.94 Y164.91 E153.08694
G1 X153.18 Y165.14 E153.10109
G1 X153.53 Y165.58 E153.12440
G1 X153.71 Y165.92 E153.14052
G1 X153.81 Y166.26 E153.15525
G1 X153.85 Y166.63 E153.17081
G1 X153.85 Y167.18 E153.19330
G1 X153.85 Y168.93 E153.26610
G1 X148.42 Y168.93 E153.49181
G1 X148.42 Y165.86 E153.61932
G1 X148.60 Y165.53 E153.63504
G1 X148.72 Y165.24 E153.64778
G1 X148.86 Y164.72 E153.67016
G1 X148.90 Y164.29 E153.68817
G1 X148.90 Y159.91 E153.87052
G1 X146.87 Y157.87 E153.99000
G1 X146.87 Y150.83 E154.28285
G1 X144.71 Y150.83 E154.37257
G1 X144.71 Y147.25 E154.52145
G1 X145.98 Y147.25 E154.57421
G1 X145.98 Y137.08 E154.99707
G1 X147.40 Y137.07 E155.05598
G1 X151.54 Y137.07 E155.22819
G1 X151.69 Y137.09 E155.23434
G1 X151.79 Y137.12 E155.23879
G1 X151.90 Y137.19 E155.24416
G1 X152.00 Y137.28 E155.24972
G1 X152.11 Y137.43 E155.25746
G1 X152.20 Y137.61 E155.26614
G1 X152.28 Y137.88 E155.27749
G1 X152.31 Y138.01 E155.28326
G1 X149.82 Y138.01 E155.38674
G1 X149.82 Y142.28 E155.56430
G1 X151.75 Y142.29 E155.64450
G1 X152.36 Y142.29 E155.66991
G0 F12000 X152.86 Y141.79
;TYPE:WALL-OUTER
G1 F2460 X152.86 Y164.23 E156.60306
G1 X153.25 Y164.52 E156.62353
G1 X153.55 Y164.80 E156.64033
G1 X153.96 Y165.31 E156.66743
G1 X154.18 Y165.74 E156.68751
G1 X154.31 Y166.17 E156.70619
G1 X154.35 Y166.60 E156.72446
G1 X154.35 Y169.43 E156.84183
G1 X147.92 Y169.43 E157.10912
G1 X147.92 Y165.71 E157.26365
G1 X148.02 Y165.56 E157.27127
G1 X148.24 Y165.08 E157.29293
G1 X148.36 Y164.64 E157.31216
G1 X148.36 Y164.61 E157.31332
G1 X148.40 Y164.26 E157.32771
G1 X148.40 Y160.11 E157.50033
G1 X146.37 Y158.08 E157.61984
G1 X146.37 Y151.33 E157.90047
G1 X144.21 Y151.33 E157.99019
G1 X144.21 Y146.75 E158.18064
G1 X145.48 Y146.75 E158.23340
G1 X145.48 Y136.58 E158.65618
G1 X151.56 Y136.57 E158.90912
G1 X151.79 Y136.60 E158.91874
G1 X152.00 Y136.66 E158.92772
G1 X152.20 Y136.78 E158.93719
G1 X152.37 Y136.94 E158.94725
G1 X152.53 Y137.17 E158.95864
G1 X152.67 Y137.43 E158.97091
G1 X152.77 Y137.76 E158.98518
G1 X152.83 Y138.14 E159.00140
G1 X152.85 Y138.51 E159.01684
G1 X150.32 Y138.51 E159.12219
G1 X150.32 Y141.79 E159.25827
G1 X152.86 Y141.79 E159.36387
G0 F12000 X152.05 Y142.46
;TYPE:FILL
G1 F2460 X150.93 Y143.58 E159.42954
G0 F12000 X151.64 Y143.58
G1 F2460 X152.18 Y143.04 E159.46135
G0 F12000 X151.87 Y142.46
G1 F2460 X144.89 Y149.44 E159.87198
G0 F12000 X145.45 Y150.65
G1 F2460 X152.18 Y143.92 E160.26792
G0 F12000 X151.34 Y142.46
G1 F2460 X150.22 Y143.58 E160.33365
G0 F12000 X149.74 Y143.35
G1 F2460 X150.63 Y142.46 E160.38624
G0 F12000 X150.10 Y142.46
G1 F2460 X146.16 Y146.41 E160.61843
G0 F12000 X145.14 Y147.42
G1 F2460 X144.89 Y147.68 E160.63339
G0 F12000 X145.87 Y147.14
G0 X146.16 Y144.64
G1 F2460 X149.64 Y141.16 E160.83824
G0 F12000 X149.93 Y142.46
G1 F2460 X149.74 Y142.65 E160.84929
G0 F12000 X149.64 Y139.39
G1 F2460 X146.16 Y142.87 E161.05414
G0 F12000 X146.16 Y141.10
G1 F2460 X150.01 Y137.25 E161.28092
G0 F12000 X150.19 Y137.25
G1 F2460 X149.26 Y138.18 E161.33577
G0 F12000 X148.55 Y138.18
G1 F2460 X149.48 Y137.25 E161.39075
G0 F12000 X148.77 Y137.25
G1 F2460 X147.84 Y138.19 E161.44587
G0 F12000 X147.13 Y138.19
G1 F2460 X148.07 Y137.25 E161.50111
G0 F12000 X148.24 Y137.25
G1 F2460 X146.16 Y139.34 E161.62387
G0 F12000 X146.42 Y138.19
G1 F2460 X147.36 Y137.25 E161.67929
G0 F12000 X146.65 Y137.25
G1 F2460 X146.16 Y137.66 E161.70839
G1 X146.47 Y137.25 E161.72986
G0 F12000 X150.31 Y137.84
G1 F2460 X150.96 Y137.54 E161.76468
G1 X151.67 Y137.27 E161.79894
G1 X151.46 Y137.84 E161.83093
G1 X151.98 Y137.57 E161.85544
G0 F12000 X149.93 Y138.12
G0 X149.93 Y142.18
G0 X152.18 Y145.69
G1 F2460 X147.04 Y150.82 E162.15739
G0 F12000 X147.04 Y152.59
G1 F2460 X152.18 Y147.46 E162.45936
G0 F12000 X152.18 Y149.22
G1 F2460 X147.04 Y154.36 E162.76134
G0 F12000 X147.04 Y156.13
G1 F2460 X152.18 Y150.99 E163.06332
G0 F12000 X152.18 Y152.76
G1 F2460 X147.09 Y157.85 E163.36247
G0 F12000 X147.98 Y158.73
G1 F2460 X152.18 Y154.53 E163.60968
G0 F12000 X152.18 Y156.29
G1 F2460 X148.86 Y159.62 E163.80491
G0 F12000 X149.08 Y161.16
G1 F2460 X152.18 Y158.06 E163.98736
G0 F12000 X152.18 Y159.83
G1 F2460 X149.08 Y162.93 E164.16980
G0 F12000 X149.03 Y164.75
G1 F2460 X152.18 Y161.60 E164.35507
G0 F12000 X152.18 Y163.37
G1 F2460 X148.60 Y166.95 E164.56568
G0 F12000 X148.60 Y168.71
G1 F2460 X152.50 Y164.81 E164.79528
G0 F12000 X152.40 Y164.73
G1 F2460 X152.33 Y165.16 E164.80875
G1 X152.99 Y165.21 E164.82803
G1 X152.86 Y166.04 E164.85088
G1 X153.45 Y165.81 E164.87737
G0 F12000 X153.39 Y165.69
G1 F2460 X150.33 Y168.75 E165.05740
G0 F12000 X152.10 Y168.75
G1 F2460 X153.68 Y167.17 E165.15033
G0 F12000 X153.68 Y166.99
G1 F2460 X153.33 Y167.69 E165.19079
G1 X153.16 Y168.57 E165.23125
G1 X153.68 Y168.41 E165.25374
G0 F12000 X152.99 Y166.98
G1 F2460 X153.64 Y166.32 E165.29216
;LAYER:10
M106 S181
G0 F12000 X153.97 Y166.28 Z2.20
;TYPE:WALL-INNER
G1 F2400 X154.01 Y166.63 E165.30709
G1 X154.01 Y167.26 E165.33311
G1 X154.01 Y168.93 E165.40242
G1 X148.37 Y168.93 E165.63674
G1 X148.37 Y168.29 E165.66314
G1 X148.37 Y167.59 E165.69228
G1 X148.37 Y167.03 E165.71581
G1 X148.37 Y165.93 E165.76126
G1 X148.46 Y165.81 E165.76754
G1 X148.61 Y165.50 E165.78171
G1 X148.82 Y164.88 E165.80905
G1 X148.86 Y164.67 E165.81782
G1 X148.90 Y164.29 E165.83378
G1 X148.90 Y159.91 E166.01609
G1 X146.87 Y157.87 E166.13557
G1 X146.87 Y150.83 E166.42842
G1 X144.71 Y150.83 E166.51814
G1 X144.71 Y147.25 E166.66702
G1 X145.98 Y147.25 E166.71978
G1 X145.98 Y136.94 E167.14846
G1 X149.86 Y136.93 E167.30973
G1 X151.54 Y136.93 E167.37941
G1 X151.69 Y136.94 E167.38581
G1 X151.79 Y136.98 E167.39045
G1 X151.91 Y137.04 E167.39578
G1 X152.02 Y137.14 E167.40215
G1 X152.12 Y137.26 E167.40841
G1 X152.21 Y137.43 E167.41659
G1 X152.28 Y137.65 E167.42590
G1 X151.26 Y137.65 E167.46806
G1 X149.82 Y137.65 E167.52818
G1 X149.82 Y142.65 E167.73622
G1 X152.36 Y142.65 E167.84182
G1 X152.36 Y164.43 E168.74725
G1 X152.84 Y164.72 E168.77053
G1 X153.25 Y165.04 E168.79210
G1 X153.32 Y165.11 E168.79651
G1 X153.69 Y165.57 E168.82101
G1 X153.86 Y165.91 E168.83691
G1 X153.97 Y166.28 E168.85267
G0 F12000 X154.46 Y166.17
;TYPE:WALL-OUTER
G1 F2400 X154.51 Y166.60 E168.87060
G1 X154.51 Y169.43 E168.98801
G1 X147.87 Y169.43 E169.26394
G1 X147.87 Y165.78 E169.41565
G1 X148.03 Y165.55 E169.42706
G1 X148.15 Y165.31 E169.43838
G1 X148.34 Y164.75 E169.46274
G1 X148.37 Y164.61 E169.46872
G1 X148.40 Y164.26 E169.48331
G1 X148.40 Y160.11 E169.65584
G1 X146.37 Y158.08 E169.77535
G1 X146.37 Y151.33 E170.05598
G1 X144.21 Y151.33 E170.14570
G1 X144.21 Y146.75 E170.33615
G1 X145.48 Y146.75 E170.38891
G1 X145.48 Y136.44 E170.81755
G1 X151.56 Y136.43 E171.07045
G1 X151.79 Y136.45 E171.08003
G1 X152.00 Y136.52 E171.08926
G1 X152.20 Y136.63 E171.09857
G1 X152.38 Y136.79 E171.10851
G1 X152.54 Y136.98 E171.11894
G1 X152.67 Y137.24 E171.13108
G1 X152.78 Y137.58 E171.14582
G1 X152.83 Y137.88 E171.15861
G1 X152.84 Y138.15 E171.16960
G1 X150.32 Y138.15 E171.27470
G1 X150.32 Y142.15 E171.44121
G1 X152.86 Y142.15 E171.54681
G1 X152.86 Y164.15 E172.46134
G1 X153.11 Y164.31 E172.47387
G1 X153.57 Y164.66 E172.49809
G1 X153.70 Y164.79 E172.50564
G1 X154.11 Y165.31 E172.53301
G1 X154.33 Y165.73 E172.55268
G1 X154.46 Y166.17 E172.57214
G0 F12000 X153.74 Y166.11
;TYPE:FILL
G1 F2400 X152.25 Y164.62 E172.65980
G0 F12000 X152.18 Y163.67
G1 F2400 X149.08 Y160.57 E172.84233
G0 F12000 X149.07 Y162.33
G1 F2400 X153.84 Y167.09 E173.12218
G0 F12000 X153.84 Y166.92
G1 F2400 X153.07 Y166.15 E173.16704
G0 F12000 X153.15 Y166.94
G1 F2400 X153.49 Y167.63 E173.20749
G1 X153.84 Y168.33 E173.23990
G0 F12000 X153.72 Y168.75
G1 F2400 X149.07 Y164.10 E173.51331
G0 F12000 X148.78 Y165.57
G1 F2400 X151.96 Y168.75 E173.70039
G0 F12000 X153.15 Y168.35
G1 F2400 X153.55 Y168.75 E173.72403
G0 F12000 X150.19 Y168.75
G1 F2400 X148.55 Y167.11 E173.82054
G0 F12000 X152.18 Y161.90
G1 F2400 X147.04 Y156.77 E174.12252
G0 F12000 X147.04 Y155.00
G1 F2400 X152.18 Y160.13 E174.42450
G0 F12000 X152.18 Y158.37
G1 F2400 X147.04 Y153.23 E174.72645
G0 F12000 X147.04 Y151.46
G1 F2400 X152.18 Y156.60 E175.02842
G0 F12000 X152.18 Y154.83
G1 F2400 X144.89 Y147.54 E175.45728
G0 F12000 X146.16 Y147.04
G1 F2400 X152.18 Y153.06 E175.81153
G0 F12000 X152.18 Y151.30
G1 F2400 X146.16 Y145.27 E176.16578
G0 F12000 X146.16 Y143.50
G1 F2400 X152.18 Y149.53 E176.52005
G0 F12000 X152.18 Y147.76
G1 F2400 X146.16 Y141.74 E176.87430
G0 F12000 X146.16 Y139.97
G1 F2400 X152.18 Y145.99 E177.22855
G0 F12000 X152.18 Y144.22
G1 F2400 X150.78 Y142.83 E177.31074
G0 F12000 X150.96 Y142.83
G1 F2400 X151.85 Y143.72 E177.36307
G0 F12000 X152.18 Y143.34
G1 F2400 X151.67 Y142.83 E177.39329
G0 F12000 X151.14 Y143.72
G1 F2400 X150.25 Y142.83 E177.44559
G0 F12000 X149.74 Y143.02
G1 F2400 X150.43 Y143.72 E177.48646
G0 F12000 X149.64 Y141.69
G1 F2400 X146.16 Y138.20 E177.69136
G0 F12000 X146.75 Y137.91
G1 F2400 X146.16 Y137.32 E177.72623
G0 F12000 X146.66 Y137.11
G1 F2400 X147.46 Y137.91 E177.77332
G0 F12000 X148.17 Y137.91
G1 F2400 X147.36 Y137.11 E177.82059
G0 F12000 X146.83 Y137.11
G1 F2400 X149.64 Y139.92 E177.98567
G0 F12000 X149.64 Y138.15
G1 F2400 X148.60 Y137.11 E178.04699
G0 F12000 X148.77 Y137.11
G1 F2400 X149.58 Y137.92 E178.09461
G0 F12000 X149.85 Y137.47
G1 F2400 X149.83 Y137.10 E178.11620
G1 X150.64 Y137.47 E178.13786
G1 X150.63 Y137.10 E178.15953
G1 X151.43 Y137.29 E178.18128
G1 X151.96 Y137.46 E178.20429
G0 F12000 X148.87 Y137.91
G1 F2400 X148.07 Y137.11 E178.25168
G0 F12000 X145.87 Y147.14
G0 X144.89 Y149.31
G1 F2400 X146.23 Y150.65 E178.33093
;LAYER:11
M106 S198
G0 F12000 X146.87 Y150.83 Z2.40
;TYPE:WALL-INNER
G1 F2580 X144.71 Y150.83 E178.42065
G1 X144.71 Y147.25 E178.56953
G1 X145.98 Y147.25 E178.62229
G1 X145.98 Y136.80 E179.05679
G1 X149.38 Y136.79 E179.19807
G1 X151.54 Y136.79 E179.28783
G1 X151.72 Y136.81 E179.29532
G1 X151.81 Y136.84 E179.29914
G1 X151.91 Y136.90 E179.30398
G1 X152.02 Y137.00 E179.31035
G1 X152.13 Y137.13 E179.31726
G1 X152.22 Y137.28 E179.32482
G1 X152.24 Y137.36 E179.32821
G1 X149.82 Y137.36 E179.42916
G1 X149.82 Y142.93 E179.66081
G1 X150.85 Y142.94 E179.70364
G1 X152.36 Y142.94 E179.76642
G1 X152.36 Y164.39 E180.65833
G1 X152.77 Y164.59 E180.67746
G1 X153.00 Y164.73 E180.68864
G1 X153.26 Y164.92 E180.70196
G1 X153.50 Y165.13 E180.71529
G1 X153.87 Y165.60 E180.74000
G1 X154.03 Y165.94 E180.75597
G1 X154.13 Y166.27 E180.77026
G1 X154.17 Y166.63 E180.78535
G1 X154.17 Y167.34 E180.81479
G1 X154.17 Y168.93 E180.88064
G1 X148.32 Y168.93 E181.12365
G1 X148.32 Y167.39 E181.18747
G1 X148.32 Y166.77 E181.21320
G1 X148.32 Y166.02 E181.24468
G1 X148.46 Y165.80 E181.25545
G1 X148.62 Y165.50 E181.26928
G1 X148.82 Y164.88 E181.29661
G1 X148.86 Y164.67 E181.30546
G1 X148.90 Y164.29 E181.32126
G1 X148.90 Y159.91 E181.50357
G1 X146.87 Y157.87 E181.62304
G1 X146.87 Y150.83 E181.91590
G0 F12000 X146.37 Y151.33
;TYPE:WALL-OUTER
G1 F2580 X144.21 Y151.33 E182.00561
G1 X144.21 Y146.75 E182.19607
G1 X145.48 Y146.75 E182.24883
G1 X145.48 Y136.30 E182.68329
G1 X149.38 Y136.29 E182.84535
G1 X151.57 Y136.29 E182.93640
G1 X151.81 Y136.32 E182.94661
G1 X152.00 Y136.38 E182.95485
G1 X152.20 Y136.49 E182.96435
G1 X152.38 Y136.64 E182.97410
G1 X152.54 Y136.84 E182.98480
G1 X152.68 Y137.08 E182.99609
G1 X152.77 Y137.35 E183.00817
G1 X152.83 Y137.66 E183.02131
G1 X152.84 Y137.86 E183.02955
G1 X150.32 Y137.86 E183.13461
G1 X150.32 Y142.44 E183.32478
G1 X150.85 Y142.44 E183.34685
G1 X152.86 Y142.44 E183.43038
G1 X152.86 Y164.07 E184.32990
G1 X153.29 Y164.31 E184.35045
G1 X153.57 Y164.53 E184.36531
G1 X153.87 Y164.80 E184.38205
G1 X154.28 Y165.31 E184.40934
G1 X154.29 Y165.34 E184.41059
G1 X154.50 Y165.76 E184.43021
G1 X154.62 Y166.18 E184.44801
G1 X154.67 Y166.60 E184.46599
G1 X154.67 Y169.43 E184.58331
G1 X147.82 Y169.43 E184.86789
G1 X147.82 Y165.85 E185.01657
G1 X147.90 Y165.75 E185.02161
G1 X148.03 Y165.55 E185.03181
G1 X148.15 Y165.31 E185.04308
G1 X148.34 Y164.75 E185.06739
G1 X148.37 Y164.61 E185.07345
G1 X148.40 Y164.26 E185.08795
G1 X148.40 Y160.11 E185.26045
G1 X146.37 Y158.08 E185.37995
G1 X146.37 Y151.33 E185.66058
G0 F12000 X147.04 Y150.82
;TYPE:FILL
G1 F2580 X152.18 Y145.69 E185.96250
G0 F12000 X152.18 Y147.46
G1 F2580 X147.04 Y152.59 E186.26442
G0 F12000 X147.04 Y154.36
G1 F2580 X152.18 Y149.22 E186.56634
G0 F12000 X152.18 Y150.99
G1 F2580 X147.04 Y156.13 E186.86826
G0 F12000 X147.09 Y157.85
G1 F2580 X152.18 Y152.76 E187.16738
G0 F12000 X152.18 Y154.53
G1 F2580 X147.98 Y158.73 E187.41459
G0 F12000 X148.86 Y159.62
G1 F2580 X152.18 Y156.29 E187.60982
G0 F12000 X152.18 Y158.06
G1 F2580 X149.08 Y161.16 E187.79227
G0 F12000 X149.08 Y162.93
G1 F2580 X152.18 Y159.83 E187.97477
G0 F12000 X152.18 Y161.60
G1 F2580 X149.02 Y164.75 E188.16042
G0 F12000 X148.50 Y167.05
G1 F2580 X152.18 Y163.37 E188.37694
G0 F12000 X152.49 Y164.65
G1 F2580 X152.30 Y164.84 E188.38820
G0 F12000 X152.61 Y164.70
G1 F2580 X148.56 Y168.75 E188.62626
G0 F12000 X150.33 Y168.75
G1 F2580 X153.57 Y165.51 E188.81682
G0 F12000 X153.65 Y165.61
G1 F2580 X153.08 Y165.82 E188.84314
G1 X153.14 Y165.06 E188.86449
G1 X152.66 Y165.19 E188.88527
G0 F12000 X153.89 Y166.08
G1 F2580 X153.65 Y166.67 E188.91960
G1 X153.65 Y167.38 E188.96005
G1 X153.32 Y168.41 E189.00045
G1 X153.99 Y168.36 E189.03907
G1 X153.87 Y168.75 E189.05622
G0 F12000 X152.10 Y168.75
G1 F2580 X153.99 Y166.86 E189.16767
G0 F12000 X152.44 Y164.34
G0 X149.93 Y142.83
G0 X149.93 Y137.47
G0 X145.87 Y147.14
G0 X145.45 Y150.65
G1 F2580 X152.18 Y143.92 E189.56357
G0 F12000 X152.09 Y143.84
G1 F2580 X152.18 Y143.74 E189.56895
G0 F12000 X152.10 Y143.11
G1 F2580 X151.38 Y143.84 E189.61158
G0 F12000 X150.67 Y143.84
G1 F2580 X151.40 Y143.11 E189.65421
G0 F12000 X151.22 Y143.11
G1 F2580 X144.89 Y149.44 E190.02674
G0 F12000 X144.89 Y147.68
G1 F2580 X145.14 Y147.42 E190.04170
G0 F12000 X146.16 Y146.41
G1 F2580 X149.64 Y142.93 E190.24655
G0 F12000 X149.99 Y143.11
G1 F2580 X149.74 Y143.35 E190.26101
G0 F12000 X149.97 Y143.84
G1 F2580 X150.69 Y143.11 E190.30367
G0 F12000 X149.93 Y142.83
G0 X149.38 Y141.59
G1 F2580 X149.64 Y141.33 E190.31878
G0 F12000 X149.64 Y141.16
G1 F2580 X146.16 Y144.64 E190.52362
G0 F12000 X146.16 Y142.87
G1 F2580 X148.09 Y140.94 E190.63734
G0 F12000 X147.97 Y141.59
G1 F2580 X149.64 Y139.92 E190.73558
G0 F12000 X149.64 Y140.63
G1 F2580 X148.68 Y141.59 E190.79226
G0 F12000 X147.26 Y141.59
G1 F2580 X149.64 Y139.21 E190.93208
G0 F12000 X149.44 Y138.71
G1 F2580 X146.55 Y141.59 E191.10159
G0 F12000 X146.15 Y141.28
G1 F2580 X148.73 Y138.71 E191.25305
G0 F12000 X148.02 Y138.71
G1 F2580 X146.15 Y140.58 E191.36294
G0 F12000 X146.32 Y140.94
G1 F2580 X146.16 Y141.10 E191.37264
G0 F12000 X146.15 Y139.87
G1 F2580 X147.32 Y138.71 E191.44093
G0 F12000 X146.61 Y138.71
G1 F2580 X146.15 Y139.16 E191.46766
G0 F12000 X146.16 Y139.34
G1 F2580 X148.52 Y136.97 E191.60694
G0 F12000 X148.35 Y136.97
G1 F2580 X147.62 Y137.69 E191.64951
G0 F12000 X146.91 Y137.70
G1 F2580 X147.64 Y136.97 E191.69220
G0 F12000 X146.93 Y136.97
G1 F2580 X146.20 Y137.70 E191.73500
G0 F12000 X146.16 Y137.57
G1 F2580 X146.75 Y136.97 E191.77031
G0 F12000 X148.33 Y137.69
G1 F2580 X149.06 Y136.97 E191.81273
G0 F12000 X149.76 Y136.97
G1 F2580 X149.04 Y137.69 E191.85509
G0 F12000 X149.64 Y137.62
G1 F2580 X147.90 Y139.36 E191.95722
G0 F12000 X150.07 Y137.19
G1 F2580 X150.38 Y136.97 E191.97016
G1 X150.60 Y137.19 E191.98305
G1 X151.42 Y137.08 E191.99587
G1 X151.81 Y137.04 E192.01197
;LAYER:12
M106 S216
G0 F12000 X151.60 Y137.15 Z2.60
;TYPE:WALL-INNER
G1 F2580 X149.82 Y137.15 E192.08635
G1 X149.82 Y143.15 E192.33596
G1 X152.07 Y143.15 E192.42955
G1 X152.36 Y143.15 E192.44157
G1 X152.36 Y164.27 E193.31963
G1 X153.17 Y164.74 E193.35858
G1 X153.58 Y165.06 E193.38017
G1 X153.65 Y165.12 E193.38405
G1 X154.02 Y165.59 E193.40905
G1 X154.19 Y165.94 E193.42517
G1 X154.29 Y166.28 E193.43967
G1 X154.32 Y166.64 E193.45472
G1 X154.32 Y167.43 E193.48757
G1 X154.32 Y168.93 E193.54997
G1 X148.27 Y168.93 E193.80158
G1 X148.27 Y166.52 E193.90170
G1 X148.27 Y166.07 E193.92024
G1 X148.47 Y165.79 E193.93439
G1 X148.71 Y165.26 E193.95891
G1 X148.85 Y164.74 E193.98129
G1 X148.90 Y164.29 E194.00015
G1 X148.90 Y159.91 E194.18229
G1 X146.87 Y157.87 E194.30176
G1 X146.87 Y150.83 E194.59462
G1 X144.71 Y150.83 E194.68434
G1 X144.71 Y147.25 E194.83322
G1 X145.98 Y147.25 E194.88598
G1 X145.98 Y136.68 E195.32547
G1 X146.78 Y136.68 E195.35848
G1 X151.54 Y136.68 E195.55654
G1 X151.70 Y136.70 E195.56332
G1 X151.81 Y136.73 E195.56817
G1 X151.92 Y136.79 E195.57342
G1 X152.05 Y136.90 E195.58038
G1 X152.13 Y136.99 E195.58557
G1 X152.22 Y137.15 E195.59289
G1 X151.60 Y137.15 E195.61850
G0 F12000 X151.80 Y136.21
;TYPE:WALL-OUTER
G1 F2580 X152.00 Y136.27 E195.62731
G1 X152.21 Y136.37 E195.63682
G1 X152.41 Y136.54 E195.64765
G1 X152.55 Y136.71 E195.65664
G1 X152.67 Y136.93 E195.66722
G1 X152.77 Y137.19 E195.67913
G1 X152.83 Y137.48 E195.69136
G1 X152.84 Y137.65 E195.69823
G1 X150.32 Y137.65 E195.80325
G1 X150.32 Y142.65 E196.01133
G1 X152.86 Y142.65 E196.11693
G1 X152.86 Y163.98 E197.00373
G1 X153.44 Y164.31 E197.03149
G1 X153.75 Y164.54 E197.04737
G1 X154.04 Y164.81 E197.06411
G1 X154.42 Y165.29 E197.08970
G1 X154.46 Y165.34 E197.09221
G1 X154.66 Y165.77 E197.11174
G1 X154.78 Y166.18 E197.12940
G1 X154.82 Y166.63 E197.14837
G1 X154.82 Y169.43 E197.26470
G1 X147.77 Y169.43 E197.55788
G1 X147.77 Y165.91 E197.70390
G1 X148.03 Y165.55 E197.72258
G1 X148.24 Y165.09 E197.74358
G1 X148.36 Y164.64 E197.76277
G1 X148.40 Y164.26 E197.77875
G1 X148.40 Y160.11 E197.95116
G1 X146.37 Y158.08 E198.07066
G1 X146.37 Y151.33 E198.35130
G1 X144.21 Y151.33 E198.44101
G1 X144.21 Y146.75 E198.63147
G1 X145.48 Y146.75 E198.68423
G1 X145.48 Y136.18 E199.12368
G1 X146.78 Y136.18 E199.17748
G1 X151.56 Y136.18 E199.37658
G1 X151.80 Y136.21 E199.38645
G0 F12000 X151.73 Y136.55
G0 X149.64 Y137.27
;TYPE:FILL
G1 F2580 X149.19 Y137.17 E199.41066
G1 X148.52 Y136.85 E199.44153
G0 F12000 X148.34 Y136.85
G1 F2580 X149.64 Y138.15 E199.51776
G0 F12000 X149.31 Y138.35
G1 F2580 X149.64 Y138.68 E199.53704
G0 F12000 X149.64 Y139.39
G1 F2580 X148.60 Y138.35 E199.59789
G0 F12000 X148.72 Y139.00
G1 F2580 X146.57 Y136.85 E199.72431
G0 F12000 X146.40 Y136.85
G1 F2580 X147.07 Y137.17 E199.76209
G1 X147.78 Y137.17 E199.79972
G1 X148.45 Y137.49 E199.83067
G0 F12000 X147.90 Y138.35
G1 F2580 X149.64 Y140.09 E199.93309
G0 F12000 X149.64 Y140.80
G1 F2580 X147.19 Y138.35 E200.07703
G0 F12000 X146.96 Y139.00
G1 F2580 X146.15 Y138.20 E200.12424
G0 F12000 X146.48 Y138.35
G1 F2580 X149.64 Y141.51 E200.30980
G0 F12000 X149.64 Y141.69
G1 F2580 X149.25 Y141.30 E200.33267
G0 F12000 X149.37 Y141.95
G1 F2580 X146.16 Y138.73 E200.52173
G0 F12000 X146.16 Y139.44
G1 F2580 X148.66 Y141.95 E200.66922
G0 F12000 X147.96 Y141.95
G1 F2580 X146.16 Y140.15 E200.77511
G0 F12000 X146.16 Y140.85
G1 F2580 X147.25 Y141.95 E200.83944
G0 F12000 X147.48 Y141.30
G1 F2580 X152.18 Y145.99 E201.11557
G0 F12000 X152.18 Y147.76
G1 F2580 X146.15 Y141.74 E201.46988
G0 F12000 X146.16 Y141.56
G1 F2580 X146.54 Y141.95 E201.49263
G0 F12000 X146.15 Y143.50
G1 F2580 X152.18 Y149.53 E201.84694
G0 F12000 X152.18 Y151.30
G1 F2580 X146.16 Y145.27 E202.20118
G0 F12000 X146.16 Y147.04
G1 F2580 X152.18 Y153.06 E202.55543
G0 F12000 X152.18 Y154.83
G1 F2580 X144.89 Y147.54 E202.98429
G0 F12000 X144.89 Y149.31
G1 F2580 X146.23 Y150.65 E203.06355
G0 F12000 X147.04 Y151.46
G1 F2580 X152.18 Y156.60 E203.36552
G0 F12000 X152.18 Y158.37
G1 F2580 X147.04 Y153.23 E203.66747
G0 F12000 X147.04 Y155.00
G1 F2580 X152.18 Y160.13 E203.96945
G0 F12000 X152.18 Y161.90
G1 F2580 X147.04 Y156.77 E204.27143
G0 F12000 X149.08 Y160.57
G1 F2580 X152.18 Y163.67 E204.45396
G0 F12000 X152.28 Y164.65
G1 F2580 X152.78 Y165.15 E204.48315
G0 F12000 X152.80 Y165.17
G1 F2580 X154.13 Y166.51 E204.56173
G0 F12000 X153.45 Y166.53
G1 F2580 X154.15 Y167.23 E204.60280
G0 F12000 X154.15 Y167.41
G1 F2580 X149.07 Y162.33 E204.90113
G0 F12000 X149.07 Y164.10
G1 F2580 X153.72 Y168.75 E205.17454
G0 F12000 X153.55 Y168.75
G1 F2580 X153.81 Y168.66 E205.17955
G1 X153.81 Y167.95 E205.21988
G1 X153.46 Y167.25 E205.25218
G0 F12000 X151.96 Y168.75
G1 F2580 X148.77 Y165.56 E205.43980
G0 F12000 X148.45 Y167.01
G1 F2580 X150.19 Y168.75 E205.54228
G0 F12000 X152.18 Y144.22
G1 F2580 X151.28 Y143.33 E205.59508
G0 F12000 X151.46 Y143.33
G1 F2580 X151.71 Y143.93 E205.63040
G1 X150.70 Y143.63 E205.66561
G1 X149.89 Y143.53 E205.70079
G1 X149.94 Y143.93 E205.71744
G0 F12000 X146.34 Y137.50
G1 F2580 X146.15 Y137.31 E205.72808
;LAYER:13
M106 S234
G0 F12000 X145.98 Y136.59 Z2.80
;TYPE:WALL-INNER
G1 F2580 X150.32 Y136.57 E205.90860
G1 X151.54 Y136.57 E205.95920
G1 X151.70 Y136.59 E205.96593
G1 X151.81 Y136.62 E205.97078
G1 X151.93 Y136.69 E205.97649
G1 X152.04 Y136.77 E205.98223
G1 X152.14 Y136.88 E205.98827
G1 X152.18 Y136.95 E205.99140
G1 X149.82 Y136.95 E206.08952
G1 X149.82 Y143.35 E206.35568
G1 X150.80 Y143.35 E206.39655
G1 X152.36 Y143.35 E206.46128
G1 X152.36 Y164.27 E207.33083
G1 X152.81 Y164.45 E207.35115
G1 X153.32 Y164.73 E207.37538
G1 X153.59 Y164.93 E207.38944
G1 X153.83 Y165.15 E207.40303
G1 X154.15 Y165.55 E207.42414
G1 X154.35 Y165.94 E207.44227
G1 X154.44 Y166.28 E207.45689
G1 X154.48 Y166.63 E207.47186
G1 X154.48 Y167.51 E207.50819
G1 X154.48 Y168.93 E207.56715
G1 X148.22 Y168.93 E207.82745
G1 X148.22 Y167.90 E207.87031
G1 X148.22 Y166.99 E207.90781
G1 X148.22 Y166.27 E207.93800
G1 X148.22 Y166.15 E207.94307
G1 X148.30 Y166.06 E207.94795
G1 X148.47 Y165.78 E207.96145
G1 X148.51 Y165.71 E207.96478
G1 X148.61 Y165.52 E207.97376
G1 X148.72 Y165.23 E207.98663
G1 X148.85 Y164.73 E208.00811
G1 X148.90 Y164.29 E208.02671
G1 X148.90 Y159.91 E208.20881
G1 X146.87 Y157.87 E208.32828
G1 X146.87 Y150.83 E208.62114
G1 X144.71 Y150.83 E208.71086
G1 X144.71 Y147.25 E208.85974
G1 X145.98 Y147.25 E208.91250
G1 X145.98 Y136.59 E209.35586
G0 F12000 X145.48 Y136.09
;TYPE:WALL-OUTER
G1 F2580 X151.56 Y136.07 E209.60880
G1 X151.80 Y136.10 E209.61863
G1 X152.00 Y136.16 E209.62744
G1 X152.21 Y136.27 E209.63709
G1 X152.39 Y136.41 E209.64659
G1 X152.55 Y136.59 E209.65667
G1 X152.68 Y136.82 E209.66781
G1 X152.78 Y137.06 E209.67832
G1 X152.83 Y137.32 E209.68959
G1 X152.84 Y137.45 E209.69479
G1 X150.32 Y137.45 E209.79973
G1 X150.32 Y142.85 E210.02440
G1 X150.80 Y142.85 E210.04452
G1 X152.86 Y142.85 E210.13000
G1 X152.86 Y163.93 E211.00624
G1 X153.02 Y163.99 E211.01367
G1 X153.60 Y164.31 E211.04095
G1 X153.91 Y164.54 E211.05724
G1 X154.20 Y164.81 E211.07353
G1 X154.57 Y165.28 E211.09835
G1 X154.81 Y165.74 E211.11966
G1 X154.94 Y166.18 E211.13879
G1 X154.98 Y166.63 E211.15773
G1 X154.98 Y169.43 E211.27405
G1 X147.72 Y169.43 E211.57593
G1 X147.72 Y165.97 E211.71970
G1 X147.89 Y165.76 E211.73087
G1 X148.15 Y165.31 E211.75254
G1 X148.25 Y165.07 E211.76309
G1 X148.36 Y164.64 E211.78173
G1 X148.40 Y164.26 E211.79765
G1 X148.40 Y160.11 E211.97003
G1 X146.37 Y158.08 E212.08953
G1 X146.37 Y151.33 E212.37016
G1 X144.21 Y151.33 E212.45988
G1 X144.21 Y146.75 E212.65034
G1 X145.48 Y146.75 E212.70309
G1 X145.48 Y136.09 E213.14641
G0 F12000 X146.16 Y137.04
;TYPE:FILL
G1 F2580 X146.44 Y136.76 E213.16299
G0 F12000 X146.97 Y136.76
G1 F2580 X146.16 Y137.57 E213.21085
G0 F12000 X146.60 Y137.30
G1 F2580 X147.23 Y137.03 E213.24277
G1 X147.94 Y137.03 E213.27486
G1 X148.56 Y136.75 E213.30340
G0 F12000 X148.74 Y136.75
G1 F2580 X146.72 Y138.78 E213.42234
G0 F12000 X146.16 Y138.46
G1 F2580 X146.48 Y138.12 E213.44172
G0 F12000 X147.19 Y138.12
G1 F2580 X146.16 Y139.16 E213.50269
G0 F12000 X146.16 Y139.87
G1 F2580 X147.90 Y138.12 E213.60523
G0 F12000 X148.61 Y138.12
G1 F2580 X146.16 Y140.58 E213.74934
G0 F12000 X146.16 Y141.28
G1 F2580 X149.31 Y138.12 E213.93502
G0 F12000 X149.64 Y138.50
G1 F2580 X146.16 Y141.99 E214.13992
G0 F12000 X146.68 Y142.17
G1 F2580 X149.64 Y139.21 E214.31396
G0 F12000 X149.64 Y139.92
G1 F2580 X147.39 Y142.17 E214.44643
G0 F12000 X147.51 Y141.52
G1 F2580 X146.16 Y142.87 E214.52586
G0 F12000 X146.16 Y144.64
G1 F2580 X149.28 Y141.52 E214.70925
G0 F12000 X149.64 Y141.33
G1 F2580 X148.80 Y142.17 E214.75858
G0 F12000 X149.51 Y142.17
G1 F2580 X149.64 Y142.04 E214.76634
G0 F12000 X149.64 Y142.92
G1 F2580 X146.16 Y146.41 E214.97121
G0 F12000 X145.14 Y147.42
G1 F2580 X144.89 Y147.68 E214.98618
G0 F12000 X144.89 Y149.44
G1 F2580 X150.81 Y143.52 E215.33431
G0 F12000 X150.98 Y143.52
G1 F2580 X150.38 Y143.77 E215.36350
G1 X149.79 Y144.01 E215.39004
G0 F12000 X151.19 Y144.02
G1 F2580 X151.94 Y143.63 E215.41918
G1 X151.90 Y144.02 E215.43538
G0 F12000 X152.18 Y143.92
G1 F2580 X145.45 Y150.65 E215.83131
G0 F12000 X147.04 Y150.82
G1 F2580 X152.18 Y145.69 E216.13326
G0 F12000 X152.18 Y147.46
G1 F2580 X147.04 Y152.59 E216.43524
G0 F12000 X147.04 Y154.36
G1 F2580 X152.18 Y149.22 E216.73721
G0 F12000 X152.18 Y150.99
G1 F2580 X147.04 Y156.13 E217.03919
G0 F12000 X147.09 Y157.85
G1 F2580 X152.18 Y152.76 E217.33834
G0 F12000 X152.18 Y154.53
G1 F2580 X147.98 Y158.73 E217.58555
G0 F12000 X148.86 Y159.62
G1 F2580 X152.18 Y156.29 E217.78079
G0 F12000 X152.18 Y158.06
G1 F2580 X149.08 Y161.16 E217.96323
G0 F12000 X149.08 Y162.93
G1 F2580 X152.18 Y159.83 E218.14573
G0 F12000 X152.18 Y161.60
G1 F2580 X149.03 Y164.75 E218.33112
G0 F12000 X148.40 Y167.15
G1 F2580 X152.18 Y163.37 E218.55351
G0 F12000 X152.59 Y164.55
G1 F2580 X152.42 Y164.72 E218.56372
G0 F12000 X152.72 Y164.60
G1 F2580 X148.56 Y168.75 E218.80790
G0 F12000 X150.33 Y168.75
G1 F2580 X153.75 Y165.33 E219.00892
G0 F12000 X153.83 Y165.43
G1 F2580 X153.29 Y165.62 E219.03249
G1 X153.27 Y164.93 E219.05220
G1 X152.81 Y165.04 E219.07214
G0 F12000 X154.11 Y165.86
G1 F2580 X153.61 Y166.71 E219.10235
G1 X154.28 Y166.39 E219.13337
G0 F12000 X154.30 Y166.55
G1 F2580 X152.10 Y168.75 E219.26272
G0 F12000 X153.62 Y168.47
G1 F2580 X154.31 Y168.04 E219.30308
G1 X153.95 Y168.75 E219.32903
G1 X154.31 Y168.49 E219.34739
G0 F12000 X153.62 Y167.76
G1 F2580 X154.31 Y167.07 E219.38778
G0 F12000 X152.44 Y164.21
G0 X148.09 Y142.17
G1 F2580 X149.64 Y140.63 E219.47868
G0 F12000 X148.49 Y138.78
G1 F2580 X149.64 Y137.62 E219.54653
G0 F12000 X149.43 Y137.30
G1 F2580 X149.46 Y136.92 E219.55895
G1 X148.72 Y137.30 E219.59331
;LAYER:14
M106 S255
G0 F12000 X149.56 Y136.48 Z3.00
;TYPE:WALL-INNER
G1 F2580 X151.54 Y136.48 E219.67592
G1 X151.71 Y136.50 E219.68298
G1 X151.82 Y136.53 E219.68773
G1 X151.96 Y136.60 E219.69413
G1 X152.05 Y136.67 E219.69891
G1 X152.15 Y136.79 E219.70569
G1 X151.46 Y136.79 E219.73459
G1 X149.82 Y136.80 E219.80290
G1 X149.82 Y143.50 E220.08170
G1 X152.21 Y143.50 E220.18136
G1 X152.36 Y143.50 E220.18730
G1 X152.36 Y164.20 E221.04770
G1 X152.97 Y164.45 E221.07550
G1 X153.48 Y164.73 E221.09954
G1 X153.89 Y165.05 E221.12104
G1 X153.98 Y165.15 E221.12666
G1 X154.30 Y165.55 E221.14803
G1 X154.51 Y165.94 E221.16639
G1 X154.60 Y166.28 E221.18093
G1 X154.64 Y166.63 E221.19581
G1 X154.64 Y167.59 E221.23564
G1 X154.64 Y168.93 E221.29114
G1 X148.17 Y168.93 E221.56005
G1 X148.17 Y166.22 E221.67280
G1 X148.47 Y165.79 E221.69423
G1 X148.72 Y165.22 E221.72048
G1 X148.85 Y164.73 E221.74129
G1 X148.90 Y164.28 E221.76001
G1 X148.90 Y159.91 E221.94203
G1 X146.87 Y157.87 E222.06150
G1 X146.87 Y150.83 E222.35436
G1 X144.71 Y150.83 E222.44408
G1 X144.71 Y147.25 E222.59296
G1 X145.98 Y147.25 E222.64572
G1 X145.98 Y136.49 E223.09298
G1 X149.56 Y136.48 E223.24157
G0 F12000 X149.55 Y135.98
;TYPE:WALL-OUTER
G1 F2580 X151.57 Y135.98 E223.32531
G1 X151.80 Y136.00 E223.33512
G1 X152.01 Y136.06 E223.34403
G1 X152.22 Y136.17 E223.35401
G1 X152.39 Y136.30 E223.36277
G1 X152.55 Y136.48 E223.37267
G1 X152.68 Y136.69 E223.38310
G1 X152.77 Y136.93 E223.39354
G1 X152.83 Y137.18 E223.40450
G1 X152.84 Y137.30 E223.40921
G1 X150.32 Y137.30 E223.51414
G1 X150.32 Y143.00 E223.75141
G1 X152.86 Y143.00 E223.85702
G1 X152.86 Y163.86 E224.72427
G1 X153.19 Y164.00 E224.73917
G1 X153.75 Y164.31 E224.76605
G1 X154.23 Y164.68 E224.79113
G1 X154.36 Y164.82 E224.79907
G1 X154.72 Y165.28 E224.82316
G1 X154.96 Y165.72 E224.84410
G1 X155.09 Y166.18 E224.86390
G1 X155.14 Y166.62 E224.88228
G1 X155.14 Y169.43 E224.99915
G1 X147.67 Y169.43 E225.30964
G1 X147.67 Y166.03 E225.45087
G1 X147.76 Y165.94 E225.45599
G1 X148.03 Y165.55 E225.47593
G1 X148.25 Y165.05 E225.49855
G1 X148.36 Y164.64 E225.51613
G1 X148.40 Y164.26 E225.53214
G1 X148.40 Y160.11 E225.70442
G1 X146.37 Y158.08 E225.82393
G1 X146.37 Y151.33 E226.10456
G1 X144.21 Y151.33 E226.19428
G1 X144.21 Y146.75 E226.38473
G1 X145.48 Y146.75 E226.43749
G1 X145.48 Y135.99 E226.88468
G1 X149.55 Y135.98 E227.05401
G0 F12000 X149.03 Y136.66
;TYPE:FILL
G1 F2580 X149.17 Y137.15 E227.08292
G1 X148.32 Y136.66 E227.12349
G0 F12000 X148.15 Y136.66
G1 F2580 X149.64 Y138.15 E227.21119
G0 F12000 X149.64 Y138.68
G1 F2580 X148.93 Y137.97 E227.25317
G0 F12000 X148.22 Y137.97
G1 F2580 X149.64 Y139.39 E227.33672
G0 F12000 X149.64 Y140.09
G1 F2580 X147.51 Y137.97 E227.46178
G0 F12000 X146.81 Y137.97
G1 F2580 X149.64 Y140.80 E227.62844
G0 F12000 X149.64 Y141.51
G1 F2580 X146.16 Y138.02 E227.83337
G0 F12000 X146.15 Y138.20
G1 F2580 X146.57 Y138.62 E227.85789
G0 F12000 X146.16 Y138.73
G1 F2580 X149.64 Y142.22 E228.06282
G0 F12000 X149.05 Y142.33
G1 F2580 X146.16 Y139.44 E228.23301
G0 F12000 X146.16 Y140.15
G1 F2580 X148.34 Y142.33 E228.36160
G0 F12000 X147.63 Y142.33
G1 F2580 X146.16 Y140.85 E228.44861
G0 F12000 X146.16 Y141.56
G1 F2580 X146.93 Y142.33 E228.49406
G0 F12000 X146.15 Y141.74
G1 F2580 X152.18 Y147.76 E228.84837
G0 F12000 X152.18 Y149.53
G1 F2580 X146.15 Y143.50 E229.20267
G0 F12000 X146.16 Y145.27
G1 F2580 X152.18 Y151.30 E229.55692
G0 F12000 X152.18 Y153.06
G1 F2580 X146.16 Y147.04 E229.91117
G0 F12000 X144.89 Y147.54
G1 F2580 X152.18 Y154.83 E230.34003
G0 F12000 X152.18 Y156.60
G1 F2580 X147.04 Y151.46 E230.64200
G0 F12000 X146.23 Y150.65
G1 F2580 X144.89 Y149.31 E230.72126
G0 F12000 X146.76 Y150.94
G0 X147.04 Y153.23
G1 F2580 X152.18 Y158.37 E231.02321
G0 F12000 X152.18 Y160.13
G1 F2580 X147.04 Y155.00 E231.32519
G0 F12000 X147.04 Y156.77
G1 F2580 X152.18 Y161.90 E231.62716
G0 F12000 X152.18 Y163.67
G1 F2580 X149.08 Y160.57 E231.80970
G0 F12000 X149.07 Y162.33
G1 F2580 X154.46 Y167.72 E232.12652
G0 F12000 X154.46 Y167.55
G1 F2580 X153.78 Y166.86 E232.16688
G0 F12000 X154.46 Y166.84
G1 F2580 X153.67 Y166.04 E232.21374
G0 F12000 X154.14 Y165.63
G1 F2580 X153.40 Y164.89 E232.25761
G0 F12000 X153.00 Y164.66
G1 F2580 X154.34 Y166.01 E232.33698
G0 F12000 X153.78 Y167.57
G1 F2580 X154.36 Y168.50 E232.37729
G1 X153.78 Y168.27 E232.40325
G0 F12000 X153.72 Y168.75
G1 F2580 X149.07 Y164.10 E232.67665
G0 F12000 X148.76 Y165.56
G1 F2580 X151.96 Y168.75 E232.86445
G0 F12000 X150.19 Y168.75
G1 F2580 X148.35 Y166.91 E232.97275
G0 F12000 X148.35 Y168.68
G1 F2580 X148.42 Y168.75 E232.97716
G0 F12000 X152.18 Y145.99
G1 F2580 X149.87 Y143.68 E233.11327
G0 F12000 X149.74 Y143.73
G1 F2580 X150.24 Y143.88 E233.13368
G1 X150.95 Y143.88 E233.15711
G1 X151.57 Y143.88 E233.18053
G1 X152.18 Y144.14 E233.21262
G1 X151.81 Y143.68 E233.23704
G0 F12000 X149.64 Y143.45
G1 F2580 X147.87 Y141.68 E233.34111
G0 F12000 X148.34 Y138.62
G1 F2580 X146.39 Y136.66 E233.45585
G0 F12000 X146.21 Y136.66
G1 F2580 X146.81 Y136.91 E233.48442
G1 X147.51 Y136.91 E233.51308
G1 X148.11 Y137.15 E233.53993
;LAYER:15
G0 F12000 X149.82 Y136.66 Z3.20
;TYPE:WALL-INNER
G1 F2640 X149.82 Y143.64 E233.83038
G1 X151.12 Y143.64 E233.88451
G1 X152.36 Y143.64 E233.93598
G1 X152.36 Y164.12 E234.78727
G1 X153.39 Y164.58 E234.83438
G1 X153.62 Y164.72 E234.84576
G1 X154.03 Y165.04 E234.86709
G1 X154.15 Y165.16 E234.87423
G1 X154.48 Y165.57 E234.89620
G1 X154.66 Y165.94 E234.91334
G1 X154.76 Y166.28 E234.92783
G1 X154.80 Y166.65 E234.94338
G1 X154.80 Y167.68 E234.98603
G1 X154.80 Y168.93 E235.03808
G1 X148.12 Y168.93 E235.31568
G1 X148.12 Y167.63 E235.36952
G1 X148.12 Y166.28 E235.42569
G1 X148.43 Y165.84 E235.44798
G1 X148.61 Y165.52 E235.46345
G1 X148.72 Y165.23 E235.47621
G1 X148.86 Y164.69 E235.49946
G1 X148.90 Y164.28 E235.51637
G1 X148.90 Y159.91 E235.69843
G1 X146.87 Y157.87 E235.81790
G1 X146.87 Y150.83 E236.11076
G1 X144.71 Y150.83 E236.20048
G1 X144.71 Y147.25 E236.34936
G1 X145.98 Y147.25 E236.40212
G1 X145.98 Y136.40 E236.85329
G1 X146.41 Y136.40 E236.87117
G1 X151.54 Y136.40 E237.08449
G1 X151.71 Y136.42 E237.09155
G1 X151.82 Y136.45 E237.09647
G1 X151.95 Y136.51 E237.10220
G1 X152.05 Y136.59 E237.10755
G1 X152.11 Y136.66 E237.11117
G1 X149.82 Y136.66 E237.20650
G0 F12000 X150.32 Y137.16
;TYPE:WALL-OUTER
G1 F2640 X150.32 Y143.14 E237.45541
G1 X152.86 Y143.14 E237.56101
G1 X152.86 Y163.79 E238.41958
G1 X153.62 Y164.13 E238.45427
G1 X153.91 Y164.31 E238.46871
G1 X154.37 Y164.66 E238.49241
G1 X154.52 Y164.82 E238.50167
G1 X154.89 Y165.29 E238.52645
G1 X155.13 Y165.77 E238.54871
G1 X155.25 Y166.18 E238.56644
G1 X155.30 Y166.62 E238.58488
G1 X155.30 Y169.43 E238.70166
G1 X147.62 Y169.43 E239.02083
G1 X147.62 Y166.09 E239.15965
G1 X147.76 Y165.94 E239.16807
G1 X148.01 Y165.58 E239.18610
G1 X148.15 Y165.31 E239.19917
G1 X148.25 Y165.07 E239.20947
G1 X148.37 Y164.61 E239.22932
G1 X148.40 Y164.26 E239.24419
G1 X148.40 Y160.11 E239.41648
G1 X146.37 Y158.08 E239.53599
G1 X146.37 Y151.33 E239.81662
G1 X144.21 Y151.33 E239.90634
G1 X144.21 Y146.75 E240.09679
G1 X145.48 Y146.75 E240.14955
G1 X145.48 Y135.90 E240.60064
G1 X146.41 Y135.90 E240.63927
G1 X151.57 Y135.90 E240.85371
G1 X151.80 Y135.93 E240.86352
G1 X152.01 Y135.98 E240.87243
G1 X152.21 Y136.09 E240.88182
G1 X152.39 Y136.22 E240.89118
G1 X152.57 Y136.43 E240.90269
G1 X152.68 Y136.59 E240.91062
G1 X152.77 Y136.82 E240.92097
G1 X152.84 Y137.08 E240.93215
G1 X152.84 Y137.16 E240.93532
G1 X150.32 Y137.16 E241.04026
G0 F12000 X149.64 Y137.62
;TYPE:FILL
G1 F2640 X148.76 Y138.50 E241.09185
G0 F12000 X148.88 Y137.85
G1 F2640 X146.16 Y140.58 E241.25219
G0 F12000 X146.16 Y141.28
G1 F2640 X149.59 Y137.85 E241.45409
G0 F12000 X149.64 Y138.50
G1 F2640 X146.16 Y141.99 E241.65900
G0 F12000 X146.40 Y142.45
G1 F2640 X149.64 Y139.21 E241.84935
G0 F12000 X149.64 Y139.92
G1 F2640 X147.11 Y142.45 E241.99810
G0 F12000 X147.23 Y141.80
G1 F2640 X146.16 Y142.87 E242.06128
G0 F12000 X147.82 Y142.45
G1 F2640 X149.64 Y140.63 E242.16847
G0 F12000 X149.64 Y141.33
G1 F2640 X148.52 Y142.45 E242.23405
G0 F12000 X149.23 Y142.45
G1 F2640 X149.64 Y142.04 E242.25804
G0 F12000 X149.00 Y141.80
G1 F2640 X146.16 Y144.64 E242.42517
G0 F12000 X146.16 Y146.41
G1 F2640 X149.64 Y142.92 E242.63005
G0 F12000 X150.52 Y143.82
G1 F2640 X144.89 Y149.44 E242.96098
G0 F12000 X145.45 Y150.65
G1 F2640 X152.18 Y143.92 E243.35688
G0 F12000 X152.18 Y145.69
G1 F2640 X147.04 Y150.82 E243.65880
G0 F12000 X147.04 Y152.59
G1 F2640 X152.18 Y147.46 E243.96072
G0 F12000 X152.18 Y149.22
G1 F2640 X147.04 Y154.36 E244.26264
G0 F12000 X147.04 Y156.13
G1 F2640 X152.18 Y150.99 E244.56456
G0 F12000 X152.18 Y152.76
G1 F2640 X147.09 Y157.85 E244.86368
G0 F12000 X147.98 Y158.73
G1 F2640 X152.18 Y154.53 E245.11083
G0 F12000 X152.18 Y156.29
G1 F2640 X148.86 Y159.62 E245.30601
G0 F12000 X149.08 Y161.16
G1 F2640 X152.18 Y158.06 E245.48839
G0 F12000 X152.18 Y159.83
G1 F2640 X149.08 Y162.93 E245.67081
G0 F12000 X149.03 Y164.75
G1 F2640 X152.18 Y161.60 E245.85619
G0 F12000 X152.18 Y163.37
G1 F2640 X148.29 Y167.25 E246.08456
G0 F12000 X148.56 Y168.75
G1 F2640 X152.81 Y164.51 E246.33397
G0 F12000 X152.68 Y164.45
G1 F2640 X152.73 Y164.76 E246.34360
G1 X153.39 Y164.80 E246.35697
G1 X153.47 Y165.43 E246.37439
G1 X154.00 Y165.26 E246.39740
G0 F12000 X153.91 Y165.17
G1 F2640 X150.33 Y168.75 E246.60807
G0 F12000 X152.10 Y168.75
G1 F2640 X154.58 Y166.27 E246.75382
G0 F12000 X154.54 Y166.13
G1 F2640 X153.89 Y166.43 E246.78919
G1 X154.31 Y165.65 E246.82599
G0 F12000 X154.62 Y166.76
G1 F2640 X154.28 Y167.45 E246.86643
G1 X153.94 Y168.15 E246.89879
G0 F12000 X153.87 Y168.75
G1 F2640 X154.62 Y167.99 E246.94330
G0 F12000 X154.62 Y168.17
G1 F2640 X154.04 Y168.75 E246.97743
G0 F12000 X146.76 Y150.94
G0 X144.89 Y147.68
G1 F2640 X145.14 Y147.42 E246.99239
G0 F12000 X145.87 Y147.14
G0 X146.16 Y139.87
G1 F2640 X148.18 Y137.85 E247.11116
G0 F12000 X147.47 Y137.85
G1 F2640 X146.16 Y139.16 E247.18836
G0 F12000 X146.16 Y138.46
G1 F2640 X146.76 Y137.85 E247.22399
G0 F12000 X146.16 Y137.57
G1 F2640 X147.15 Y136.57 E247.28270
G0 F12000 X147.33 Y136.57
G1 F2640 X146.76 Y136.79 E247.30847
G1 X146.18 Y137.01 E247.33408
G0 F12000 X147.60 Y137.01
G1 F2640 X148.17 Y136.79 E247.35973
G1 X148.74 Y136.57 E247.38508
G0 F12000 X148.92 Y136.57
G1 F2640 X146.99 Y138.50 E247.49832
G0 F12000 X149.02 Y137.01
G1 F2640 X149.45 Y136.57 E247.52369
;LAYER:16
G0 F12000 X149.82 Y136.54 Z3.40
;TYPE:WALL-INNER
G1 F2520 X149.82 Y138.78 E247.61690
G1 X145.98 Y138.78 E247.77634
G1 X145.98 Y136.33 E247.87832
G1 X151.54 Y136.32 E248.10956
G1 X151.71 Y136.34 E248.11658
G1 X151.82 Y136.37 E248.12150
G1 X151.95 Y136.43 E248.12729
G1 X152.08 Y136.54 E248.13421
G1 X151.06 Y136.54 E248.17674
G1 X149.82 Y136.54 E248.22829
G0 F12000 X150.32 Y137.04
;TYPE:WALL-OUTER
G1 F2520 X150.32 Y139.28 E248.32159
G1 X145.48 Y139.28 E248.52260
G1 X145.48 Y135.83 E248.66612
G1 X151.57 Y135.82 E248.91923
G1 X151.80 Y135.84 E248.92900
G1 X152.01 Y135.90 E248.93791
G1 X152.21 Y136.00 E248.94730
G1 X152.39 Y136.14 E248.95668
G1 X152.55 Y136.31 E248.96647
G1 X152.68 Y136.51 E248.97633
G1 X152.78 Y136.73 E248.98614
G1 X152.84 Y136.97 E248.99630
G1 X152.84 Y137.04 E248.99938
G1 X150.32 Y137.04 E249.10432
G0 F12000 X149.24 Y136.86
;TYPE:FILL
G1 F2520 X148.70 Y136.68 E249.12551
G1 X148.17 Y136.50 E249.14894
G0 F12000 X147.99 Y136.50
G1 F2520 X149.64 Y138.15 E249.24574
G0 F12000 X149.64 Y137.97
G1 F2520 X149.43 Y137.76 E249.25809
G0 F12000 X148.72 Y137.76
G1 F2520 X149.57 Y138.61 E249.30772
G0 F12000 X148.86 Y138.61
G1 F2520 X148.02 Y137.76 E249.35734
G0 F12000 X147.31 Y137.76
G1 F2520 X148.15 Y138.61 E249.40696
G0 F12000 X148.33 Y138.61
G1 F2520 X146.23 Y136.51 E249.53052
G0 F12000 X146.16 Y136.61
G1 F2520 X146.59 Y136.69 E249.54590
G1 X147.29 Y136.69 E249.56727
G1 X147.83 Y136.87 E249.59071
G0 F12000 X146.60 Y137.76
G1 F2520 X147.45 Y138.61 E249.64039
G0 F12000 X146.74 Y138.61
G1 F2520 X146.16 Y138.11 E249.67479
G1 X146.56 Y138.61 E249.70153
G1 F3600 E248.30153
G0 F12000 X145.98 Y141.52
;TYPE:WALL-INNER
G1 F3600 E249.70153
G1 F2520 X149.82 Y141.51 E249.86097
G1 X149.82 Y143.76 E249.95430
G1 X152.36 Y143.76 E250.05991
G1 X152.36 Y164.10 E250.90538
G1 X153.30 Y164.46 E250.94742
G1 X153.79 Y164.73 E250.97091
G1 X154.18 Y165.03 E250.99143
G1 X154.31 Y165.17 E250.99913
G1 X154.63 Y165.57 E251.02057
G1 X154.82 Y165.94 E251.03790
G1 X154.92 Y166.28 E251.05239
G1 X154.96 Y166.65 E251.06793
G1 X154.96 Y167.76 E251.11404
G1 X154.96 Y168.93 E251.16260
G1 X148.07 Y168.93 E251.44884
G1 X148.07 Y166.33 E251.55673
G1 X148.15 Y166.25 E251.56123
G1 X148.48 Y165.76 E251.58591
G1 X148.62 Y165.50 E251.59835
G1 X148.80 Y164.97 E251.62137
G1 X148.86 Y164.67 E251.63433
G1 X148.90 Y164.28 E251.65037
G1 X148.90 Y159.91 E251.83243
G1 X146.87 Y157.87 E251.95190
G1 X146.87 Y150.83 E252.24476
G1 X144.71 Y150.83 E252.33448
G1 X144.71 Y147.25 E252.48336
G1 X145.98 Y147.25 E252.53612
G1 X145.98 Y141.52 E252.77447
G0 F12000 X145.48 Y141.02
;TYPE:WALL-OUTER
G1 F2520 X150.32 Y141.01 E252.97548
G1 X150.32 Y143.26 E253.06882
G1 X152.86 Y143.26 E253.17442
G1 X152.86 Y163.75 E254.02638
G1 X153.51 Y164.00 E254.05535
G1 X153.77 Y164.13 E254.06744
G1 X154.07 Y164.31 E254.08233
G1 X154.52 Y164.66 E254.10600
G1 X154.69 Y164.83 E254.11561
G1 X155.03 Y165.27 E254.13900
G1 X155.09 Y165.35 E254.14309
G1 X155.29 Y165.77 E254.16232
G1 X155.41 Y166.18 E254.18006
G1 X155.46 Y166.62 E254.19849
G1 X155.46 Y169.43 E254.31523
G1 X147.57 Y169.43 E254.64305
G1 X147.57 Y166.13 E254.78009
G1 X147.76 Y165.94 E254.79123
G1 X148.05 Y165.50 E254.81294
G1 X148.16 Y165.30 E254.82267
G1 X148.32 Y164.84 E254.84283
G1 X148.37 Y164.60 E254.85285
G1 X148.40 Y164.26 E254.86740
G1 X148.40 Y160.11 E255.03964
G1 X146.37 Y158.08 E255.15915
G1 X146.37 Y151.33 E255.43978
G1 X144.21 Y151.33 E255.52950
G1 X144.21 Y146.75 E255.71995
G1 X145.48 Y146.75 E255.77271
G1 X145.48 Y141.02 E256.01106
G0 F12000 X146.16 Y141.74
;TYPE:FILL
G1 F2520 X152.18 Y147.76 E256.36534
G0 F12000 X152.18 Y145.99
G1 F2520 X150.12 Y143.94 E256.48637
G0 F12000 X149.64 Y143.45
G1 F2520 X147.88 Y141.69 E256.59003
G0 F12000 X147.70 Y141.69
G1 F2520 X148.55 Y142.54 E256.63974
G0 F12000 X147.84 Y142.54
G1 F2520 X146.99 Y141.69 E256.68945
G0 F12000 X146.29 Y141.69
G1 F2520 X147.13 Y142.54 E256.73919
G0 F12000 X146.43 Y142.54
G1 F2520 X146.16 Y142.27 E256.75507
G0 F12000 X146.16 Y143.50
G1 F2520 X152.18 Y149.53 E257.10937
G0 F12000 X152.18 Y151.30
G1 F2520 X146.16 Y145.27 E257.46368
G0 F12000 X146.16 Y147.04
G1 F2520 X152.18 Y153.06 E257.81799
G0 F12000 X152.18 Y154.83
G1 F2520 X144.89 Y147.54 E258.24690
G0 F12000 X144.89 Y149.31
G1 F2520 X146.23 Y150.65 E258.32616
G0 F12000 X147.04 Y151.46
G1 F2520 X152.18 Y156.60 E258.62817
G0 F12000 X152.18 Y158.37
G1 F2520 X147.04 Y153.23 E258.93017
G0 F12000 X147.04 Y155.00
G1 F2520 X152.18 Y160.14 E259.23221
G0 F12000 X152.18 Y161.90
G1 F2520 X147.04 Y156.77 E259.53425
G0 F12000 X149.08 Y160.57
G1 F2520 X152.18 Y163.67 E259.71681
G0 F12000 X152.78 Y164.44
G1 F2520 X154.76 Y166.42 E259.83325
G0 F12000 X154.72 Y166.21
G1 F2520 X153.06 Y164.55 E259.93044
G0 F12000 X154.07 Y166.44
G1 F2520 X154.78 Y167.16 E259.97219
G0 F12000 X154.09 Y167.17
G1 F2520 X154.78 Y167.86 E260.01267
G0 F12000 X154.78 Y168.04
G1 F2520 X149.08 Y162.33 E260.34810
G0 F12000 X149.08 Y164.10
G1 F2520 X153.72 Y168.75 E260.62145
G0 F12000 X154.09 Y168.59
G1 F2520 X154.52 Y168.66 E260.63100
G1 X154.09 Y167.88 E260.66792
G0 F12000 X151.96 Y168.75
G1 F2520 X148.78 Y165.57 E260.85500
G0 F12000 X148.25 Y166.81
G1 F2520 X150.19 Y168.75 E260.96928
G0 F12000 X148.42 Y168.75
G1 F2520 X148.25 Y168.57 E260.97959
G0 F12000 X152.18 Y144.23
G1 F2520 X151.89 Y143.94 E260.99670
G0 F12000 X149.93 Y143.65
G0 X149.64 Y142.22
G1 F2520 X149.12 Y141.69 E261.02760
G0 F12000 X148.41 Y141.69
G1 F2520 X149.25 Y142.54 E261.07731
;LAYER:17
G0 F12000 X149.82 Y141.87 Z3.60
;TYPE:WALL-INNER
G1 F2460 X149.82 Y143.85 E261.15967
G1 X151.62 Y143.85 E261.23488
G1 X152.36 Y143.85 E261.26527
G1 X152.36 Y164.05 E262.10501
G1 X153.45 Y164.45 E262.15343
G1 X153.95 Y164.73 E262.17726
G1 X154.34 Y165.04 E262.19801
G1 X154.48 Y165.17 E262.20580
G1 X154.82 Y165.61 E262.22897
G1 X154.98 Y165.94 E262.24437
G1 X155.08 Y166.28 E262.25886
G1 X155.11 Y166.65 E262.27440
G1 X155.11 Y167.84 E262.32391
G1 X155.11 Y168.93 E262.36902
G1 X148.02 Y168.93 E262.66388
G1 X148.02 Y166.39 E262.76948
G1 X148.30 Y166.06 E262.78727
G1 X148.50 Y165.72 E262.80368
G1 X148.80 Y164.99 E262.83654
G1 X148.86 Y164.67 E262.84996
G1 X148.90 Y164.28 E262.86625
G1 X148.90 Y159.91 E263.04823
G1 X146.87 Y157.87 E263.16770
G1 X146.87 Y150.83 E263.46056
G1 X144.71 Y150.83 E263.55028
G1 X144.71 Y147.25 E263.69916
G1 X145.98 Y147.25 E263.75192
G1 X145.98 Y141.87 E263.97547
G1 X149.82 Y141.87 E264.13491
G0 F12000 X150.32 Y141.37
;TYPE:WALL-OUTER
G1 F2460 X150.32 Y143.35 E264.21731
G1 X152.86 Y143.35 E264.32291
G1 X152.86 Y163.70 E265.16896
G1 X153.66 Y164.00 E265.20445
G1 X154.23 Y164.31 E265.23156
G1 X154.68 Y164.66 E265.25530
G1 X154.85 Y164.84 E265.26538
G1 X155.19 Y165.26 E265.28810
G1 X155.25 Y165.35 E265.29255
G1 X155.45 Y165.77 E265.31164
G1 X155.57 Y166.18 E265.32955
G1 X155.61 Y166.62 E265.34794
G1 X155.61 Y169.43 E265.46464
G1 X147.52 Y169.43 E265.80107
G1 X147.52 Y166.19 E265.93586
G1 X147.59 Y166.12 E265.94003
G1 X147.89 Y165.77 E265.95907
G1 X148.05 Y165.50 E265.97215
G1 X148.31 Y164.84 E266.00143
G1 X148.37 Y164.60 E266.01158
G1 X148.40 Y164.25 E266.02621
G1 X148.40 Y160.11 E266.19841
G1 X146.37 Y158.08 E266.31792
G1 X146.37 Y151.33 E266.59855
G1 X144.21 Y151.33 E266.68827
G1 X144.21 Y146.75 E266.87872
G1 X145.48 Y146.75 E266.93148
G1 X145.48 Y141.37 E267.15503
G1 X150.32 Y141.37 E267.35605
G0 F12000 X149.63 Y142.04
;TYPE:FILL
G1 F2460 X149.01 Y142.32 E267.38794
G1 X148.30 Y142.32 E267.41980
G1 X147.59 Y142.32 E267.45165
G1 X146.97 Y142.59 E267.47993
G0 F12000 X146.98 Y142.05
G1 F2460 X146.16 Y142.87 E267.52856
G0 F12000 X146.26 Y142.59
G1 F2460 X146.81 Y142.05 E267.56043
G0 F12000 X148.75 Y142.04
G1 F2460 X146.16 Y144.64 E267.71303
G0 F12000 X146.16 Y146.41
G1 F2460 X149.64 Y142.93 E267.91788
G0 F12000 X150.31 Y144.03
G1 F2460 X144.89 Y149.44 E268.23646
G0 F12000 X145.45 Y150.65
G1 F2460 X152.07 Y144.03 E268.62605
G0 F12000 X152.18 Y145.69
G1 F2460 X147.04 Y150.82 E268.92800
G0 F12000 X147.04 Y152.59
G1 F2460 X152.18 Y147.46 E269.22997
G0 F12000 X152.18 Y149.22
G1 F2460 X147.04 Y154.36 E269.53195
G0 F12000 X147.04 Y156.13
G1 F2460 X152.18 Y150.99 E269.83393
G0 F12000 X152.18 Y152.76
G1 F2460 X147.09 Y157.85 E270.13308
G0 F12000 X147.98 Y158.73
G1 F2460 X152.18 Y154.53 E270.38029
G0 F12000 X152.18 Y156.29
G1 F2460 X148.86 Y159.62 E270.57552
G0 F12000 X149.08 Y161.16
G1 F2460 X152.18 Y158.06 E270.75797
G0 F12000 X152.18 Y159.83
G1 F2460 X149.08 Y162.93 E270.94041
G0 F12000 X149.02 Y164.75
G1 F2460 X152.18 Y161.60 E271.12597
G0 F12000 X152.18 Y163.37
G1 F2460 X148.20 Y167.35 E271.36025
G0 F12000 X148.56 Y168.75
G1 F2460 X152.88 Y164.43 E271.61425
G0 F12000 X152.75 Y164.38
G1 F2460 X152.85 Y164.64 E271.62178
G1 X153.50 Y164.69 E271.63306
G1 X153.64 Y165.26 E271.64835
G1 X154.15 Y165.11 E271.67046
G0 F12000 X154.05 Y165.03
G1 F2460 X150.33 Y168.75 E271.88930
G0 F12000 X152.10 Y168.75
G1 F2460 X154.82 Y166.03 E272.04946
G0 F12000 X154.77 Y165.91
G1 F2460 X154.15 Y166.16 E272.08099
G1 X154.49 Y165.47 E272.11292
G0 F12000 X154.92 Y166.46
G1 F2460 X154.59 Y167.14 E272.15211
G1 X154.59 Y167.85 E272.19244
G1 X154.25 Y168.54 E272.22473
G0 F12000 X153.87 Y168.75
G1 F2460 X154.94 Y167.68 E272.28776
G0 F12000 X154.94 Y168.56
G1 F2460 X154.75 Y168.75 E272.29879
G0 F12000 X146.76 Y150.94
G0 X144.89 Y147.68
G1 F2460 X145.14 Y147.42 E272.31375
G1 F3600 E270.91375
G0 F12000 X145.98 Y138.43
;TYPE:WALL-INNER
G1 F3600 E272.31375
G1 F2460 X145.98 Y136.28 E272.40318
G1 X147.99 Y136.28 E272.48687
G1 X151.55 Y136.27 E272.63459
G1 X151.71 Y136.28 E272.64143
G1 X151.83 Y136.31 E272.64669
G1 X152.06 Y136.44 E272.65746
G1 X149.82 Y136.45 E272.75063
G1 X149.82 Y138.43 E272.83299
G1 X145.98 Y138.43 E272.99243
G0 F12000 X145.48 Y138.93
;TYPE:WALL-OUTER
G1 F2460 X145.48 Y135.78 E273.12339
G1 X151.57 Y135.77 E273.37650
G1 X151.80 Y135.79 E273.38627
G1 X152.01 Y135.84 E273.39523
G1 X152.25 Y135.97 E273.40637
G1 X152.40 Y136.08 E273.41406
G1 X152.55 Y136.23 E273.42311
G1 X152.68 Y136.43 E273.43303
G1 X152.78 Y136.65 E273.44284
G1 X152.84 Y136.89 E273.45311
G1 X152.84 Y136.94 E273.45549
G1 X150.32 Y136.95 E273.56043
G1 X150.32 Y138.93 E273.64279
G1 X145.48 Y138.93 E273.84381
G0 F12000 X146.36 Y138.25
;TYPE:FILL
G1 F2460 X146.98 Y137.98 E273.87570
G1 X147.69 Y137.98 E273.90756
G1 X148.40 Y137.98 E273.93942
G1 X149.01 Y137.98 E273.97133
G1 X149.64 Y137.71 E274.00838
G1 X149.19 Y138.25 E274.03780
G0 F12000 X149.27 Y136.75
G1 F2460 X149.58 Y136.45 E274.05588
G0 F12000 X149.05 Y136.45
G1 F2460 X147.24 Y138.25 E274.16207
G0 F12000 X146.16 Y137.57
G1 F2460 X147.28 Y136.45 E274.22798
G0 F12000 X147.45 Y136.45
G1 F2460 X146.95 Y136.60 E274.24583
G1 X146.44 Y136.75 E274.26770
G0 F12000 X147.86 Y136.75
G1 F2460 X148.36 Y136.60 E274.28560
G1 X148.87 Y136.45 E274.30767
;LAYER:18
G0 F12000 X149.69 Y136.22 Z3.80
;TYPE:WALL-INNER
G1 F2400 X151.55 Y136.22 E274.38471
G1 X151.71 Y136.23 E274.39156
G1 X151.84 Y136.27 E274.39725
G1 X151.96 Y136.32 E274.40241
G1 X152.00 Y136.35 E274.40450
G1 X149.82 Y136.35 E274.49514
G1 X149.82 Y138.20 E274.57197
G1 X145.98 Y138.20 E274.73141
G1 X145.98 Y136.22 E274.81360
G1 X149.69 Y136.22 E274.96797
G0 F12000 X150.32 Y136.85
;TYPE:WALL-OUTER
G1 F2400 X150.32 Y138.70 E275.04484
G1 X145.48 Y138.70 E275.24586
G1 X145.48 Y135.72 E275.36959
G1 X151.57 Y135.72 E275.62270
G1 X151.80 Y135.74 E275.63246
G1 X152.01 Y135.79 E275.64156
G1 X152.21 Y135.89 E275.65080
G1 X152.40 Y136.03 E275.66028
G1 X152.55 Y136.18 E275.66948
G1 X152.68 Y136.37 E275.67900
G1 X152.78 Y136.61 E275.68956
G1 X152.84 Y136.81 E275.69819
G1 X152.84 Y136.85 E275.69994
G1 X150.32 Y136.85 E275.80480
G0 F12000 X149.35 Y137.69
;TYPE:FILL
G1 F2400 X149.64 Y137.97 E275.82173
G0 F12000 X149.52 Y138.03
G1 F2400 X147.89 Y136.40 E275.91751
G0 F12000 X147.94 Y137.69
G1 F2400 X148.46 Y137.85 E275.93749
G1 X148.99 Y138.03 E275.96039
G0 F12000 X147.75 Y138.03
G1 F2400 X146.16 Y136.43 E276.05406
G0 F12000 X146.52 Y137.69
G1 F2400 X147.05 Y137.85 E276.07404
G1 X147.57 Y138.03 E276.09694
G1 F3600 E274.69694
G0 F12000 X145.98 Y142.10
;TYPE:WALL-INNER
G1 F3600 E276.09694
G1 F2400 X149.82 Y142.10 E276.25638
G1 X149.82 Y143.94 E276.33280
G1 X150.63 Y143.95 E276.36664
G1 X152.36 Y143.95 E276.43840
G1 X152.36 Y164.05 E277.27419
G1 X153.33 Y164.34 E277.31630
G1 X153.84 Y164.57 E277.33956
G1 X154.21 Y164.81 E277.35806
G1 X154.53 Y165.07 E277.37514
G1 X154.98 Y165.62 E277.40491
G1 X155.14 Y165.95 E277.41988
G1 X155.23 Y166.28 E277.43428
G1 X155.27 Y166.65 E277.44982
G1 X155.27 Y167.93 E277.50274
G1 X155.27 Y168.93 E277.54440
G1 X147.97 Y168.93 E277.84794
G1 X147.97 Y167.24 E277.91829
G1 X147.97 Y166.43 E277.95163
G1 X148.14 Y166.26 E277.96180
G1 X148.49 Y165.76 E277.98712
G1 X148.80 Y164.99 E278.02169
G1 X148.86 Y164.67 E278.03514
G1 X148.90 Y164.28 E278.05131
G1 X148.90 Y159.91 E278.23325
G1 X146.87 Y157.87 E278.35272
G1 X146.87 Y150.83 E278.64558
G1 X144.71 Y150.83 E278.73530
G1 X144.71 Y147.25 E278.88418
G1 X145.98 Y147.25 E278.93693
G1 X145.98 Y142.10 E279.15109
G0 F12000 X145.48 Y141.60
;TYPE:WALL-OUTER
G1 F2400 X150.32 Y141.60 E279.35210
G1 X150.32 Y143.44 E279.42881
G1 X150.63 Y143.45 E279.44199
G1 X152.86 Y143.45 E279.53441
G1 X152.86 Y163.68 E280.37548
G1 X153.50 Y163.87 E280.40358
G1 X154.08 Y164.13 E280.42980
G1 X154.50 Y164.41 E280.45094
G1 X154.87 Y164.69 E280.47009
G1 X155.01 Y164.84 E280.47885
G1 X155.41 Y165.36 E280.50595
G1 X155.61 Y165.77 E280.52488
G1 X155.73 Y166.18 E280.54266
G1 X155.77 Y166.62 E280.56105
G1 X155.77 Y169.43 E280.67771
G1 X147.47 Y169.43 E281.02283
G1 X147.47 Y166.23 E281.15587
G1 X147.76 Y165.94 E281.17280
G1 X148.04 Y165.52 E281.19393
G1 X148.32 Y164.84 E281.22432
G1 X148.37 Y164.60 E281.23442
G1 X148.37 Y164.52 E281.23793
G1 X148.40 Y164.25 E281.24905
G1 X148.40 Y160.11 E281.42118
G1 X146.37 Y158.08 E281.54068
G1 X146.37 Y151.33 E281.82131
G1 X144.21 Y151.33 E281.91103
G1 X144.21 Y146.75 E282.10149
G1 X145.48 Y146.75 E282.15425
G1 X145.48 Y141.60 E282.36840
G0 F12000 X146.16 Y142.27
;TYPE:FILL
G1 F2400 X146.50 Y142.61 E282.38833
G0 F12000 X146.69 Y142.27
G1 F2400 X152.18 Y147.76 E282.71100
G0 F12000 X152.18 Y149.53
G1 F2400 X146.16 Y143.50 E283.06528
G0 F12000 X147.21 Y142.61
G1 F2400 X147.22 Y142.27 E283.08522
G1 X148.10 Y142.44 E283.10513
G1 X148.62 Y142.61 E283.12803
G0 F12000 X148.46 Y142.27
G1 F2400 X149.64 Y143.45 E283.19738
G0 F12000 X149.33 Y142.61
G1 F2400 X148.99 Y142.27 E283.21734
