
TRAORI
G1 Z = 435 F1500
G1 X=-1.299 Y=154.950
TRACON
F 1500
G1 Z=236.6
G1 X=0 Y=0 
ORIRESET
G645 ;SMOOTH CORNERS
CYCLE832(0.1,_FINISH,1)
ORIVECT
MSG("Check: Extruder ready?")
M0
MSG("Printing")
G54
;FLAVOR:Repetier

;TIME:579

;Generated with Cura_SteamEngine 4.0.0

 
 
 
 ;Home
 G1 Z15.0 F6000 ;Movetheplatformdown15mm
;Prime the extruder

 
 G1 EXT=IC( 3.0 ) F200 
 
 
 G1 EXT=IC( -6.5 ) F1500 
;LAYER_COUNT:10

;LAYER:0

 
 G0 X-13.644 Y-15.227 Z0.3 F3600 
;TYPE:SKIRT

 G1 EXT=IC( 6.5 ) F1500 
 G1 X-12.066 Y-20.124 EXT=IC( 0.257 ) F1200 
 G1 X-11.731 Y-20.969 EXT=IC( 0.045 ) 
 G1 X-11.213 Y-22.054 EXT=IC( 0.06 ) 
 G1 X-10.859 Y-22.701 EXT=IC( 0.037 ) 
 G1 X-10.344 Y-23.424 EXT=IC( 0.044 ) 
 G1 X-9.922 Y-23.941 EXT=IC( 0.033 ) 
 G1 X-9.425 Y-24.486 EXT=IC( 0.037 ) 
 G1 X-8.873 Y-24.974 EXT=IC( 0.037 ) 
 G1 X-8.241 Y-25.418 EXT=IC( 0.039 ) 
 G1 X-4.842 Y-27.528 EXT=IC( 0.2 ) 
 G1 X-.332 Y-30.558 EXT=IC( 0.271 ) 
 G1 X1.959 Y-32.228 EXT=IC( 0.141 ) 
 G1 X2.577 Y-32.63 EXT=IC( 0.037 ) 
 G1 X2.944 Y-32.825 EXT=IC( 0.021 ) 
 G1 X3.412 Y-33.057 EXT=IC( 0.026 ) 
 G1 X4.089 Y-33.349 EXT=IC( 0.037 ) 
 G1 X4.794 Y-33.565 EXT=IC( 0.037 ) 
 G1 X5.369 Y-33.681 EXT=IC( 0.029 ) 
 G1 X6.279 Y-33.825 EXT=IC( 0.046 ) 
 G1 X7.013 Y-33.901 EXT=IC( 0.037 ) 
 G1 X7.75 Y-33.897 EXT=IC( 0.037 ) 
 G1 X8.422 Y-33.823 EXT=IC( 0.034 ) 
 G1 X9.019 Y-33.727 EXT=IC( 0.03 ) 
 G1 X9.739 Y-33.57 EXT=IC( 0.037 ) 
 G1 X10.438 Y-33.337 EXT=IC( 0.037 ) 
 G1 X11.108 Y-33.029 EXT=IC( 0.037 ) 
 G1 X12.019 Y-32.453 EXT=IC( 0.054 ) 
 G1 X12.415 Y-32.156 EXT=IC( 0.025 ) 
 G1 X12.98 Y-31.682 EXT=IC( 0.037 ) 
 G1 X13.49 Y-31.15 EXT=IC( 0.037 ) 
 G1 X13.94 Y-30.566 EXT=IC( 0.037 ) 
 G1 X14.324 Y-29.937 EXT=IC( 0.037 ) 
 G1 X14.637 Y-29.269 EXT=IC( 0.037 ) 
 G1 X14.9 Y-28.489 EXT=IC( 0.041 ) 
 G1 X15.839 Y-25.011 EXT=IC( 0.18 ) 
 G1 X17.455 Y-19.964 EXT=IC( 0.264 ) 
 G1 X19.513 Y-14.583 EXT=IC( 0.287 ) 
 G1 X19.764 Y-13.783 EXT=IC( 0.042 ) 
 G1 X20.099 Y-12.425 EXT=IC( 0.07 ) 
 G1 X20.261 Y-11.499 EXT=IC( 0.047 ) 
 G1 X20.581 Y-8.422 EXT=IC( 0.154 ) 
 G1 X20.617 Y-7.66 EXT=IC( 0.038 ) 
 G1 X20.608 Y-6.624 EXT=IC( 0.052 ) 
 G1 X20.538 Y-5.712 EXT=IC( 0.046 ) 
 G1 X20.365 Y-4.513 EXT=IC( 0.06 ) 
 G1 X20.15 Y-3.537 EXT=IC( 0.05 ) 
 G1 X19.632 Y-1.804 EXT=IC( 0.09 ) 
 G1 X19.383 Y-1.11 EXT=IC( 0.037 ) 
 G1 X19.221 Y-.754 EXT=IC( 0.02 ) 
 G1 X18.697 Y0.313 EXT=IC( 0.059 ) 
 G1 X18.322 Y0.979 EXT=IC( 0.038 ) 
 G1 X15.241 Y5.798 EXT=IC( 0.285 ) 
 G1 X12.609 Y10.463 EXT=IC( 0.267 ) 
 G1 X11.264 Y13.041 EXT=IC( 0.145 ) 
 G1 X10.888 Y13.675 EXT=IC( 0.037 ) 
 G1 X10.377 Y14.346 EXT=IC( 0.042 ) 
 G1 X10.197 Y14.554 EXT=IC( 0.014 ) 
 G1 X9.685 Y15.084 EXT=IC( 0.037 ) 
 G1 X9.119 Y15.556 EXT=IC( 0.037 ) 
 G1 X8.253 Y16.105 EXT=IC( 0.051 ) 
 G1 X7.872 Y16.308 EXT=IC( 0.022 ) 
 G1 X7.203 Y16.619 EXT=IC( 0.037 ) 
 G1 X6.505 Y16.856 EXT=IC( 0.037 ) 
 G1 X5.423 Y17.066 EXT=IC( 0.055 ) 
 G1 X1.629 Y17.486 EXT=IC( 0.19 ) 
 G1 X-3.664 Y18.323 EXT=IC( 0.267 ) 
 G1 X-8.425 Y19.303 EXT=IC( 0.243 ) 
 G1 X-9.154 Y19.413 EXT=IC( 0.037 ) 
 G1 X-9.891 Y19.442 EXT=IC( 0.037 ) 
 G1 X-10.627 Y19.392 EXT=IC( 0.037 ) 
 G1 X-11.353 Y19.262 EXT=IC( 0.037 ) 
 G1 X-11.963 Y19.088 EXT=IC( 0.032 ) 
 G1 X-12.076 Y19.05 EXT=IC( 0.006 ) 
 G1 X-12.762 Y18.778 EXT=IC( 0.037 ) 
 G1 X-13.413 Y18.433 EXT=IC( 0.037 ) 
 G1 X-14.023 Y18.019 EXT=IC( 0.037 ) 
 G1 X-14.585 Y17.542 EXT=IC( 0.037 ) 
 G1 X-15.092 Y17.006 EXT=IC( 0.037 ) 
 G1 X-15.538 Y16.419 EXT=IC( 0.037 ) 
 G1 X-16.076 Y15.469 EXT=IC( 0.054 ) 
 G1 X-16.187 Y15.23 EXT=IC( 0.013 ) 
 G1 X-16.461 Y14.546 EXT=IC( 0.037 ) 
 G1 X-16.659 Y13.836 EXT=IC( 0.037 ) 
 G1 X-16.779 Y13.108 EXT=IC( 0.037 ) 
 G1 X-16.82 Y12.372 EXT=IC( 0.037 ) 
 G1 X-16.77 Y11.546 EXT=IC( 0.041 ) 
 G1 X-16.413 Y8.606 EXT=IC( 0.148 ) 
 G1 X-15.975 Y3.288 EXT=IC( 0.266 ) 
 G1 X-15.84 Y-2.002 EXT=IC( 0.264 ) 
 G1 X-15.97 Y-6.978 EXT=IC( 0.248 ) 
 G1 X-15.931 Y-7.905 EXT=IC( 0.046 ) 
 G1 X-15.863 Y-8.519 EXT=IC( 0.031 ) 
 G1 X-15.742 Y-9.246 EXT=IC( 0.037 ) 
 G1 X-15.501 Y-10.077 EXT=IC( 0.043 ) 
 G1 X-13.644 Y-15.227 EXT=IC( 0.273 ) 
 G0 X-13.278 Y-15.06 F3600 
 G1 X-11.686 Y-20.001 EXT=IC( 0.259 ) F1200 
 G1 X-11.37 Y-20.796 EXT=IC( 0.043 ) 
 G1 X-10.852 Y-21.881 EXT=IC( 0.06 ) 
 G1 X-10.508 Y-22.509 EXT=IC( 0.036 ) 
 G1 X-10.034 Y-23.171 EXT=IC( 0.041 ) 
 G1 X-9.612 Y-23.688 EXT=IC( 0.033 ) 
 G1 X-9.129 Y-24.216 EXT=IC( 0.036 ) 
 G1 X-8.591 Y-24.687 EXT=IC( 0.036 ) 
 G1 X-8.03 Y-25.078 EXT=IC( 0.034 ) 
 G1 X-4.63 Y-27.189 EXT=IC( 0.2 ) 
 G1 X-.113 Y-30.223 EXT=IC( 0.271 ) 
 G1 X2.194 Y-31.905 EXT=IC( 0.142 ) 
 G1 X2.795 Y-32.293 EXT=IC( 0.036 ) 
 G1 X3.121 Y-32.467 EXT=IC( 0.018 ) 
 G1 X3.589 Y-32.699 EXT=IC( 0.026 ) 
 G1 X4.247 Y-32.98 EXT=IC( 0.036 ) 
 G1 X4.932 Y-33.187 EXT=IC( 0.036 ) 
 G1 X5.432 Y-33.286 EXT=IC( 0.025 ) 
 G1 X6.342 Y-33.43 EXT=IC( 0.046 ) 
 G1 X7.053 Y-33.502 EXT=IC( 0.036 ) 
 G1 X7.769 Y-33.495 EXT=IC( 0.036 ) 
 G1 X8.358 Y-33.428 EXT=IC( 0.03 ) 
 G1 X8.955 Y-33.332 EXT=IC( 0.03 ) 
 G1 X9.654 Y-33.179 EXT=IC( 0.036 ) 
 G1 X10.331 Y-32.949 EXT=IC( 0.036 ) 
 G1 X10.979 Y-32.645 EXT=IC( 0.036 ) 
 G1 X11.779 Y-32.133 EXT=IC( 0.047 ) 
 G1 X12.175 Y-31.836 EXT=IC( 0.025 ) 
 G1 X12.722 Y-31.376 EXT=IC( 0.036 ) 
 G1 X13.215 Y-30.857 EXT=IC( 0.036 ) 
 G1 X13.646 Y-30.286 EXT=IC( 0.036 ) 
 G1 X14.012 Y-29.672 EXT=IC( 0.036 ) 
 G1 X14.306 Y-29.02 EXT=IC( 0.036 ) 
 G1 X14.514 Y-28.384 EXT=IC( 0.033 ) 
 G1 X15.455 Y-24.898 EXT=IC( 0.18 ) 
 G1 X17.072 Y-19.848 EXT=IC( 0.265 ) 
 G1 X19.14 Y-14.441 EXT=IC( 0.289 ) 
 G1 X19.376 Y-13.687 EXT=IC( 0.039 ) 
 G1 X19.711 Y-12.329 EXT=IC( 0.07 ) 
 G1 X19.863 Y-11.458 EXT=IC( 0.044 ) 
 G1 X20.183 Y-8.381 EXT=IC( 0.154 ) 
 G1 X20.217 Y-7.663 EXT=IC( 0.036 ) 
 G1 X20.208 Y-6.627 EXT=IC( 0.052 ) 
 G1 X20.142 Y-5.769 EXT=IC( 0.043 ) 
 G1 X19.969 Y-4.57 EXT=IC( 0.06 ) 
 G1 X19.767 Y-3.651 EXT=IC( 0.047 ) 
 G1 X19.249 Y-1.918 EXT=IC( 0.09 ) 
 G1 X18.862 Y-.93 EXT=IC( 0.053 ) 
 G1 X18.338 Y0.137 EXT=IC( 0.059 ) 
 G1 X17.985 Y0.763 EXT=IC( 0.036 ) 
 G1 X14.902 Y5.586 EXT=IC( 0.286 ) 
 G1 X12.251 Y10.283 EXT=IC( 0.269 ) 
 G1 X10.909 Y12.856 EXT=IC( 0.145 ) 
 G1 X10.544 Y13.471 EXT=IC( 0.036 ) 
 G1 X10.074 Y14.084 EXT=IC( 0.039 ) 
 G1 X9.894 Y14.292 EXT=IC( 0.014 ) 
 G1 X9.397 Y14.806 EXT=IC( 0.036 ) 
 G1 X8.845 Y15.261 EXT=IC( 0.036 ) 
 G1 X8.064 Y15.752 EXT=IC( 0.046 ) 
 G1 X7.683 Y15.955 EXT=IC( 0.022 ) 
 G1 X7.034 Y16.256 EXT=IC( 0.036 ) 
 G1 X6.356 Y16.482 EXT=IC( 0.036 ) 
 G1 X5.379 Y16.668 EXT=IC( 0.05 ) 
 G1 X1.585 Y17.088 EXT=IC( 0.19 ) 
 G1 X-3.721 Y17.927 EXT=IC( 0.268 ) 
 G1 X-8.506 Y18.912 EXT=IC( 0.244 ) 
 G1 X-9.213 Y19.016 EXT=IC( 0.036 ) 
 G1 X-9.928 Y19.042 EXT=IC( 0.036 ) 
 G1 X-10.641 Y18.987 EXT=IC( 0.036 ) 
 G1 X-11.344 Y18.853 EXT=IC( 0.036 ) 
 G1 X-11.836 Y18.709 EXT=IC( 0.026 ) 
 G1 X-11.949 Y18.671 EXT=IC( 0.006 ) 
 G1 X-12.613 Y18.406 EXT=IC( 0.036 ) 
 G1 X-13.243 Y18.068 EXT=IC( 0.036 ) 
 G1 X-13.832 Y17.662 EXT=IC( 0.036 ) 
 G1 X-14.372 Y17.192 EXT=IC( 0.036 ) 
 G1 X-14.856 Y16.666 EXT=IC( 0.036 ) 
 G1 X-15.278 Y16.088 EXT=IC( 0.036 ) 
 G1 X-15.714 Y15.301 EXT=IC( 0.045 ) 
 G1 X-15.825 Y15.062 EXT=IC( 0.013 ) 
 G1 X-16.089 Y14.397 EXT=IC( 0.036 ) 
 G1 X-16.278 Y13.707 EXT=IC( 0.036 ) 
 G1 X-16.388 Y13.001 EXT=IC( 0.036 ) 
 G1 X-16.42 Y12.286 EXT=IC( 0.036 ) 
 G1 X-16.373 Y11.594 EXT=IC( 0.035 ) 
 G1 X-16.013 Y8.634 EXT=IC( 0.149 ) 
 G1 X-15.576 Y3.314 EXT=IC( 0.266 ) 
 G1 X-15.439 Y-2.006 EXT=IC( 0.265 ) 
 G1 X-15.57 Y-6.988 EXT=IC( 0.249 ) 
 G1 X-15.533 Y-7.86 EXT=IC( 0.044 ) 
 G1 X-15.465 Y-8.474 EXT=IC( 0.031 ) 
 G1 X-15.347 Y-9.18 EXT=IC( 0.036 ) 
 G1 X-15.124 Y-9.941 EXT=IC( 0.04 ) 
 G1 X-13.278 Y-15.06 EXT=IC( 0.271 ) 
 G0 X-12.894 Y-14.946 F3600 
 G1 X-11.305 Y-19.879 EXT=IC( 0.259 ) F1200 
 G1 X-11.009 Y-20.624 EXT=IC( 0.04 ) 
 G1 X-10.491 Y-21.709 EXT=IC( 0.06 ) 
 G1 X-10.157 Y-22.316 EXT=IC( 0.035 ) 
 G1 X-9.724 Y-22.918 EXT=IC( 0.037 ) 
 G1 X-9.302 Y-23.435 EXT=IC( 0.033 ) 
 G1 X-8.834 Y-23.945 EXT=IC( 0.035 ) 
 G1 X-8.31 Y-24.398 EXT=IC( 0.035 ) 
 G1 X-7.819 Y-24.738 EXT=IC( 0.03 ) 
 G1 X-4.418 Y-26.85 EXT=IC( 0.2 ) 
 G1 X0.118 Y-29.897 EXT=IC( 0.273 ) 
 G1 X2.43 Y-31.582 EXT=IC( 0.143 ) 
 G1 X3.299 Y-32.109 EXT=IC( 0.051 ) 
 G1 X3.767 Y-32.341 EXT=IC( 0.026 ) 
 G1 X4.404 Y-32.612 EXT=IC( 0.035 ) 
 G1 X5.069 Y-32.808 EXT=IC( 0.035 ) 
 G1 X5.494 Y-32.891 EXT=IC( 0.022 ) 
 G1 X6.404 Y-33.035 EXT=IC( 0.046 ) 
 G1 X7.093 Y-33.104 EXT=IC( 0.035 ) 
 G1 X7.786 Y-33.093 EXT=IC( 0.035 ) 
 G1 X8.295 Y-33.033 EXT=IC( 0.026 ) 
 G1 X8.892 Y-32.937 EXT=IC( 0.03 ) 
 G1 X9.568 Y-32.788 EXT=IC( 0.035 ) 
 G1 X10.222 Y-32.562 EXT=IC( 0.035 ) 
 G1 X10.847 Y-32.261 EXT=IC( 0.035 ) 
 G1 X11.539 Y-31.813 EXT=IC( 0.041 ) 
 G1 X11.935 Y-31.516 EXT=IC( 0.025 ) 
 G1 X12.464 Y-31.069 EXT=IC( 0.035 ) 
 G1 X12.938 Y-30.564 EXT=IC( 0.035 ) 
 G1 X13.351 Y-30.008 EXT=IC( 0.035 ) 
 G1 X13.697 Y-29.408 EXT=IC( 0.035 ) 
 G1 X13.972 Y-28.773 EXT=IC( 0.035 ) 
 G1 X14.128 Y-28.28 EXT=IC( 0.026 ) 
 G1 X15.074 Y-24.778 EXT=IC( 0.181 ) 
 G1 X16.696 Y-19.709 EXT=IC( 0.266 ) 
 G1 X18.766 Y-14.298 EXT=IC( 0.289 ) 
 G1 X18.987 Y-13.591 EXT=IC( 0.037 ) 
 G1 X19.322 Y-12.233 EXT=IC( 0.07 ) 
 G1 X19.465 Y-11.417 EXT=IC( 0.041 ) 
 G1 X19.785 Y-8.34 EXT=IC( 0.154 ) 
 G1 X19.817 Y-7.667 EXT=IC( 0.034 ) 
 G1 X19.808 Y-6.631 EXT=IC( 0.052 ) 
 G1 X19.747 Y-5.826 EXT=IC( 0.04 ) 
 G1 X19.574 Y-4.627 EXT=IC( 0.06 ) 
 G1 X19.384 Y-3.766 EXT=IC( 0.044 ) 
 G1 X18.866 Y-2.033 EXT=IC( 0.09 ) 
 G1 X18.503 Y-1.106 EXT=IC( 0.05 ) 
 G1 X17.979 Y-0.039 EXT=IC( 0.059 ) 
 G1 X17.648 Y0.548 EXT=IC( 0.034 ) 
 G1 X14.558 Y5.382 EXT=IC( 0.286 ) 
 G1 X11.907 Y10.08 EXT=IC( 0.269 ) 
 G1 X10.555 Y12.671 EXT=IC( 0.146 ) 
 G1 X10.199 Y13.266 EXT=IC( 0.035 ) 
 G1 X9.772 Y13.822 EXT=IC( 0.035 ) 
 G1 X9.592 Y14.03 EXT=IC( 0.014 ) 
 G1 X9.109 Y14.527 EXT=IC( 0.035 ) 
 G1 X8.573 Y14.965 EXT=IC( 0.035 ) 
 G1 X7.876 Y15.399 EXT=IC( 0.041 ) 
 G1 X7.495 Y15.602 EXT=IC( 0.022 ) 
 G1 X6.866 Y15.892 EXT=IC( 0.035 ) 
 G1 X6.208 Y16.108 EXT=IC( 0.035 ) 
 G1 X5.335 Y16.27 EXT=IC( 0.044 ) 
 G1 X1.523 Y16.692 EXT=IC( 0.191 ) 
 G1 X-3.781 Y17.531 EXT=IC( 0.268 ) 
 G1 X-8.587 Y18.52 EXT=IC( 0.245 ) 
 G1 X-9.272 Y18.62 EXT=IC( 0.035 ) 
 G1 X-9.964 Y18.641 EXT=IC( 0.035 ) 
 G1 X-10.654 Y18.581 EXT=IC( 0.035 ) 
 G1 X-11.333 Y18.443 EXT=IC( 0.035 ) 
 G1 X-11.708 Y18.33 EXT=IC( 0.02 ) 
 G1 X-11.821 Y18.292 EXT=IC( 0.006 ) 
 G1 X-12.464 Y18.034 EXT=IC( 0.035 ) 
 G1 X-13.073 Y17.703 EXT=IC( 0.035 ) 
 G1 X-13.639 Y17.305 EXT=IC( 0.035 ) 
 G1 X-14.156 Y16.844 EXT=IC( 0.035 ) 
 G1 X-14.616 Y16.326 EXT=IC( 0.035 ) 
 G1 X-15.013 Y15.759 EXT=IC( 0.035 ) 
 G1 X-15.351 Y15.132 EXT=IC( 0.036 ) 
 G1 X-15.462 Y14.893 EXT=IC( 0.013 ) 
 G1 X-15.717 Y14.249 EXT=IC( 0.035 ) 
 G1 X-15.896 Y13.58 EXT=IC( 0.035 ) 
 G1 X-15.997 Y12.895 EXT=IC( 0.035 ) 
 G1 X-16.018 Y12.203 EXT=IC( 0.035 ) 
 G1 X-15.976 Y11.643 EXT=IC( 0.028 ) 
 G1 X-15.617 Y8.691 EXT=IC( 0.148 ) 
 G1 X-15.176 Y3.322 EXT=IC( 0.269 ) 
 G1 X-15.039 Y-2.006 EXT=IC( 0.266 ) 
 G1 X-15.17 Y-6.999 EXT=IC( 0.249 ) 
 G1 X-15.136 Y-7.816 EXT=IC( 0.041 ) 
 G1 X-15.068 Y-8.43 EXT=IC( 0.031 ) 
 G1 X-14.952 Y-9.113 EXT=IC( 0.035 ) 
 G1 X-14.748 Y-9.806 EXT=IC( 0.036 ) 
 G1 X-12.894 Y-14.946 EXT=IC( 0.273 ) 
 G0 X-12.511 Y-14.831 F3600 
 G1 X-10.924 Y-19.756 EXT=IC( 0.258 ) F1200 
 G1 X-10.648 Y-20.452 EXT=IC( 0.037 ) 
 G1 X-10.13 Y-21.537 EXT=IC( 0.06 ) 
 G1 X-9.806 Y-22.122 EXT=IC( 0.033 ) 
 G1 X-9.414 Y-22.665 EXT=IC( 0.033 ) 
 G1 X-8.992 Y-23.182 EXT=IC( 0.033 ) 
 G1 X-8.539 Y-23.674 EXT=IC( 0.033 ) 
 G1 X-8.03 Y-24.109 EXT=IC( 0.033 ) 
 G1 X-7.608 Y-24.399 EXT=IC( 0.026 ) 
 G1 X-4.166 Y-26.536 EXT=IC( 0.202 ) 
 G1 X0.332 Y-29.558 EXT=IC( 0.27 ) 
 G1 X2.666 Y-31.259 EXT=IC( 0.144 ) 
 G1 X3.477 Y-31.75 EXT=IC( 0.047 ) 
 G1 X3.945 Y-31.982 EXT=IC( 0.026 ) 
 G1 X4.561 Y-32.243 EXT=IC( 0.033 ) 
 G1 X5.204 Y-32.429 EXT=IC( 0.033 ) 
 G1 X5.557 Y-32.496 EXT=IC( 0.018 ) 
 G1 X6.467 Y-32.64 EXT=IC( 0.046 ) 
 G1 X7.133 Y-32.705 EXT=IC( 0.033 ) 
 G1 X7.801 Y-32.69 EXT=IC( 0.033 ) 
 G1 X8.231 Y-32.638 EXT=IC( 0.022 ) 
 G1 X8.828 Y-32.542 EXT=IC( 0.03 ) 
 G1 X9.481 Y-32.396 EXT=IC( 0.033 ) 
 G1 X10.112 Y-32.174 EXT=IC( 0.033 ) 
 G1 X10.712 Y-31.878 EXT=IC( 0.033 ) 
 G1 X11.299 Y-31.493 EXT=IC( 0.035 ) 
 G1 X11.695 Y-31.196 EXT=IC( 0.025 ) 
 G1 X12.205 Y-30.763 EXT=IC( 0.033 ) 
 G1 X12.66 Y-30.273 EXT=IC( 0.033 ) 
 G1 X13.054 Y-29.732 EXT=IC( 0.033 ) 
 G1 X13.38 Y-29.147 EXT=IC( 0.033 ) 
 G1 X13.634 Y-28.528 EXT=IC( 0.033 ) 
 G1 X13.741 Y-28.176 EXT=IC( 0.018 ) 
 G1 X14.685 Y-24.679 EXT=IC( 0.181 ) 
 G1 X16.32 Y-19.571 EXT=IC( 0.268 ) 
 G1 X18.392 Y-14.155 EXT=IC( 0.289 ) 
 G1 X18.599 Y-13.495 EXT=IC( 0.035 ) 
 G1 X18.934 Y-12.137 EXT=IC( 0.07 ) 
 G1 X19.067 Y-11.375 EXT=IC( 0.039 ) 
 G1 X19.387 Y-8.298 EXT=IC( 0.154 ) 
 G1 X19.417 Y-7.67 EXT=IC( 0.031 ) 
 G1 X19.408 Y-6.634 EXT=IC( 0.052 ) 
 G1 X19.351 Y-5.883 EXT=IC( 0.038 ) 
 G1 X19.178 Y-4.684 EXT=IC( 0.06 ) 
 G1 X19 Y-3.88 EXT=IC( 0.041 ) 
 G1 X18.482 Y-2.147 EXT=IC( 0.09 ) 
 G1 X18.144 Y-1.282 EXT=IC( 0.046 ) 
 G1 X17.62 Y-.215 EXT=IC( 0.059 ) 
 G1 X17.311 Y0.332 EXT=IC( 0.031 ) 
 G1 X14.214 Y5.175 EXT=IC( 0.287 ) 
 G1 X11.554 Y9.89 EXT=IC( 0.27 ) 
 G1 X10.2 Y12.486 EXT=IC( 0.146 ) 
 G1 X9.856 Y13.06 EXT=IC( 0.033 ) 
 G1 X9.47 Y13.561 EXT=IC( 0.032 ) 
 G1 X9.29 Y13.769 EXT=IC( 0.014 ) 
 G1 X8.822 Y14.247 EXT=IC( 0.033 ) 
 G1 X8.301 Y14.667 EXT=IC( 0.033 ) 
 G1 X7.688 Y15.046 EXT=IC( 0.036 ) 
 G1 X7.307 Y15.249 EXT=IC( 0.022 ) 
 G1 X6.699 Y15.528 EXT=IC( 0.033 ) 
 G1 X6.062 Y15.732 EXT=IC( 0.033 ) 
 G1 X5.291 Y15.873 EXT=IC( 0.039 ) 
 G1 X1.458 Y16.298 EXT=IC( 0.192 ) 
 G1 X-3.854 Y17.138 EXT=IC( 0.268 ) 
 G1 X-8.667 Y18.128 EXT=IC( 0.245 ) 
 G1 X-9.329 Y18.224 EXT=IC( 0.033 ) 
 G1 X-9.998 Y18.239 EXT=IC( 0.033 ) 
 G1 X-10.664 Y18.175 EXT=IC( 0.033 ) 
 G1 X-11.581 Y17.951 EXT=IC( 0.047 ) 
 G1 X-11.694 Y17.913 EXT=IC( 0.006 ) 
 G1 X-12.314 Y17.662 EXT=IC( 0.033 ) 
 G1 X-12.9 Y17.339 EXT=IC( 0.033 ) 
 G1 X-13.443 Y16.949 EXT=IC( 0.033 ) 
 G1 X-13.936 Y16.496 EXT=IC( 0.033 ) 
 G1 X-14.372 Y15.988 EXT=IC( 0.033 ) 
 G1 X-14.743 Y15.432 EXT=IC( 0.033 ) 
 G1 X-14.988 Y14.964 EXT=IC( 0.026 ) 
 G1 X-15.099 Y14.725 EXT=IC( 0.013 ) 
 G1 X-15.344 Y14.102 EXT=IC( 0.033 ) 
 G1 X-15.513 Y13.455 EXT=IC( 0.033 ) 
 G1 X-15.604 Y12.792 EXT=IC( 0.033 ) 
 G1 X-15.615 Y12.123 EXT=IC( 0.033 ) 
 G1 X-15.579 Y11.691 EXT=IC( 0.022 ) 
 G1 X-15.218 Y8.72 EXT=IC( 0.149 ) 
 G1 X-14.776 Y3.347 EXT=IC( 0.269 ) 
 G1 X-14.639 Y-2.006 EXT=IC( 0.267 ) 
 G1 X-14.77 Y-7.009 EXT=IC( 0.25 ) 
 G1 X-14.738 Y-7.772 EXT=IC( 0.038 ) 
 G1 X-14.67 Y-8.386 EXT=IC( 0.031 ) 
 G1 X-14.557 Y-9.046 EXT=IC( 0.033 ) 
 G1 X-14.372 Y-9.67 EXT=IC( 0.032 ) 
 G1 X-12.511 Y-14.831 EXT=IC( 0.274 ) 
 G0 X-12.136 Y-14.69 F3600 
 G1 X-10.544 Y-19.633 EXT=IC( 0.259 ) F1200 
 G1 X-10.287 Y-20.279 EXT=IC( 0.035 ) 
 G1 X-9.769 Y-21.364 EXT=IC( 0.06 ) 
 G1 X-9.455 Y-21.928 EXT=IC( 0.032 ) 
 G1 X-9.104 Y-22.412 EXT=IC( 0.03 ) 
 G1 X-8.682 Y-22.929 EXT=IC( 0.033 ) 
 G1 X-8.245 Y-23.402 EXT=IC( 0.032 ) 
 G1 X-7.752 Y-23.818 EXT=IC( 0.032 ) 
 G1 X-7.397 Y-24.059 EXT=IC( 0.021 ) 
 G1 X-3.954 Y-26.197 EXT=IC( 0.202 ) 
 G1 X0.568 Y-29.234 EXT=IC( 0.272 ) 
 G1 X2.901 Y-30.935 EXT=IC( 0.144 ) 
 G1 X3.654 Y-31.392 EXT=IC( 0.044 ) 
 G1 X4.122 Y-31.624 EXT=IC( 0.026 ) 
 G1 X4.717 Y-31.874 EXT=IC( 0.032 ) 
 G1 X5.619 Y-32.101 EXT=IC( 0.046 ) 
 G1 X6.529 Y-32.245 EXT=IC( 0.046 ) 
 G1 X7.171 Y-32.306 EXT=IC( 0.032 ) 
 G1 X7.815 Y-32.287 EXT=IC( 0.032 ) 
 G1 X8.168 Y-32.243 EXT=IC( 0.018 ) 
 G1 X8.765 Y-32.147 EXT=IC( 0.03 ) 
 G1 X9.394 Y-32.005 EXT=IC( 0.032 ) 
 G1 X10 Y-31.787 EXT=IC( 0.032 ) 
 G1 X10.575 Y-31.495 EXT=IC( 0.032 ) 
 G1 X11.059 Y-31.173 EXT=IC( 0.029 ) 
 G1 X11.455 Y-30.876 EXT=IC( 0.025 ) 
 G1 X11.946 Y-30.458 EXT=IC( 0.032 ) 
 G1 X12.381 Y-29.982 EXT=IC( 0.032 ) 
 G1 X12.754 Y-29.457 EXT=IC( 0.032 ) 
 G1 X13.059 Y-28.889 EXT=IC( 0.032 ) 
 G1 X13.355 Y-28.072 EXT=IC( 0.043 ) 
 G1 X14.303 Y-24.56 EXT=IC( 0.181 ) 
 G1 X15.94 Y-19.448 EXT=IC( 0.268 ) 
 G1 X18.019 Y-14.012 EXT=IC( 0.29 ) 
 G1 X18.211 Y-13.399 EXT=IC( 0.032 ) 
 G1 X18.546 Y-12.041 EXT=IC( 0.07 ) 
 G1 X18.669 Y-11.334 EXT=IC( 0.036 ) 
 G1 X18.989 Y-8.257 EXT=IC( 0.154 ) 
 G1 X19.017 Y-7.674 EXT=IC( 0.029 ) 
