;Generated with Cura_SteamEngine 14.12
; Default start code
G28 ; Home extruder
G1 Z15 F4800
M107 ; Turn off fan
G90 ; Absolute positioning
M82 ; Extruder in absolute mode
; Activate all used extruder
M104 T0 S190
G92 E0 ; Reset extruder position
; Wait for all used extruders to reach temperature
M109 T0 S190
;Layer count: 333
;LAYER:0
M107
G0 F3600 X-19.067 Y-5.587 Z0.150
;TYPE:SKIRT
G1 F1740 X-19.760 Y-10.074 E0.12430
G1 X-17.789 Y-13.996 E0.24447
G1 X-16.378 Y-15.568 E0.30230
G1 X-14.753 Y-16.803 E0.35818
G1 X-3.136 Y-23.522 E0.72558
G1 X-1.305 Y-24.574 E0.78340
G1 X3.625 Y-27.422 E0.93927
G1 X4.419 Y-28.009 E0.96630
G1 X6.584 Y-28.659 E1.02819
G1 X9.462 Y-29.092 E1.10786
G1 X13.766 Y-27.550 E1.23303
G1 X15.459 Y-25.742 E1.30084
G1 X15.811 Y-25.311 E1.31608
G1 X16.272 Y-24.681 E1.33745
G1 X24.739 Y-10.024 E1.80086
G1 X29.011 Y-2.626 E2.03474
G1 X29.487 Y-1.991 E2.05647
G1 X30.783 Y1.610 E2.16124
G1 X30.246 Y4.614 E2.24479
G1 X29.612 Y6.742 E2.30558
G1 X28.089 Y8.650 E2.37241
G1 X26.092 Y10.522 E2.44735
G1 X25.097 Y10.839 E2.47594
G1 X20.792 Y13.322 E2.61200
G1 X12.586 Y18.053 E2.87132
G1 X7.657 Y20.904 E3.02721
G1 X7.089 Y21.216 E3.04495
G1 X6.193 Y21.590 E3.07153
G1 X5.285 Y21.968 E3.09846
G1 X3.243 Y22.402 E3.15561
G1 X-1.270 Y22.149 E3.27936
G1 X-3.397 Y20.349 E3.35564
G1 X-4.691 Y19.314 E3.40101
G1 X-19.067 Y-5.587 E4.18818
G0 F3600 X-18.646 Y-5.735
G1 F1740 X-19.305 Y-10.002 E4.30638
G1 X-17.423 Y-13.747 E4.42113
G1 X-16.080 Y-15.243 E4.47617
G1 X-14.510 Y-16.437 E4.53017
G1 X-2.917 Y-23.142 E4.89682
G1 X-1.086 Y-24.193 E4.95461
G1 X-1.086 Y-24.194 E4.95464
G1 X3.863 Y-27.053 E5.11112
G1 X4.618 Y-27.611 E5.13682
G1 X6.681 Y-28.229 E5.19578
G1 X9.418 Y-28.641 E5.27155
G1 X13.518 Y-27.173 E5.39078
G1 X15.129 Y-25.453 E5.45530
G1 X15.464 Y-25.042 E5.46981
G1 X15.904 Y-24.441 E5.49020
G1 X24.359 Y-9.804 E5.95298
G1 X28.646 Y-2.381 E6.18765
G1 X29.096 Y-1.781 E6.20819
G1 X30.331 Y1.648 E6.30797
G1 X29.818 Y4.513 E6.38765
G1 X29.216 Y6.535 E6.44541
G1 X27.766 Y8.351 E6.50903
G1 X25.864 Y10.134 E6.58040
G1 X24.916 Y10.436 E6.60764
G1 X20.572 Y12.942 E6.74494
G1 X12.366 Y17.673 E7.00426
G1 X7.441 Y20.521 E7.16001
G1 X6.898 Y20.820 E7.17698
G1 X6.024 Y21.185 E7.20291
G1 X5.154 Y21.547 E7.22871
G1 X3.209 Y21.961 E7.28315
G1 X-1.099 Y21.719 E7.40128
G1 X-3.118 Y20.011 E7.47368
G1 X-4.353 Y19.023 E7.51698
G1 X-18.646 Y-5.735 E8.29963
G1 F3000 E2.29963
G0 F3600 X-9.341 Y-8.664
;TYPE:WALL-INNER
G1 F3000 E8.29963
G1 F1740 X1.736 Y-15.071 E8.64996
G1 X3.574 Y-16.126 E8.70798
G1 X8.353 Y-18.887 E8.85908
G1 X20.537 Y2.207 E9.52599
G1 X7.712 Y9.603 E9.93130
G1 X2.854 Y12.412 E10.08493
G1 X2.640 Y12.502 E10.09129
G1 X-9.507 Y-8.538 E10.75641
G1 X-9.341 Y-8.664 E10.76212
G0 F3600 X-9.582 Y-9.032
G1 F1740 X1.515 Y-15.450 E11.11307
G1 X3.354 Y-16.507 E11.17114
G1 X8.514 Y-19.487 E11.33428
G1 X21.137 Y2.368 E12.02524
G1 X3.086 Y12.785 E12.59581
G1 X2.514 Y13.031 E12.61286
G1 X2.436 Y13.026 E12.61500
G1 X-10.063 Y-8.624 E13.29940
G1 X-10.028 Y-8.693 E13.30152
G1 X-9.582 Y-9.032 E13.31685
G0 F3600 X-9.829 Y-9.396
;TYPE:WALL-OUTER
G1 F1200 X8.391 Y-19.923 E13.89294
G1 X8.429 Y-19.935 E13.89403
G1 X8.450 Y-19.951 E13.89475
G1 X8.574 Y-19.981 E13.89825
G1 X8.753 Y-19.917 E13.90345
G1 X8.823 Y-19.828 E13.90655
G1 X21.585 Y2.267 E14.60510
G1 X21.627 Y2.382 E14.60846
G1 X21.596 Y2.555 E14.61327
G1 X21.485 Y2.674 E14.61772
G1 X3.297 Y13.170 E15.19262
G1 X2.635 Y13.456 E15.21237
G1 X2.558 Y13.472 E15.21452
G1 X2.193 Y13.452 E15.22453
G1 X2.161 Y13.427 E15.22564
G1 X-10.549 Y-8.588 E15.92158
G1 X-10.554 Y-8.623 E15.92255
G1 X-10.390 Y-8.950 E15.93257
G1 X-10.337 Y-9.010 E15.93476
G1 X-9.829 Y-9.396 E15.95223
G0 F3600 X-8.995 Y-8.684
;TYPE:FILL
G1 F1740 X8.603 Y8.914 E16.63357
G0 F3600 X8.210 Y9.142
G1 F1740 X-9.135 Y-8.203 E17.30512
G0 F3600 X-8.602 Y-8.912
G1 F1740 X8.997 Y8.687 E17.98651
G0 F3600 X9.391 Y8.460
G1 F1740 X-8.208 Y-9.139 E18.66790
G0 F3600 X-7.815 Y-9.367
G1 F1740 X9.784 Y8.233 E19.34930
G0 F3600 X10.178 Y8.005
G1 F1740 X-7.421 Y-9.594 E20.03069
G0 F3600 X-7.028 Y-9.821
G1 F1740 X10.571 Y7.778 E20.71207
G0 F3600 X10.965 Y7.551
G1 F1740 X-6.634 Y-10.048 E21.39346
G0 F3600 X-6.241 Y-10.276
G1 F1740 X11.358 Y7.324 E22.07486
G0 F3600 X11.752 Y7.097
G1 F1740 X-5.847 Y-10.503 E22.75627
G0 F3600 X-5.454 Y-10.731
G1 F1740 X12.146 Y6.870 E23.43771
G0 F3600 X12.540 Y6.643
G1 F1740 X-5.060 Y-10.958 E24.11915
G0 F3600 X-4.667 Y-11.185
G1 F1740 X12.933 Y6.415 E24.80058
G0 F3600 X13.327 Y6.188
G1 F1740 X-4.273 Y-11.412 E25.48200
G0 F3600 X-3.880 Y-11.640
G1 F1740 X13.721 Y5.961 E26.16346
G0 F3600 X14.114 Y5.733
G1 F1740 X-3.486 Y-11.867 E26.84489
G0 F3600 X-3.093 Y-12.095
G1 F1740 X14.508 Y5.506 E27.52635
G0 F3600 X14.902 Y5.279
G1 F1740 X-2.699 Y-12.322 E28.20781
G0 F3600 X-2.306 Y-12.549
G1 F1740 X15.296 Y5.052 E28.88929
G0 F3600 X15.689 Y4.825
G1 F1740 X-1.912 Y-12.776 E29.57076
G0 F3600 X-1.519 Y-13.004
G1 F1740 X16.083 Y4.598 E30.25226
G0 F3600 X16.477 Y4.371
G1 F1740 X-1.125 Y-13.231 E30.93376
G0 F3600 X-0.732 Y-13.459
G1 F1740 X16.870 Y4.144 E31.61528
G0 F3600 X17.264 Y3.916
G1 F1740 X-0.338 Y-13.686 E32.29678
G0 F3600 X0.054 Y-13.913
G1 F1740 X17.657 Y3.689 E32.97830
G0 F3600 X18.051 Y3.462
G1 F1740 X0.448 Y-14.140 E33.65982
G0 F3600 X0.841 Y-14.368
G1 F1740 X18.444 Y3.235 E34.34136
G0 F3600 X18.838 Y3.008
G1 F1740 X1.235 Y-14.595 E35.02291
G0 F3600 X1.628 Y-14.823
G1 F1740 X19.232 Y2.781 E35.70448
G0 F3600 X19.626 Y2.554
G1 F1740 X2.022 Y-15.050 E36.38606
G0 F3600 X2.415 Y-15.277
G1 F1740 X20.019 Y2.326 E37.06762
G0 F3600 X20.134 Y1.820
G1 F1740 X2.809 Y-15.504 E37.73838
G0 F3600 X3.202 Y-15.732
G1 F1740 X19.284 Y0.350 E38.36103
G0 F3600 X18.436 Y-1.119
G1 F1740 X3.596 Y-15.959 E38.93560
G0 F3600 X3.989 Y-16.187
G1 F1740 X17.587 Y-2.588 E39.46209
G0 F3600 X16.738 Y-4.058
G1 F1740 X4.383 Y-16.414 E39.94046
G0 F3600 X4.776 Y-16.641
G1 F1740 X15.890 Y-5.528 E40.37075
G0 F3600 X15.040 Y-6.998
G1 F1740 X5.170 Y-16.868 E40.75289
G0 F3600 X5.563 Y-17.096
G1 F1740 X14.192 Y-8.467 E41.08698
G0 F3600 X13.343 Y-9.937
G1 F1740 X5.957 Y-17.323 E41.37294
G0 F3600 X6.350 Y-17.551
G1 F1740 X12.494 Y-11.407 E41.61082
G0 F3600 X11.646 Y-12.876
G1 F1740 X6.744 Y-17.778 E41.80062
G0 F3600 X7.137 Y-18.005
G1 F1740 X10.796 Y-14.346 E41.94228
G0 F3600 X9.948 Y-15.815
G1 F1740 X7.531 Y-18.232 E42.03586
G0 F3600 X7.924 Y-18.460
G1 F1740 X9.099 Y-17.285 E42.08135
G0 F3600 X-8.287 Y-6.734
G1 F1740 X7.816 Y9.369 E42.70482
G0 F3600 X7.422 Y9.596
G1 F1740 X-7.439 Y-5.265 E43.28020
G0 F3600 X-6.591 Y-3.797
G1 F1740 X7.028 Y9.823 E43.80751
G0 F3600 X6.635 Y10.050
G1 F1740 X-5.743 Y-2.328 E44.28675
G0 F3600 X-4.896 Y-0.859
G1 F1740 X6.241 Y10.277 E44.71792
G0 F3600 X5.847 Y10.504
G1 F1740 X-4.047 Y0.609 E45.10101
G0 F3600 X-3.199 Y2.078
G1 F1740 X5.454 Y10.732 E45.43605
G0 F3600 X5.060 Y10.959
G1 F1740 X-2.351 Y3.546 E45.72302
G0 F3600 X-1.504 Y5.015
G1 F1740 X4.666 Y11.186 E45.96193
G0 F3600 X4.273 Y11.413
G1 F1740 X-0.656 Y6.484 E46.15277
G0 F3600 X0.192 Y7.953
G1 F1740 X3.879 Y11.641 E46.29554
G0 F3600 X3.486 Y11.868
G1 F1740 X1.040 Y9.422 E46.39024
G0 F3600 X1.887 Y10.890
G1 F1740 X3.092 Y12.095 E46.43689
;LAYER:1
M106 S30
G0 F3600 X2.968 Y12.708 Z0.250
;TYPE:WALL-INNER
G1 F1860 X2.456 Y12.949 E46.44628
G1 X2.191 Y13.018 E46.45082
G1 X-10.177 Y-8.407 E46.86120
G1 X-10.059 Y-8.538 E46.86412
G1 X-9.985 Y-8.604 E46.86577
G1 X-9.523 Y-8.922 E46.87507
G1 X8.473 Y-19.318 E47.21983
G1 X20.966 Y2.324 E47.63436
G1 X2.968 Y12.708 E47.97905
G0 F3600 X3.155 Y13.062
G1 F1860 X2.607 Y13.319 E47.98909
G1 X2.083 Y13.448 E47.99804
G1 X2.029 Y13.450 E47.99894
G1 X1.970 Y13.432 E47.99996
G1 X-10.647 Y-8.425 E48.41861
G1 X-10.634 Y-8.480 E48.41955
G1 X-10.605 Y-8.528 E48.42048
G1 X-10.345 Y-8.818 E48.42694
G1 X-10.234 Y-8.916 E48.42939
G1 X-9.731 Y-9.262 E48.43952
G1 X8.462 Y-19.772 E48.78806
G1 X8.537 Y-19.804 E48.78941
G1 X8.632 Y-19.788 E48.79101
G1 X8.676 Y-19.750 E48.79197
G1 X21.410 Y2.296 E49.21430
G1 X21.451 Y2.395 E49.21608
G1 X21.454 Y2.412 E49.21637
G1 X21.435 Y2.486 E49.21763
G1 X21.350 Y2.564 E49.21955
G1 X3.155 Y13.062 E49.56801
G0 F3600 X3.347 Y13.412
;TYPE:WALL-OUTER
G1 F1200 X2.758 Y13.689 E49.57881
G1 X2.570 Y13.752 E49.58210
G1 X2.129 Y13.846 E49.58958
G1 X1.979 Y13.851 E49.59207
G1 X1.727 Y13.775 E49.59643
G1 X1.676 Y13.722 E49.59765
G1 X-11.046 Y-8.317 E50.01979
G1 X-11.066 Y-8.382 E50.02092
G1 X-11.006 Y-8.640 E50.02531
G1 X-10.927 Y-8.765 E50.02776
G1 X-10.627 Y-9.101 E50.03523
G1 X-10.479 Y-9.232 E50.03851
G1 X-9.944 Y-9.600 E50.04928
G1 X8.286 Y-20.131 E50.39852
G1 X8.435 Y-20.194 E50.40121
G1 X8.514 Y-20.212 E50.40255
G1 X8.774 Y-20.169 E50.40692
G1 X8.826 Y-20.146 E50.40787
G1 X8.970 Y-20.024 E50.41100
G1 X9.037 Y-19.938 E50.41281
G1 X21.772 Y2.124 E50.83538
G1 X21.838 Y2.285 E50.83826
G1 X21.860 Y2.436 E50.84080
G1 X21.810 Y2.628 E50.84409
G1 X21.763 Y2.726 E50.84589
G1 X21.586 Y2.889 E50.84988
G1 X3.347 Y13.412 E51.19918
G0 F3600 X2.976 Y12.541
;TYPE:FILL
G1 F1860 X18.019 Y-2.501 E51.55208
G0 F3600 X17.812 Y-2.858
G1 F1860 X2.200 Y12.753 E51.91832
G0 F3600 X1.994 Y12.395
G1 F1860 X17.606 Y-3.216 E52.28456
G0 F3600 X17.399 Y-3.574
G1 F1860 X1.787 Y12.037 E52.65080
G0 F3600 X1.581 Y11.679
G1 F1860 X17.193 Y-3.932 E53.01704
G0 F3600 X16.986 Y-4.290
G1 F1860 X1.374 Y11.322 E53.38329
G0 F3600 X1.167 Y10.965
G1 F1860 X16.779 Y-4.647 E53.74954
G0 F3600 X16.573 Y-5.004
G1 F1860 X0.960 Y10.607 E54.11580
G0 F3600 X0.754 Y10.249
G1 F1860 X16.366 Y-5.362 E54.48204
G0 F3600 X16.160 Y-5.720
G1 F1860 X0.548 Y9.891 E54.84828
G0 F3600 X0.341 Y9.533
G1 F1860 X15.953 Y-6.078 E55.21452
G0 F3600 X15.747 Y-6.436
G1 F1860 X0.135 Y9.176 E55.58077
G0 F3600 X-0.071 Y8.818
G1 F1860 X15.540 Y-6.793 E55.94700
G0 F3600 X15.334 Y-7.151
G1 F1860 X-0.277 Y8.460 E56.31323
G0 F3600 X-0.484 Y8.102
G1 F1860 X15.127 Y-7.509 E56.67946
G0 F3600 X14.921 Y-7.867
G1 F1860 X-0.690 Y7.744 E57.04569
G0 F3600 X-0.897 Y7.387
G1 F1860 X14.714 Y-8.225 E57.41193
G0 F3600 X14.508 Y-8.582
G1 F1860 X-1.103 Y7.029 E57.77816
G0 F3600 X-1.310 Y6.671
G1 F1860 X14.301 Y-8.940 E58.14438
G0 F3600 X14.095 Y-9.298
G1 F1860 X-1.516 Y6.313 E58.51061
G0 F3600 X-1.723 Y5.956
G1 F1860 X13.888 Y-9.656 E58.87685
G0 F3600 X13.682 Y-10.014
G1 F1860 X-1.930 Y5.598 E59.24311
G0 F3600 X-2.136 Y5.241
G1 F1860 X13.476 Y-10.371 E59.60936
G0 F3600 X13.269 Y-10.729
G1 F1860 X-2.343 Y4.883 E59.97561
G0 F3600 X-2.549 Y4.525
G1 F1860 X13.063 Y-11.087 E60.34186
G0 F3600 X12.855 Y-11.444
G1 F1860 X-2.756 Y4.167 E60.70809
G0 F3600 X-2.962 Y3.809
G1 F1860 X12.649 Y-11.802 E61.07432
G0 F3600 X12.442 Y-12.160
G1 F1860 X-3.169 Y3.452 E61.44056
G0 F3600 X-3.375 Y3.094
G1 F1860 X12.236 Y-12.517 E61.80679
G0 F3600 X12.030 Y-12.875
G1 F1860 X-3.582 Y2.736 E62.17303
G0 F3600 X-3.788 Y2.378
G1 F1860 X11.823 Y-13.233 E62.53926
G0 F3600 X11.617 Y-13.591
G1 F1860 X-3.995 Y2.020 E62.90550
G0 F3600 X-4.201 Y1.663
G1 F1860 X11.410 Y-13.949 E63.27174
G0 F3600 X11.204 Y-14.306
G1 F1860 X-4.408 Y1.305 E63.63798
G0 F3600 X-4.614 Y0.947
G1 F1860 X10.997 Y-14.664 E64.00421
G0 F3600 X10.791 Y-15.022
G1 F1860 X-4.821 Y0.590 E64.37046
G0 F3600 X-5.028 Y0.232
G1 F1860 X10.584 Y-15.380 E64.73672
G0 F3600 X10.378 Y-15.738
G1 F1860 X-5.234 Y-0.125 E65.10298
G0 F3600 X-5.441 Y-0.482
G1 F1860 X10.171 Y-16.095 E65.46924
G0 F3600 X9.965 Y-16.453
G1 F1860 X-5.647 Y-0.840 E65.83551
G0 F3600 X-5.854 Y-1.198
G1 F1860 X9.758 Y-16.811 E66.20177
G0 F3600 X9.552 Y-17.169
G1 F1860 X-6.060 Y-1.556 E66.56804
G0 F3600 X-6.267 Y-1.914
G1 F1860 X9.345 Y-17.527 E66.93430
G0 F3600 X9.139 Y-17.884
G1 F1860 X-6.473 Y-2.271 E67.30056
G0 F3600 X-6.680 Y-2.629
G1 F1860 X8.932 Y-18.241 E67.66682
G0 F3600 X8.725 Y-18.599
G1 F1860 X-6.886 Y-2.987 E68.03306
G0 F3600 X-7.092 Y-3.345
G1 F1860 X8.519 Y-18.957 E68.39930
G0 F3600 X7.713 Y-18.716
G1 F1860 X-7.299 Y-3.703 E68.75149
G0 F3600 X-7.505 Y-4.060
G1 F1860 X6.377 Y-17.944 E69.07718
G0 F3600 X5.041 Y-17.172
G1 F1860 X-7.712 Y-4.418 E69.37637
G0 F3600 X-7.919 Y-4.775
G1 F1860 X3.705 Y-16.401 E69.64909
G0 F3600 X2.370 Y-15.629
G1 F1860 X-8.126 Y-5.133 E69.89532
G0 F3600 X-8.332 Y-5.491
G1 F1860 X1.034 Y-14.858 E70.11506
G0 F3600 X-0.301 Y-14.086
G1 F1860 X-8.539 Y-5.849 E70.30831
G0 F3600 X-8.745 Y-6.206
G1 F1860 X-1.637 Y-13.314 E70.47506
G0 F3600 X-2.973 Y-12.543
G1 F1860 X-8.951 Y-6.564 E70.61531
G0 F3600 X-9.158 Y-6.922
G1 F1860 X-4.309 Y-11.771 E70.72907
G0 F3600 X-5.644 Y-11.000
G1 F1860 X-9.364 Y-7.280 E70.81634
G0 F3600 X-9.571 Y-7.638
G1 F1860 X-6.981 Y-10.228 E70.87710
G0 F3600 X-8.316 Y-9.456
G1 F1860 X-9.777 Y-7.995 E70.91137
G0 F3600 X-9.984 Y-8.353
G1 F1860 X-9.726 Y-8.611 E70.91742
G0 F3600 X4.310 Y11.771
G1 F1860 X18.225 Y-2.143 E71.24385
G0 F3600 X18.432 Y-1.785
G1 F1860 X5.644 Y11.002 E71.54384
G0 F3600 X6.977 Y10.233
G1 F1860 X18.638 Y-1.427 E71.81740
G0 F3600 X18.845 Y-1.069
G1 F1860 X8.311 Y9.463 E72.06450
G0 F3600 X9.644 Y8.694
G1 F1860 X19.051 Y-0.712 E72.28517
G0 F3600 X19.258 Y-0.354
G1 F1860 X10.978 Y7.925 E72.47940
G0 F3600 X12.312 Y7.155
G1 F1860 X19.464 Y0.003 E72.64719
G0 F3600 X19.671 Y0.361
G1 F1860 X13.645 Y6.386 E72.78854
G0 F3600 X14.979 Y5.617
G1 F1860 X19.877 Y0.719 E72.90345
G0 F3600 X20.083 Y1.076
G1 F1860 X16.312 Y4.847 E72.99192
G0 F3600 X17.646 Y4.078
G1 F1860 X20.290 Y1.434 E73.05394
G0 F3600 X20.496 Y1.792
G1 F1860 X18.980 Y3.309 E73.08952
G0 F3600 X20.313 Y2.539
G1 F1860 X20.703 Y2.150 E73.09866
;LAYER:2
M106 S63
G0 F3600 X21.178 Y2.378 Z0.350
;TYPE:WALL-INNER
G1 F2040 X5.182 Y11.613 E73.40505
G1 X4.645 Y11.922 E73.41533
G1 X3.133 Y12.796 E73.44430
G1 X2.605 Y13.067 E73.45415
G1 X2.019 Y13.270 E73.46444
G1 X1.914 Y13.291 E73.46621
G1 X1.859 Y13.293 E73.46712
G1 X-10.583 Y-8.256 E73.87990
G1 X-10.553 Y-8.304 E73.88083
G1 X-10.481 Y-8.385 E73.88263
G1 X-10.068 Y-8.752 E73.89180
G1 X-9.678 Y-9.010 E73.89955
G1 X-7.467 Y-10.294 E73.94197
G1 X8.529 Y-19.533 E74.24840
G1 X21.178 Y2.378 E74.66809
G0 F3600 X21.438 Y2.692
G1 F2040 X3.300 Y13.159 E75.01547
G1 X2.766 Y13.433 E75.02543
G1 X2.128 Y13.654 E75.03663
G1 X1.963 Y13.688 E75.03942
G1 X1.656 Y13.700 E75.04452
G1 X1.625 Y13.686 E75.04509
G1 X-11.042 Y-8.255 E75.46535
G1 X-11.041 Y-8.275 E75.46569
G1 X-10.876 Y-8.541 E75.47088
G1 X-10.758 Y-8.672 E75.47380
G1 X-10.316 Y-9.066 E75.48363
G1 X-9.882 Y-9.353 E75.49226
G1 X-7.667 Y-10.639 E75.53474
G1 X8.368 Y-19.901 E75.84193
G1 X8.516 Y-19.956 E75.84455
G1 X8.555 Y-19.960 E75.84520
G1 X8.650 Y-19.952 E75.84678
G1 X8.770 Y-19.870 E75.84919
G1 X8.846 Y-19.780 E75.85114
G1 X21.546 Y2.218 E76.27250
G1 X21.604 Y2.388 E76.27548
G1 X21.607 Y2.444 E76.27641
G1 X21.605 Y2.455 E76.27660
G1 X21.514 Y2.636 E76.27996
G1 X21.438 Y2.692 E76.28153
G0 F3600 X21.652 Y3.029
;TYPE:WALL-OUTER
G1 F1200 X3.498 Y13.506 E76.62923
G1 X2.924 Y13.801 E76.63993
G1 X2.230 Y14.040 E76.65211
G1 X2.011 Y14.086 E76.65582
G1 X1.578 Y14.103 E76.66301
G1 X1.366 Y14.006 E76.66688
G1 X1.311 Y13.941 E76.66829
G1 X-11.419 Y-8.108 E77.09063
G1 X-11.448 Y-8.188 E77.09204
G1 X-11.432 Y-8.402 E77.09560
G1 X-11.194 Y-8.784 E77.10307
G1 X-11.045 Y-8.951 E77.10678
G1 X-10.558 Y-9.384 E77.11759
G1 X-10.095 Y-9.691 E77.12681
G1 X8.197 Y-20.263 E77.47728
G1 X8.429 Y-20.350 E77.48139
G1 X8.542 Y-20.360 E77.48327
G1 X8.665 Y-20.355 E77.48531
G1 X8.756 Y-20.340 E77.48684
G1 X8.847 Y-20.301 E77.48848
G1 X9.040 Y-20.169 E77.49236
G1 X9.175 Y-20.010 E77.49582
G1 X21.910 Y2.050 E77.91836
G1 X21.998 Y2.310 E77.92292
G1 X22.007 Y2.457 E77.92536
G1 X21.993 Y2.574 E77.92732
G1 X21.847 Y2.861 E77.93266
G1 X21.785 Y2.931 E77.93421
G1 X21.652 Y3.029 E77.93695
G0 F3600 X20.782 Y2.444
;TYPE:FILL
G1 F2040 X2.469 Y-15.868 E78.36655
G0 F3600 X2.112 Y-15.661
G1 F2040 X20.424 Y2.650 E78.79614
G0 F3600 X20.067 Y2.858
G1 F2040 X1.755 Y-15.454 E79.22573
G0 F3600 X1.397 Y-15.248
G1 F2040 X19.709 Y3.064 E79.65532
G0 F3600 X19.352 Y3.271
G1 F2040 X1.039 Y-15.041 E80.08493
G0 F3600 X0.681 Y-14.835
G1 F2040 X18.994 Y3.477 E80.51453
G0 F3600 X18.636 Y3.684
G1 F2040 X0.324 Y-14.627 E80.94412
G0 F3600 X-0.033 Y-14.421
G1 F2040 X18.278 Y3.890 E81.37369
G0 F3600 X17.920 Y4.096
G1 F2040 X-0.391 Y-14.214 E81.80324
G0 F3600 X-0.748 Y-14.007
