
TRAORI
G1 Z = 435 F1500
G1 X=-1.299 Y=154.950
TRACON
F 1500
G1 Z=236.6
G1 X=0 Y=0 
ORIRESET
G645 ;SMOOTH CORNERS
CYCLE832(0.1,_FINISH,1)
ORIVECT
MSG("Check: Extruder ready?")
M0
MSG("Printing")
G54
;FLAVOR:Repetier

;TIME:709

;Generated with Cura_SteamEngine 4.0.0

 
 
 
 
 
 G1 E-8.0 F1500 
;LAYER_COUNT:51

;LAYER:0

 
 G1 X-9.67 Y-36.999 Z0.2 F1200 
;TYPE:SKIRT

 G1 E8.0 F1500 
 G1 X10.323 Y-36.953 E0.612 F1200 
 G1 X11.342 Y-36.911 E0.031 
 G1 X12.432 Y-36.776 E0.034 
 G1 X13.673 Y-36.569 E0.038 
 G1 X14.671 Y-36.362 E0.031 
 G1 X15.65 Y-36.077 E0.031 
 G1 X16.604 Y-35.717 E0.031 
 G1 X17.414 Y-35.34 E0.027 
 G1 X18.808 Y-34.633 E0.048 
 G1 X19.699 Y-34.137 E0.031 
 G1 X20.548 Y-33.572 E0.031 
 G1 X21.35 Y-32.942 E0.031 
 G1 X22.104 Y-32.248 E0.031 
 G1 X23.206 Y-31.15 E0.048 
 G1 X23.899 Y-30.403 E0.031 
 G1 X24.532 Y-29.603 E0.031 
 G1 X25.1 Y-28.757 E0.031 
 G1 X25.604 Y-27.861 E0.031 
 G1 X26.315 Y-26.471 E0.048 
 G1 X26.743 Y-25.546 E0.031 
 G1 X27.098 Y-24.59 E0.031 
 G1 X27.376 Y-23.609 E0.031 
 G1 X27.617 Y-22.346 E0.039 
 G1 X27.875 Y-20.495 E0.057 
 G1 X27.976 Y-19.48 E0.031 
 G1 X27.999 Y-18.693 E0.024 
 G1 X27.989 Y1.018 E0.603 
 G1 X27.948 Y2.036 E0.031 
 G1 X27.828 Y3.05 E0.031 
 G1 X27.588 Y4.561 E0.047 
 G1 X27.389 Y5.561 E0.031 
 G1 X27.112 Y6.542 E0.031 
 G1 X26.759 Y7.499 E0.031 
 G1 X26.363 Y8.363 E0.029 
 G1 X25.675 Y9.731 E0.047 
 G1 X25.181 Y10.623 E0.031 
 G1 X24.62 Y11.474 E0.031 
 G1 X23.993 Y12.278 E0.031 
 G1 X23.334 Y13.001 E0.03 
 G1 X22.214 Y14.141 E0.049 
 G1 X21.472 Y14.839 E0.031 
 G1 X20.677 Y15.478 E0.031 
 G1 X19.834 Y16.052 E0.031 
 G1 X18.864 Y16.602 E0.034 
 G1 X17.473 Y17.314 E0.048 
 G1 X16.548 Y17.743 E0.031 
 G1 X15.592 Y18.098 E0.031 
 G1 X14.612 Y18.376 E0.031 
 G1 X13.339 Y18.618 E0.04 
 G1 X11.489 Y18.875 E0.057 
 G1 X10.474 Y18.976 E0.031 
 G1 X9.693 Y18.999 E0.024 
 G1 X-10.018 Y18.989 E0.603 
 G1 X-11.036 Y18.948 E0.031 
 G1 X-12.05 Y18.828 E0.031 
 G1 X-13.561 Y18.588 E0.047 
 G1 X-14.561 Y18.389 E0.031 
 G1 X-15.542 Y18.112 E0.031 
 G1 X-16.499 Y17.759 E0.031 
 G1 X-17.369 Y17.36 E0.029 
 G1 X-18.747 Y16.666 E0.047 
 G1 X-19.639 Y16.172 E0.031 
 G1 X-20.49 Y15.609 E0.031 
 G1 X-21.294 Y14.982 E0.031 
 G1 X-22.031 Y14.309 E0.031 
 G1 X-23.162 Y13.193 E0.049 
 G1 X-23.859 Y12.448 E0.031 
 G1 X-24.496 Y11.652 E0.031 
 G1 X-25.068 Y10.808 E0.031 
 G1 X-25.603 Y9.862 E0.033 
 G1 X-26.314 Y8.473 E0.048 
 G1 X-26.743 Y7.548 E0.031 
 G1 X-27.098 Y6.592 E0.031 
 G1 X-27.376 Y5.612 E0.031 
 G1 X-27.618 Y4.339 E0.04 
 G1 X-27.875 Y2.489 E0.057 
 G1 X-27.976 Y1.474 E0.031 
 G1 X-27.999 Y0.693 E0.024 
 G1 X-27.989 Y-19.018 E0.603 
 G1 X-27.948 Y-20.036 E0.031 
 G1 X-27.828 Y-21.052 E0.031 
 G1 X-27.586 Y-22.574 E0.047 
 G1 X-27.386 Y-23.574 E0.031 
 G1 X-27.109 Y-24.555 E0.031 
 G1 X-26.756 Y-25.512 E0.031 
 G1 X-26.339 Y-26.416 E0.03 
 G1 X-25.631 Y-27.811 E0.048 
 G1 X-25.135 Y-28.702 E0.031 
 G1 X-24.57 Y-29.551 E0.031 
 G1 X-23.94 Y-30.352 E0.031 
 G1 X-23.248 Y-31.104 E0.031 
 G1 X-22.15 Y-32.206 E0.048 
 G1 X-21.403 Y-32.899 E0.031 
 G1 X-20.603 Y-33.532 E0.031 
 G1 X-19.757 Y-34.1 E0.031 
 G1 X-18.864 Y-34.602 E0.031 
 G1 X-17.473 Y-35.314 E0.048 
 G1 X-16.548 Y-35.743 E0.031 
 G1 X-15.592 Y-36.098 E0.031 
 G1 X-14.612 Y-36.376 E0.031 
 G1 X-13.339 Y-36.618 E0.04 
 G1 X-11.489 Y-36.875 E0.057 
 G1 X-10.474 Y-36.976 E0.031 
 G1 X-9.67 Y-36.999 E0.025 
 G1 X-9.671 Y-36.599 
 G1 X10.322 Y-36.553 E0.612 
 G1 X11.325 Y-36.511 E0.031 
 G1 X12.366 Y-36.381 E0.032 
 G1 X13.607 Y-36.174 E0.038 
 G1 X14.59 Y-35.97 E0.031 
 G1 X15.553 Y-35.688 E0.031 
 G1 X16.491 Y-35.33 E0.031 
 G1 X17.233 Y-34.983 E0.025 
 G1 X18.627 Y-34.276 E0.048 
 G1 X19.504 Y-33.787 E0.031 
 G1 X20.338 Y-33.229 E0.031 
 G1 X21.126 Y-32.607 E0.031 
 G1 X21.821 Y-31.965 E0.029 
 G1 X22.923 Y-30.867 E0.048 
 G1 X23.606 Y-30.13 E0.031 
 G1 X24.227 Y-29.342 E0.031 
 G1 X24.784 Y-28.507 E0.031 
 G1 X25.248 Y-27.679 E0.029 
 G1 X25.959 Y-26.289 E0.048 
 G1 X26.38 Y-25.378 E0.031 
 G1 X26.727 Y-24.436 E0.031 
 G1 X26.998 Y-23.47 E0.031 
 G1 X27.22 Y-22.29 E0.037 
 G1 X27.478 Y-20.439 E0.057 
 G1 X27.577 Y-19.441 E0.031 
 G1 X27.599 Y-18.694 E0.023 
 G1 X27.589 Y1.017 E0.603 
 G1 X27.549 Y2.02 E0.031 
 G1 X27.433 Y2.988 E0.03 
 G1 X27.193 Y4.499 E0.047 
 G1 X26.996 Y5.483 E0.031 
 G1 X26.722 Y6.448 E0.031 
 G1 X26.371 Y7.389 E0.031 
 G1 X26.006 Y8.183 E0.027 
 G1 X25.318 Y9.551 E0.047 
 G1 X24.831 Y10.429 E0.031 
 G1 X24.276 Y11.266 E0.031 
 G1 X23.657 Y12.056 E0.031 
 G1 X23.049 Y12.72 E0.028 
 G1 X21.929 Y13.86 E0.049 
 G1 X21.198 Y14.548 E0.031 
 G1 X20.414 Y15.175 E0.031 
 G1 X19.582 Y15.738 E0.031 
 G1 X18.682 Y16.246 E0.032 
 G1 X17.291 Y16.958 E0.048 
 G1 X16.38 Y17.379 E0.031 
 G1 X15.438 Y17.727 E0.031 
 G1 X14.472 Y17.999 E0.031 
 G1 X13.284 Y18.222 E0.037 
 G1 X11.434 Y18.479 E0.057 
 G1 X10.435 Y18.578 E0.031 
 G1 X9.694 Y18.599 E0.023 
 G1 X-10.017 Y18.589 E0.603 
 G1 X-11.02 Y18.549 E0.031 
 G1 X-11.988 Y18.433 E0.03 
 G1 X-13.499 Y18.193 E0.047 
 G1 X-14.483 Y17.996 E0.031 
 G1 X-15.448 Y17.722 E0.031 
 G1 X-16.389 Y17.371 E0.031 
 G1 X-17.19 Y17.002 E0.027 
 G1 X-18.568 Y16.308 E0.047 
 G1 X-19.445 Y15.822 E0.031 
 G1 X-20.282 Y15.266 E0.031 
 G1 X-21.071 Y14.646 E0.031 
 G1 X-21.75 Y14.024 E0.028 
 G1 X-22.881 Y12.908 E0.049 
 G1 X-23.567 Y12.175 E0.031 
 G1 X-24.192 Y11.39 E0.031 
 G1 X-24.753 Y10.557 E0.031 
 G1 X-25.247 Y9.68 E0.031 
 G1 X-25.958 Y8.291 E0.048 
 G1 X-26.379 Y7.38 E0.031 
 G1 X-26.727 Y6.438 E0.031 
 G1 X-26.998 Y5.472 E0.031 
 G1 X-27.222 Y4.284 E0.037 
 G1 X-27.479 Y2.434 E0.057 
 G1 X-27.578 Y1.435 E0.031 
 G1 X-27.599 Y0.694 E0.023 
 G1 X-27.589 Y-19.017 E0.603 
 G1 X-27.549 Y-20.02 E0.031 
 G1 X-27.433 Y-20.99 E0.03 
 G1 X-27.191 Y-22.512 E0.047 
 G1 X-26.994 Y-23.496 E0.031 
 G1 X-26.719 Y-24.461 E0.031 
 G1 X-26.368 Y-25.402 E0.031 
 G1 X-25.983 Y-26.235 E0.028 
 G1 X-25.275 Y-27.63 E0.048 
 G1 X-24.785 Y-28.507 E0.031 
 G1 X-24.227 Y-29.341 E0.031 
 G1 X-23.605 Y-30.129 E0.031 
 G1 X-22.965 Y-30.821 E0.029 
 G1 X-21.867 Y-31.923 E0.048 
 G1 X-21.13 Y-32.606 E0.031 
 G1 X-20.342 Y-33.227 E0.031 
 G1 X-19.507 Y-33.784 E0.031 
 G1 X-18.682 Y-34.246 E0.029 
 G1 X-17.291 Y-34.958 E0.048 
 G1 X-16.38 Y-35.379 E0.031 
 G1 X-15.438 Y-35.727 E0.031 
 G1 X-14.472 Y-35.999 E0.031 
 G1 X-13.284 Y-36.222 E0.037 
 G1 X-11.434 Y-36.479 E0.057 
 G1 X-10.435 Y-36.578 E0.031 
 G1 X-9.671 Y-36.599 E0.023 
 G1 X-9.672 Y-36.199 
 G1 X10.321 Y-36.153 E0.612 
 G1 X11.308 Y-36.111 E0.03 
 G1 X12.3 Y-35.987 E0.031 
 G1 X13.541 Y-35.78 E0.038 
 G1 X14.508 Y-35.578 E0.03 
 G1 X15.456 Y-35.299 E0.03 
 G1 X16.377 Y-34.943 E0.03 
 G1 X17.052 Y-34.627 E0.023 
 G1 X18.446 Y-33.92 E0.048 
 G1 X19.308 Y-33.438 E0.03 
 G1 X20.129 Y-32.887 E0.03 
 G1 X20.902 Y-32.273 E0.03 
 G1 X21.539 Y-31.681 E0.027 
 G1 X22.641 Y-30.583 E0.048 
 G1 X23.312 Y-29.858 E0.03 
 G1 X23.922 Y-29.082 E0.03 
 G1 X24.467 Y-28.258 E0.03 
 G1 X24.892 Y-27.497 E0.027 
 G1 X25.603 Y-26.107 E0.048 
 G1 X26.016 Y-25.21 E0.03 
 G1 X26.356 Y-24.283 E0.03 
 G1 X26.62 Y-23.331 E0.03 
 G1 X26.824 Y-22.235 E0.034 
 G1 X27.082 Y-20.384 E0.057 
 G1 X27.179 Y-19.401 E0.03 
 G1 X27.199 Y-18.694 E0.022 
 G1 X27.189 Y1.017 E0.603 
 G1 X27.149 Y2.004 E0.03 
 G1 X27.038 Y2.925 E0.028 
 G1 X26.798 Y4.436 E0.047 
 G1 X26.604 Y5.404 E0.03 
 G1 X26.332 Y6.354 E0.03 
 G1 X25.984 Y7.278 E0.03 
 G1 X25.648 Y8.003 E0.024 
 G1 X24.96 Y9.371 E0.047 
 G1 X24.481 Y10.235 E0.03 
 G1 X23.934 Y11.057 E0.03 
 G1 X23.321 Y11.833 E0.03 
 G1 X22.764 Y12.44 E0.025 
 G1 X21.644 Y13.58 E0.049 
 G1 X20.924 Y14.256 E0.03 
 G1 X20.151 Y14.872 E0.03 
 G1 X19.331 Y15.423 E0.03 
 G1 X18.5 Y15.89 E0.029 
 G1 X17.109 Y16.602 E0.048 
 G1 X16.212 Y17.016 E0.03 
 G1 X15.285 Y17.356 E0.03 
 G1 X14.333 Y17.62 E0.03 
 G1 X13.229 Y17.826 E0.034 
 G1 X11.379 Y18.083 E0.057 
 G1 X10.396 Y18.179 E0.03 
 G1 X9.694 Y18.199 E0.021 
 G1 X-10.017 Y18.189 E0.603 
 G1 X-11.004 Y18.149 E0.03 
 G1 X-11.925 Y18.038 E0.028 
 G1 X-13.436 Y17.798 E0.047 
 G1 X-14.404 Y17.604 E0.03 
 G1 X-15.354 Y17.332 E0.03 
 G1 X-16.278 Y16.984 E0.03 
 G1 X-17.01 Y16.645 E0.025 
 G1 X-18.388 Y15.951 E0.047 
 G1 X-19.251 Y15.472 E0.03 
 G1 X-20.073 Y14.924 E0.03 
 G1 X-20.848 Y14.311 E0.03 
 G1 X-21.469 Y13.739 E0.026 
 G1 X-22.6 Y12.623 E0.049 
 G1 X-23.274 Y11.901 E0.03 
 G1 X-23.888 Y11.128 E0.03 
 G1 X-24.437 Y10.307 E0.03 
 G1 X-24.891 Y9.498 E0.028 
 G1 X-25.602 Y8.109 E0.048 
 G1 X-26.016 Y7.212 E0.03 
 G1 X-26.356 Y6.285 E0.03 
 G1 X-26.62 Y5.333 E0.03 
 G1 X-26.826 Y4.229 E0.034 
 G1 X-27.083 Y2.379 E0.057 
 G1 X-27.179 Y1.396 E0.03 
 G1 X-27.199 Y0.694 E0.021 
 G1 X-27.189 Y-19.017 E0.603 
 G1 X-27.149 Y-20.004 E0.03 
 G1 X-27.038 Y-20.927 E0.028 
 G1 X-26.796 Y-22.449 E0.047 
 G1 X-26.601 Y-23.417 E0.03 
 G1 X-26.329 Y-24.367 E0.03 
 G1 X-25.981 Y-25.291 E0.03 
 G1 X-25.626 Y-26.054 E0.026 
 G1 X-24.918 Y-27.449 E0.048 
 G1 X-24.436 Y-28.311 E0.03 
 G1 X-23.885 Y-29.131 E0.03 
 G1 X-23.27 Y-29.904 E0.03 
 G1 X-22.681 Y-30.539 E0.026 
 G1 X-21.583 Y-31.641 E0.048 
 G1 X-20.858 Y-32.312 E0.03 
 G1 X-20.082 Y-32.922 E0.03 
 G1 X-19.258 Y-33.467 E0.03 
 G1 X-18.5 Y-33.89 E0.027 
 G1 X-17.109 Y-34.602 E0.048 
 G1 X-16.212 Y-35.016 E0.03 
 G1 X-15.285 Y-35.356 E0.03 
 G1 X-14.333 Y-35.62 E0.03 
 G1 X-13.229 Y-35.826 E0.034 
 G1 X-11.379 Y-36.083 E0.057 
 G1 X-10.396 Y-36.179 E0.03 
 G1 X-9.672 Y-36.199 E0.022 
 G1 X-9.673 Y-35.799 
 G1 X10.32 Y-35.753 E0.612 
 G1 X11.291 Y-35.711 E0.03 
 G1 X12.234 Y-35.592 E0.029 
 G1 X13.475 Y-35.385 E0.038 
 G1 X14.426 Y-35.186 E0.03 
 G1 X15.357 Y-34.909 E0.03 
 G1 X16.263 Y-34.557 E0.03 
 G1 X16.871 Y-34.27 E0.021 
 G1 X18.265 Y-33.563 E0.048 
 G1 X19.113 Y-33.088 E0.03 
 G1 X19.919 Y-32.545 E0.03 
 G1 X20.677 Y-31.938 E0.03 
 G1 X21.257 Y-31.398 E0.024 
 G1 X22.359 Y-30.3 E0.048 
 G1 X23.018 Y-29.587 E0.03 
 G1 X23.616 Y-28.821 E0.03 
 G1 X24.15 Y-28.01 E0.03 
 G1 X24.535 Y-27.315 E0.024 
 G1 X25.246 Y-25.925 E0.048 
 G1 X25.653 Y-25.042 E0.03 
 G1 X25.985 Y-24.13 E0.03 
 G1 X26.242 Y-23.193 E0.03 
 G1 X26.428 Y-22.18 E0.032 
 G1 X26.686 Y-20.329 E0.057 
 G1 X26.78 Y-19.362 E0.03 
 G1 X26.799 Y-18.694 E0.02 
 G1 X26.789 Y1.017 E0.603 
 G1 X26.749 Y1.988 E0.03 
 G1 X26.643 Y2.862 E0.027 
 G1 X26.403 Y4.373 E0.047 
 G1 X26.211 Y5.325 E0.03 
 G1 X25.942 Y6.259 E0.03 
 G1 X25.596 Y7.167 E0.03 
 G1 X25.291 Y7.824 E0.022 
 G1 X24.603 Y9.192 E0.047 
 G1 X24.131 Y10.041 E0.03 
 G1 X23.591 Y10.848 E0.03 
 G1 X22.986 Y11.609 E0.03 
 G1 X22.478 Y12.16 E0.023 
 G1 X21.358 Y13.3 E0.049 
 G1 X20.65 Y13.964 E0.03 
 G1 X19.889 Y14.568 E0.03 
 G1 X19.081 Y15.107 E0.03 
 G1 X18.318 Y15.534 E0.027 
 G1 X16.927 Y16.246 E0.048 
 G1 X16.044 Y16.653 E0.03 
 G1 X15.132 Y16.985 E0.03 
 G1 X14.195 Y17.242 E0.03 
 G1 X13.174 Y17.43 E0.032 
 G1 X11.324 Y17.687 E0.057 
 G1 X10.357 Y17.781 E0.03 
 G1 X9.694 Y17.799 E0.02 
 G1 X-10.017 Y17.789 E0.603 
 G1 X-10.988 Y17.749 E0.03 
 G1 X-11.862 Y17.643 E0.027 
 G1 X-13.373 Y17.403 E0.047 
 G1 X-14.325 Y17.211 E0.03 
 G1 X-15.259 Y16.942 E0.03 
 G1 X-16.167 Y16.596 E0.03 
 G1 X-16.83 Y16.288 E0.022 
 G1 X-18.208 Y15.594 E0.047 
 G1 X-19.057 Y15.122 E0.03 
 G1 X-19.864 Y14.581 E0.03 
 G1 X-20.624 Y13.976 E0.03 
 G1 X-21.188 Y13.454 E0.024 
 G1 X-22.319 Y12.338 E0.049 
 G1 X-22.982 Y11.628 E0.03 
 G1 X-23.584 Y10.866 E0.03 
 G1 X-24.121 Y10.057 E0.03 
 G1 X-24.535 Y9.316 E0.026 
 G1 X-25.246 Y7.927 E0.048 
 G1 X-25.653 Y7.045 E0.03 
 G1 X-25.985 Y6.132 E0.03 
 G1 X-26.242 Y5.195 E0.03 
 G1 X-26.43 Y4.174 E0.032 
 G1 X-26.687 Y2.324 E0.057 
 G1 X-26.781 Y1.357 E0.03 
 G1 X-26.799 Y0.694 E0.02 
 G1 X-26.789 Y-19.017 E0.603 
 G1 X-26.749 Y-19.988 E0.03 
 G1 X-26.643 Y-20.864 E0.027 
 G1 X-26.401 Y-22.386 E0.047 
 G1 X-26.209 Y-23.338 E0.03 
 G1 X-25.939 Y-24.271 E0.03 
 G1 X-25.594 Y-25.179 E0.03 
 G1 X-25.269 Y-25.873 E0.023 
 G1 X-24.561 Y-27.268 E0.048 
 G1 X-24.086 Y-28.116 E0.03 
 G1 X-23.543 Y-28.921 E0.03 
 G1 X-22.936 Y-29.679 E0.03 
 G1 X-22.398 Y-30.257 E0.024 
 G1 X-21.3 Y-31.359 E0.048 
 G1 X-20.587 Y-32.018 E0.03 
 G1 X-19.821 Y-32.616 E0.03 
 G1 X-19.01 Y-33.15 E0.03 
 G1 X-18.318 Y-33.534 E0.024 
 G1 X-16.927 Y-34.246 E0.048 
 G1 X-16.044 Y-34.653 E0.03 
 G1 X-15.132 Y-34.985 E0.03 
 G1 X-14.195 Y-35.242 E0.03 
 G1 X-13.174 Y-35.43 E0.032 
 G1 X-11.324 Y-35.687 E0.057 
 G1 X-10.357 Y-35.781 E0.03 
 G1 X-9.673 Y-35.799 E0.021 
 G1 X-9.674 Y-35.399 
 G1 X10.319 Y-35.353 E0.612 
 G1 X11.273 Y-35.311 E0.029 
 G1 X12.169 Y-35.198 E0.028 
 G1 X13.41 Y-34.991 E0.038 
 G1 X14.344 Y-34.794 E0.029 
 G1 X15.259 Y-34.52 E0.029 
 G1 X16.147 Y-34.171 E0.029 
 G1 X16.69 Y-33.913 E0.018 
 G1 X18.084 Y-33.206 E0.048 
 G1 X18.917 Y-32.739 E0.029 
 G1 X19.708 Y-32.204 E0.029 
 G1 X20.451 Y-31.604 E0.029 
 G1 X20.974 Y-31.115 E0.022 
 G1 X22.076 Y-30.017 E0.048 
 G1 X22.724 Y-29.315 E0.029 
 G1 X23.31 Y-28.562 E0.029 
 G1 X23.832 Y-27.762 E0.029 
 G1 X24.179 Y-27.132 E0.022 
 G1 X24.89 Y-25.742 E0.048 
 G1 X25.289 Y-24.875 E0.029 
 G1 X25.614 Y-23.977 E0.029 
 G1 X25.863 Y-23.055 E0.029 
 G1 X26.032 Y-22.125 E0.029 
 G1 X26.29 Y-20.274 E0.057 
 G1 X26.382 Y-19.323 E0.029 
 G1 X26.399 Y-18.694 E0.019 
 G1 X26.389 Y1.017 E0.603 
 G1 X26.349 Y1.971 E0.029 
 G1 X26.248 Y2.799 E0.026 
 G1 X26.008 Y4.31 E0.047 
 G1 X25.819 Y5.246 E0.029 
 G1 X25.552 Y6.163 E0.029 
 G1 X25.209 Y7.054 E0.029 
 G1 X24.934 Y7.644 E0.02 
 G1 X24.246 Y9.012 E0.047 
 G1 X23.781 Y9.846 E0.029 
 G1 X23.249 Y10.639 E0.029 
 G1 X22.652 Y11.384 E0.029 
 G1 X22.193 Y11.879 E0.021 
 G1 X21.073 Y13.019 E0.049 
 G1 X20.376 Y13.672 E0.029 
 G1 X19.627 Y14.264 E0.029 
 G1 X18.831 Y14.791 E0.029 
 G1 X18.135 Y15.178 E0.024 
 G1 X16.744 Y15.89 E0.048 
 G1 X15.877 Y16.289 E0.029 
 G1 X14.979 Y16.614 E0.029 
 G1 X14.057 Y16.863 E0.029 
 G1 X13.119 Y17.034 E0.029 
 G1 X11.269 Y17.291 E0.057 
 G1 X10.318 Y17.382 E0.029 
 G1 X9.694 Y17.399 E0.019 
 G1 X-10.017 Y17.389 E0.603 
 G1 X-10.971 Y17.349 E0.029 
 G1 X-11.799 Y17.248 E0.026 
 G1 X-13.31 Y17.008 E0.047 
 G1 X-14.246 Y16.819 E0.029 
 G1 X-15.163 Y16.552 E0.029 
 G1 X-16.054 Y16.209 E0.029 
 G1 X-16.65 Y15.931 E0.02 
 G1 X-18.028 Y15.237 E0.047 
 G1 X-18.862 Y14.772 E0.029 
 G1 X-19.654 Y14.239 E0.029 
 G1 X-20.399 Y13.642 E0.029 
 G1 X-20.907 Y13.17 E0.021 
 G1 X-22.038 Y12.054 E0.049 
 G1 X-22.689 Y11.355 E0.029 
 G1 X-23.279 Y10.605 E0.029 
 G1 X-23.805 Y9.807 E0.029 
 G1 X-24.179 Y9.133 E0.024 
 G1 X-24.89 Y7.744 E0.048 
 G1 X-25.289 Y6.877 E0.029 
 G1 X-25.614 Y5.979 E0.029 
 G1 X-25.863 Y5.058 E0.029 
 G1 X-26.034 Y4.119 E0.029 
 G1 X-26.291 Y2.269 E0.057 
 G1 X-26.382 Y1.318 E0.029 
 G1 X-26.399 Y0.694 E0.019 
 G1 X-26.389 Y-19.017 E0.603 
 G1 X-26.349 Y-19.971 E0.029 
 G1 X-26.248 Y-20.801 E0.026 
 G1 X-26.006 Y-22.323 E0.047 
 G1 X-25.816 Y-23.259 E0.029 
 G1 X-25.549 Y-24.176 E0.029 
 G1 X-25.207 Y-25.067 E0.029 
 G1 X-24.913 Y-25.692 E0.021 
 G1 X-24.205 Y-27.087 E0.048 
 G1 X-23.737 Y-27.92 E0.029 
 G1 X-23.202 Y-28.71 E0.029 
 G1 X-22.602 Y-29.453 E0.029 
 G1 X-22.115 Y-29.974 E0.022 
 G1 X-21.017 Y-31.076 E0.048 
 G1 X-20.315 Y-31.724 E0.029 
 G1 X-19.562 Y-32.31 E0.029 
 G1 X-18.762 Y-32.832 E0.029 
 G1 X-18.135 Y-33.178 E0.022 
 G1 X-16.744 Y-33.89 E0.048 
 G1 X-15.877 Y-34.289 E0.029 
 G1 X-14.979 Y-34.614 E0.029 
 G1 X-14.057 Y-34.863 E0.029 
 G1 X-13.119 Y-35.034 E0.029 
 G1 X-11.269 Y-35.291 E0.057 
 G1 X-10.318 Y-35.382 E0.029 
 G1 X-9.674 Y-35.399 E0.02 
 G1 X-9.675 Y-34.999 
 G1 X10.318 Y-34.953 E0.612 
 G1 X11.255 Y-34.911 E0.029 
 G1 X12.103 Y-34.803 E0.026 
 G1 X13.344 Y-34.596 E0.038 
 G1 X14.261 Y-34.402 E0.029 
 G1 X15.159 Y-34.131 E0.029 
 G1 X16.031 Y-33.785 E0.029 
 G1 X16.51 Y-33.556 E0.016 
 G1 X17.904 Y-32.849 E0.048 
 G1 X18.721 Y-32.39 E0.029 
 G1 X19.497 Y-31.862 E0.029 
 G1 X20.224 Y-31.271 E0.029 
 G1 X20.692 Y-30.831 E0.02 
 G1 X21.794 Y-29.733 E0.048 
 G1 X22.43 Y-29.044 E0.029 
 G1 X23.004 Y-28.302 E0.029 
 G1 X23.513 Y-27.515 E0.029 
 G1 X23.823 Y-26.95 E0.02 
 G1 X24.534 Y-25.56 E0.048 
 G1 X24.925 Y-24.708 E0.029 
 G1 X25.242 Y-23.825 E0.029 
 G1 X25.483 Y-22.919 E0.029 
 G1 X25.636 Y-22.07 E0.026 
 G1 X25.894 Y-20.219 E0.057 
 G1 X25.983 Y-19.285 E0.029 
 G1 X25.999 Y-18.694 E0.018 
