
TRAORI
G1 Z = 435 F1500
G1 X=-1.299 Y=154.950
TRACON
F 1500
G1 Z=236.6
G1 X=0 Y=0 
ORIRESET
G645 ;SMOOTH CORNERS
CYCLE832(0.1,_FINISH,1)
ORIVECT
MSG("Check: Extruder ready?")
M0
MSG("Printing")
G54
;FLAVOR:Repetier

;TIME:709

;Generated with Cura_SteamEngine 4.0.0

 
 
 
 
 
 G1 EXT=IC( -8.0 ) F1500 
;LAYER_COUNT:51

;LAYER:0

 
 G1 X-9.67 Y-36.999 Z0.2 F1200 
;TYPE:SKIRT

 G1 EXT=IC( 8.0 ) F1500 
 G1 X10.323 Y-36.953 EXT=IC( 0.612 ) F1200 
 G1 X11.342 Y-36.911 EXT=IC( 0.031 ) 
 G1 X12.432 Y-36.776 EXT=IC( 0.034 ) 
 G1 X13.673 Y-36.569 EXT=IC( 0.038 ) 
 G1 X14.671 Y-36.362 EXT=IC( 0.031 ) 
 G1 X15.65 Y-36.077 EXT=IC( 0.031 ) 
 G1 X16.604 Y-35.717 EXT=IC( 0.031 ) 
 G1 X17.414 Y-35.34 EXT=IC( 0.027 ) 
 G1 X18.808 Y-34.633 EXT=IC( 0.048 ) 
 G1 X19.699 Y-34.137 EXT=IC( 0.031 ) 
 G1 X20.548 Y-33.572 EXT=IC( 0.031 ) 
 G1 X21.35 Y-32.942 EXT=IC( 0.031 ) 
 G1 X22.104 Y-32.248 EXT=IC( 0.031 ) 
 G1 X23.206 Y-31.15 EXT=IC( 0.048 ) 
 G1 X23.899 Y-30.403 EXT=IC( 0.031 ) 
 G1 X24.532 Y-29.603 EXT=IC( 0.031 ) 
 G1 X25.1 Y-28.757 EXT=IC( 0.031 ) 
 G1 X25.604 Y-27.861 EXT=IC( 0.031 ) 
 G1 X26.315 Y-26.471 EXT=IC( 0.048 ) 
 G1 X26.743 Y-25.546 EXT=IC( 0.031 ) 
 G1 X27.098 Y-24.59 EXT=IC( 0.031 ) 
 G1 X27.376 Y-23.609 EXT=IC( 0.031 ) 
 G1 X27.617 Y-22.346 EXT=IC( 0.039 ) 
 G1 X27.875 Y-20.495 EXT=IC( 0.057 ) 
 G1 X27.976 Y-19.48 EXT=IC( 0.031 ) 
 G1 X27.999 Y-18.693 EXT=IC( 0.024 ) 
 G1 X27.989 Y1.018 EXT=IC( 0.603 ) 
 G1 X27.948 Y2.036 EXT=IC( 0.031 ) 
 G1 X27.828 Y3.05 EXT=IC( 0.031 ) 
 G1 X27.588 Y4.561 EXT=IC( 0.047 ) 
 G1 X27.389 Y5.561 EXT=IC( 0.031 ) 
 G1 X27.112 Y6.542 EXT=IC( 0.031 ) 
 G1 X26.759 Y7.499 EXT=IC( 0.031 ) 
 G1 X26.363 Y8.363 EXT=IC( 0.029 ) 
 G1 X25.675 Y9.731 EXT=IC( 0.047 ) 
 G1 X25.181 Y10.623 EXT=IC( 0.031 ) 
 G1 X24.62 Y11.474 EXT=IC( 0.031 ) 
 G1 X23.993 Y12.278 EXT=IC( 0.031 ) 
 G1 X23.334 Y13.001 EXT=IC( 0.03 ) 
 G1 X22.214 Y14.141 EXT=IC( 0.049 ) 
 G1 X21.472 Y14.839 EXT=IC( 0.031 ) 
 G1 X20.677 Y15.478 EXT=IC( 0.031 ) 
 G1 X19.834 Y16.052 EXT=IC( 0.031 ) 
 G1 X18.864 Y16.602 EXT=IC( 0.034 ) 
 G1 X17.473 Y17.314 EXT=IC( 0.048 ) 
 G1 X16.548 Y17.743 EXT=IC( 0.031 ) 
 G1 X15.592 Y18.098 EXT=IC( 0.031 ) 
 G1 X14.612 Y18.376 EXT=IC( 0.031 ) 
 G1 X13.339 Y18.618 EXT=IC( 0.04 ) 
 G1 X11.489 Y18.875 EXT=IC( 0.057 ) 
 G1 X10.474 Y18.976 EXT=IC( 0.031 ) 
 G1 X9.693 Y18.999 EXT=IC( 0.024 ) 
 G1 X-10.018 Y18.989 EXT=IC( 0.603 ) 
 G1 X-11.036 Y18.948 EXT=IC( 0.031 ) 
 G1 X-12.05 Y18.828 EXT=IC( 0.031 ) 
 G1 X-13.561 Y18.588 EXT=IC( 0.047 ) 
 G1 X-14.561 Y18.389 EXT=IC( 0.031 ) 
 G1 X-15.542 Y18.112 EXT=IC( 0.031 ) 
 G1 X-16.499 Y17.759 EXT=IC( 0.031 ) 
 G1 X-17.369 Y17.36 EXT=IC( 0.029 ) 
 G1 X-18.747 Y16.666 EXT=IC( 0.047 ) 
 G1 X-19.639 Y16.172 EXT=IC( 0.031 ) 
 G1 X-20.49 Y15.609 EXT=IC( 0.031 ) 
 G1 X-21.294 Y14.982 EXT=IC( 0.031 ) 
 G1 X-22.031 Y14.309 EXT=IC( 0.031 ) 
 G1 X-23.162 Y13.193 EXT=IC( 0.049 ) 
 G1 X-23.859 Y12.448 EXT=IC( 0.031 ) 
 G1 X-24.496 Y11.652 EXT=IC( 0.031 ) 
 G1 X-25.068 Y10.808 EXT=IC( 0.031 ) 
 G1 X-25.603 Y9.862 EXT=IC( 0.033 ) 
 G1 X-26.314 Y8.473 EXT=IC( 0.048 ) 
 G1 X-26.743 Y7.548 EXT=IC( 0.031 ) 
 G1 X-27.098 Y6.592 EXT=IC( 0.031 ) 
 G1 X-27.376 Y5.612 EXT=IC( 0.031 ) 
 G1 X-27.618 Y4.339 EXT=IC( 0.04 ) 
 G1 X-27.875 Y2.489 EXT=IC( 0.057 ) 
 G1 X-27.976 Y1.474 EXT=IC( 0.031 ) 
 G1 X-27.999 Y0.693 EXT=IC( 0.024 ) 
 G1 X-27.989 Y-19.018 EXT=IC( 0.603 ) 
 G1 X-27.948 Y-20.036 EXT=IC( 0.031 ) 
 G1 X-27.828 Y-21.052 EXT=IC( 0.031 ) 
 G1 X-27.586 Y-22.574 EXT=IC( 0.047 ) 
 G1 X-27.386 Y-23.574 EXT=IC( 0.031 ) 
 G1 X-27.109 Y-24.555 EXT=IC( 0.031 ) 
 G1 X-26.756 Y-25.512 EXT=IC( 0.031 ) 
 G1 X-26.339 Y-26.416 EXT=IC( 0.03 ) 
 G1 X-25.631 Y-27.811 EXT=IC( 0.048 ) 
 G1 X-25.135 Y-28.702 EXT=IC( 0.031 ) 
 G1 X-24.57 Y-29.551 EXT=IC( 0.031 ) 
 G1 X-23.94 Y-30.352 EXT=IC( 0.031 ) 
 G1 X-23.248 Y-31.104 EXT=IC( 0.031 ) 
 G1 X-22.15 Y-32.206 EXT=IC( 0.048 ) 
 G1 X-21.403 Y-32.899 EXT=IC( 0.031 ) 
 G1 X-20.603 Y-33.532 EXT=IC( 0.031 ) 
 G1 X-19.757 Y-34.1 EXT=IC( 0.031 ) 
 G1 X-18.864 Y-34.602 EXT=IC( 0.031 ) 
 G1 X-17.473 Y-35.314 EXT=IC( 0.048 ) 
 G1 X-16.548 Y-35.743 EXT=IC( 0.031 ) 
 G1 X-15.592 Y-36.098 EXT=IC( 0.031 ) 
 G1 X-14.612 Y-36.376 EXT=IC( 0.031 ) 
 G1 X-13.339 Y-36.618 EXT=IC( 0.04 ) 
 G1 X-11.489 Y-36.875 EXT=IC( 0.057 ) 
 G1 X-10.474 Y-36.976 EXT=IC( 0.031 ) 
 G1 X-9.67 Y-36.999 EXT=IC( 0.025 ) 
 G1 X-9.671 Y-36.599 
 G1 X10.322 Y-36.553 EXT=IC( 0.612 ) 
 G1 X11.325 Y-36.511 EXT=IC( 0.031 ) 
 G1 X12.366 Y-36.381 EXT=IC( 0.032 ) 
 G1 X13.607 Y-36.174 EXT=IC( 0.038 ) 
 G1 X14.59 Y-35.97 EXT=IC( 0.031 ) 
 G1 X15.553 Y-35.688 EXT=IC( 0.031 ) 
 G1 X16.491 Y-35.33 EXT=IC( 0.031 ) 
 G1 X17.233 Y-34.983 EXT=IC( 0.025 ) 
 G1 X18.627 Y-34.276 EXT=IC( 0.048 ) 
 G1 X19.504 Y-33.787 EXT=IC( 0.031 ) 
 G1 X20.338 Y-33.229 EXT=IC( 0.031 ) 
 G1 X21.126 Y-32.607 EXT=IC( 0.031 ) 
 G1 X21.821 Y-31.965 EXT=IC( 0.029 ) 
 G1 X22.923 Y-30.867 EXT=IC( 0.048 ) 
 G1 X23.606 Y-30.13 EXT=IC( 0.031 ) 
 G1 X24.227 Y-29.342 EXT=IC( 0.031 ) 
 G1 X24.784 Y-28.507 EXT=IC( 0.031 ) 
 G1 X25.248 Y-27.679 EXT=IC( 0.029 ) 
 G1 X25.959 Y-26.289 EXT=IC( 0.048 ) 
 G1 X26.38 Y-25.378 EXT=IC( 0.031 ) 
 G1 X26.727 Y-24.436 EXT=IC( 0.031 ) 
 G1 X26.998 Y-23.47 EXT=IC( 0.031 ) 
 G1 X27.22 Y-22.29 EXT=IC( 0.037 ) 
 G1 X27.478 Y-20.439 EXT=IC( 0.057 ) 
 G1 X27.577 Y-19.441 EXT=IC( 0.031 ) 
 G1 X27.599 Y-18.694 EXT=IC( 0.023 ) 
 G1 X27.589 Y1.017 EXT=IC( 0.603 ) 
 G1 X27.549 Y2.02 EXT=IC( 0.031 ) 
 G1 X27.433 Y2.988 EXT=IC( 0.03 ) 
 G1 X27.193 Y4.499 EXT=IC( 0.047 ) 
 G1 X26.996 Y5.483 EXT=IC( 0.031 ) 
 G1 X26.722 Y6.448 EXT=IC( 0.031 ) 
 G1 X26.371 Y7.389 EXT=IC( 0.031 ) 
 G1 X26.006 Y8.183 EXT=IC( 0.027 ) 
 G1 X25.318 Y9.551 EXT=IC( 0.047 ) 
 G1 X24.831 Y10.429 EXT=IC( 0.031 ) 
 G1 X24.276 Y11.266 EXT=IC( 0.031 ) 
 G1 X23.657 Y12.056 EXT=IC( 0.031 ) 
 G1 X23.049 Y12.72 EXT=IC( 0.028 ) 
 G1 X21.929 Y13.86 EXT=IC( 0.049 ) 
 G1 X21.198 Y14.548 EXT=IC( 0.031 ) 
 G1 X20.414 Y15.175 EXT=IC( 0.031 ) 
 G1 X19.582 Y15.738 EXT=IC( 0.031 ) 
 G1 X18.682 Y16.246 EXT=IC( 0.032 ) 
 G1 X17.291 Y16.958 EXT=IC( 0.048 ) 
 G1 X16.38 Y17.379 EXT=IC( 0.031 ) 
 G1 X15.438 Y17.727 EXT=IC( 0.031 ) 
 G1 X14.472 Y17.999 EXT=IC( 0.031 ) 
 G1 X13.284 Y18.222 EXT=IC( 0.037 ) 
 G1 X11.434 Y18.479 EXT=IC( 0.057 ) 
 G1 X10.435 Y18.578 EXT=IC( 0.031 ) 
 G1 X9.694 Y18.599 EXT=IC( 0.023 ) 
 G1 X-10.017 Y18.589 EXT=IC( 0.603 ) 
 G1 X-11.02 Y18.549 EXT=IC( 0.031 ) 
 G1 X-11.988 Y18.433 EXT=IC( 0.03 ) 
 G1 X-13.499 Y18.193 EXT=IC( 0.047 ) 
 G1 X-14.483 Y17.996 EXT=IC( 0.031 ) 
 G1 X-15.448 Y17.722 EXT=IC( 0.031 ) 
 G1 X-16.389 Y17.371 EXT=IC( 0.031 ) 
 G1 X-17.19 Y17.002 EXT=IC( 0.027 ) 
 G1 X-18.568 Y16.308 EXT=IC( 0.047 ) 
 G1 X-19.445 Y15.822 EXT=IC( 0.031 ) 
 G1 X-20.282 Y15.266 EXT=IC( 0.031 ) 
 G1 X-21.071 Y14.646 EXT=IC( 0.031 ) 
 G1 X-21.75 Y14.024 EXT=IC( 0.028 ) 
 G1 X-22.881 Y12.908 EXT=IC( 0.049 ) 
 G1 X-23.567 Y12.175 EXT=IC( 0.031 ) 
 G1 X-24.192 Y11.39 EXT=IC( 0.031 ) 
 G1 X-24.753 Y10.557 EXT=IC( 0.031 ) 
 G1 X-25.247 Y9.68 EXT=IC( 0.031 ) 
 G1 X-25.958 Y8.291 EXT=IC( 0.048 ) 
 G1 X-26.379 Y7.38 EXT=IC( 0.031 ) 
 G1 X-26.727 Y6.438 EXT=IC( 0.031 ) 
 G1 X-26.998 Y5.472 EXT=IC( 0.031 ) 
 G1 X-27.222 Y4.284 EXT=IC( 0.037 ) 
 G1 X-27.479 Y2.434 EXT=IC( 0.057 ) 
 G1 X-27.578 Y1.435 EXT=IC( 0.031 ) 
 G1 X-27.599 Y0.694 EXT=IC( 0.023 ) 
 G1 X-27.589 Y-19.017 EXT=IC( 0.603 ) 
 G1 X-27.549 Y-20.02 EXT=IC( 0.031 ) 
 G1 X-27.433 Y-20.99 EXT=IC( 0.03 ) 
 G1 X-27.191 Y-22.512 EXT=IC( 0.047 ) 
 G1 X-26.994 Y-23.496 EXT=IC( 0.031 ) 
 G1 X-26.719 Y-24.461 EXT=IC( 0.031 ) 
 G1 X-26.368 Y-25.402 EXT=IC( 0.031 ) 
 G1 X-25.983 Y-26.235 EXT=IC( 0.028 ) 
 G1 X-25.275 Y-27.63 EXT=IC( 0.048 ) 
 G1 X-24.785 Y-28.507 EXT=IC( 0.031 ) 
 G1 X-24.227 Y-29.341 EXT=IC( 0.031 ) 
 G1 X-23.605 Y-30.129 EXT=IC( 0.031 ) 
 G1 X-22.965 Y-30.821 EXT=IC( 0.029 ) 
 G1 X-21.867 Y-31.923 EXT=IC( 0.048 ) 
 G1 X-21.13 Y-32.606 EXT=IC( 0.031 ) 
 G1 X-20.342 Y-33.227 EXT=IC( 0.031 ) 
 G1 X-19.507 Y-33.784 EXT=IC( 0.031 ) 
 G1 X-18.682 Y-34.246 EXT=IC( 0.029 ) 
 G1 X-17.291 Y-34.958 EXT=IC( 0.048 ) 
 G1 X-16.38 Y-35.379 EXT=IC( 0.031 ) 
 G1 X-15.438 Y-35.727 EXT=IC( 0.031 ) 
 G1 X-14.472 Y-35.999 EXT=IC( 0.031 ) 
 G1 X-13.284 Y-36.222 EXT=IC( 0.037 ) 
 G1 X-11.434 Y-36.479 EXT=IC( 0.057 ) 
 G1 X-10.435 Y-36.578 EXT=IC( 0.031 ) 
 G1 X-9.671 Y-36.599 EXT=IC( 0.023 ) 
 G1 X-9.672 Y-36.199 
 G1 X10.321 Y-36.153 EXT=IC( 0.612 ) 
 G1 X11.308 Y-36.111 EXT=IC( 0.03 ) 
 G1 X12.3 Y-35.987 EXT=IC( 0.031 ) 
 G1 X13.541 Y-35.78 EXT=IC( 0.038 ) 
 G1 X14.508 Y-35.578 EXT=IC( 0.03 ) 
 G1 X15.456 Y-35.299 EXT=IC( 0.03 ) 
 G1 X16.377 Y-34.943 EXT=IC( 0.03 ) 
 G1 X17.052 Y-34.627 EXT=IC( 0.023 ) 
 G1 X18.446 Y-33.92 EXT=IC( 0.048 ) 
 G1 X19.308 Y-33.438 EXT=IC( 0.03 ) 
 G1 X20.129 Y-32.887 EXT=IC( 0.03 ) 
 G1 X20.902 Y-32.273 EXT=IC( 0.03 ) 
 G1 X21.539 Y-31.681 EXT=IC( 0.027 ) 
 G1 X22.641 Y-30.583 EXT=IC( 0.048 ) 
 G1 X23.312 Y-29.858 EXT=IC( 0.03 ) 
 G1 X23.922 Y-29.082 EXT=IC( 0.03 ) 
 G1 X24.467 Y-28.258 EXT=IC( 0.03 ) 
 G1 X24.892 Y-27.497 EXT=IC( 0.027 ) 
 G1 X25.603 Y-26.107 EXT=IC( 0.048 ) 
 G1 X26.016 Y-25.21 EXT=IC( 0.03 ) 
 G1 X26.356 Y-24.283 EXT=IC( 0.03 ) 
 G1 X26.62 Y-23.331 EXT=IC( 0.03 ) 
 G1 X26.824 Y-22.235 EXT=IC( 0.034 ) 
 G1 X27.082 Y-20.384 EXT=IC( 0.057 ) 
 G1 X27.179 Y-19.401 EXT=IC( 0.03 ) 
 G1 X27.199 Y-18.694 EXT=IC( 0.022 ) 
 G1 X27.189 Y1.017 EXT=IC( 0.603 ) 
 G1 X27.149 Y2.004 EXT=IC( 0.03 ) 
 G1 X27.038 Y2.925 EXT=IC( 0.028 ) 
 G1 X26.798 Y4.436 EXT=IC( 0.047 ) 
 G1 X26.604 Y5.404 EXT=IC( 0.03 ) 
 G1 X26.332 Y6.354 EXT=IC( 0.03 ) 
 G1 X25.984 Y7.278 EXT=IC( 0.03 ) 
 G1 X25.648 Y8.003 EXT=IC( 0.024 ) 
 G1 X24.96 Y9.371 EXT=IC( 0.047 ) 
 G1 X24.481 Y10.235 EXT=IC( 0.03 ) 
 G1 X23.934 Y11.057 EXT=IC( 0.03 ) 
 G1 X23.321 Y11.833 EXT=IC( 0.03 ) 
 G1 X22.764 Y12.44 EXT=IC( 0.025 ) 
 G1 X21.644 Y13.58 EXT=IC( 0.049 ) 
 G1 X20.924 Y14.256 EXT=IC( 0.03 ) 
 G1 X20.151 Y14.872 EXT=IC( 0.03 ) 
 G1 X19.331 Y15.423 EXT=IC( 0.03 ) 
 G1 X18.5 Y15.89 EXT=IC( 0.029 ) 
 G1 X17.109 Y16.602 EXT=IC( 0.048 ) 
 G1 X16.212 Y17.016 EXT=IC( 0.03 ) 
 G1 X15.285 Y17.356 EXT=IC( 0.03 ) 
 G1 X14.333 Y17.62 EXT=IC( 0.03 ) 
 G1 X13.229 Y17.826 EXT=IC( 0.034 ) 
 G1 X11.379 Y18.083 EXT=IC( 0.057 ) 
 G1 X10.396 Y18.179 EXT=IC( 0.03 ) 
 G1 X9.694 Y18.199 EXT=IC( 0.021 ) 
 G1 X-10.017 Y18.189 EXT=IC( 0.603 ) 
 G1 X-11.004 Y18.149 EXT=IC( 0.03 ) 
 G1 X-11.925 Y18.038 EXT=IC( 0.028 ) 
 G1 X-13.436 Y17.798 EXT=IC( 0.047 ) 
 G1 X-14.404 Y17.604 EXT=IC( 0.03 ) 
 G1 X-15.354 Y17.332 EXT=IC( 0.03 ) 
 G1 X-16.278 Y16.984 EXT=IC( 0.03 ) 
 G1 X-17.01 Y16.645 EXT=IC( 0.025 ) 
 G1 X-18.388 Y15.951 EXT=IC( 0.047 ) 
 G1 X-19.251 Y15.472 EXT=IC( 0.03 ) 
 G1 X-20.073 Y14.924 EXT=IC( 0.03 ) 
 G1 X-20.848 Y14.311 EXT=IC( 0.03 ) 
 G1 X-21.469 Y13.739 EXT=IC( 0.026 ) 
 G1 X-22.6 Y12.623 EXT=IC( 0.049 ) 
 G1 X-23.274 Y11.901 EXT=IC( 0.03 ) 
 G1 X-23.888 Y11.128 EXT=IC( 0.03 ) 
 G1 X-24.437 Y10.307 EXT=IC( 0.03 ) 
 G1 X-24.891 Y9.498 EXT=IC( 0.028 ) 
 G1 X-25.602 Y8.109 EXT=IC( 0.048 ) 
 G1 X-26.016 Y7.212 EXT=IC( 0.03 ) 
 G1 X-26.356 Y6.285 EXT=IC( 0.03 ) 
 G1 X-26.62 Y5.333 EXT=IC( 0.03 ) 
 G1 X-26.826 Y4.229 EXT=IC( 0.034 ) 
 G1 X-27.083 Y2.379 EXT=IC( 0.057 ) 
 G1 X-27.179 Y1.396 EXT=IC( 0.03 ) 
 G1 X-27.199 Y0.694 EXT=IC( 0.021 ) 
 G1 X-27.189 Y-19.017 EXT=IC( 0.603 ) 
 G1 X-27.149 Y-20.004 EXT=IC( 0.03 ) 
 G1 X-27.038 Y-20.927 EXT=IC( 0.028 ) 
 G1 X-26.796 Y-22.449 EXT=IC( 0.047 ) 
 G1 X-26.601 Y-23.417 EXT=IC( 0.03 ) 
 G1 X-26.329 Y-24.367 EXT=IC( 0.03 ) 
 G1 X-25.981 Y-25.291 EXT=IC( 0.03 ) 
 G1 X-25.626 Y-26.054 EXT=IC( 0.026 ) 
 G1 X-24.918 Y-27.449 EXT=IC( 0.048 ) 
 G1 X-24.436 Y-28.311 EXT=IC( 0.03 ) 
 G1 X-23.885 Y-29.131 EXT=IC( 0.03 ) 
 G1 X-23.27 Y-29.904 EXT=IC( 0.03 ) 
 G1 X-22.681 Y-30.539 EXT=IC( 0.026 ) 
 G1 X-21.583 Y-31.641 EXT=IC( 0.048 ) 
 G1 X-20.858 Y-32.312 EXT=IC( 0.03 ) 
 G1 X-20.082 Y-32.922 EXT=IC( 0.03 ) 
 G1 X-19.258 Y-33.467 EXT=IC( 0.03 ) 
 G1 X-18.5 Y-33.89 EXT=IC( 0.027 ) 
 G1 X-17.109 Y-34.602 EXT=IC( 0.048 ) 
 G1 X-16.212 Y-35.016 EXT=IC( 0.03 ) 
 G1 X-15.285 Y-35.356 EXT=IC( 0.03 ) 
 G1 X-14.333 Y-35.62 EXT=IC( 0.03 ) 
 G1 X-13.229 Y-35.826 EXT=IC( 0.034 ) 
 G1 X-11.379 Y-36.083 EXT=IC( 0.057 ) 
 G1 X-10.396 Y-36.179 EXT=IC( 0.03 ) 
 G1 X-9.672 Y-36.199 EXT=IC( 0.022 ) 
 G1 X-9.673 Y-35.799 
 G1 X10.32 Y-35.753 EXT=IC( 0.612 ) 
 G1 X11.291 Y-35.711 EXT=IC( 0.03 ) 
 G1 X12.234 Y-35.592 EXT=IC( 0.029 ) 
 G1 X13.475 Y-35.385 EXT=IC( 0.038 ) 
 G1 X14.426 Y-35.186 EXT=IC( 0.03 ) 
 G1 X15.357 Y-34.909 EXT=IC( 0.03 ) 
 G1 X16.263 Y-34.557 EXT=IC( 0.03 ) 
 G1 X16.871 Y-34.27 EXT=IC( 0.021 ) 
 G1 X18.265 Y-33.563 EXT=IC( 0.048 ) 
 G1 X19.113 Y-33.088 EXT=IC( 0.03 ) 
 G1 X19.919 Y-32.545 EXT=IC( 0.03 ) 
 G1 X20.677 Y-31.938 EXT=IC( 0.03 ) 
 G1 X21.257 Y-31.398 EXT=IC( 0.024 ) 
 G1 X22.359 Y-30.3 EXT=IC( 0.048 ) 
 G1 X23.018 Y-29.587 EXT=IC( 0.03 ) 
 G1 X23.616 Y-28.821 EXT=IC( 0.03 ) 
 G1 X24.15 Y-28.01 EXT=IC( 0.03 ) 
 G1 X24.535 Y-27.315 EXT=IC( 0.024 ) 
 G1 X25.246 Y-25.925 EXT=IC( 0.048 ) 
 G1 X25.653 Y-25.042 EXT=IC( 0.03 ) 
 G1 X25.985 Y-24.13 EXT=IC( 0.03 ) 
 G1 X26.242 Y-23.193 EXT=IC( 0.03 ) 
 G1 X26.428 Y-22.18 EXT=IC( 0.032 ) 
 G1 X26.686 Y-20.329 EXT=IC( 0.057 ) 
 G1 X26.78 Y-19.362 EXT=IC( 0.03 ) 
 G1 X26.799 Y-18.694 EXT=IC( 0.02 ) 
 G1 X26.789 Y1.017 EXT=IC( 0.603 ) 
 G1 X26.749 Y1.988 EXT=IC( 0.03 ) 
 G1 X26.643 Y2.862 EXT=IC( 0.027 ) 
 G1 X26.403 Y4.373 EXT=IC( 0.047 ) 
 G1 X26.211 Y5.325 EXT=IC( 0.03 ) 
 G1 X25.942 Y6.259 EXT=IC( 0.03 ) 
 G1 X25.596 Y7.167 EXT=IC( 0.03 ) 
 G1 X25.291 Y7.824 EXT=IC( 0.022 ) 
 G1 X24.603 Y9.192 EXT=IC( 0.047 ) 
 G1 X24.131 Y10.041 EXT=IC( 0.03 ) 
 G1 X23.591 Y10.848 EXT=IC( 0.03 ) 
 G1 X22.986 Y11.609 EXT=IC( 0.03 ) 
 G1 X22.478 Y12.16 EXT=IC( 0.023 ) 
 G1 X21.358 Y13.3 EXT=IC( 0.049 ) 
 G1 X20.65 Y13.964 EXT=IC( 0.03 ) 
 G1 X19.889 Y14.568 EXT=IC( 0.03 ) 
 G1 X19.081 Y15.107 EXT=IC( 0.03 ) 
 G1 X18.318 Y15.534 EXT=IC( 0.027 ) 
 G1 X16.927 Y16.246 EXT=IC( 0.048 ) 
 G1 X16.044 Y16.653 EXT=IC( 0.03 ) 
 G1 X15.132 Y16.985 EXT=IC( 0.03 ) 
 G1 X14.195 Y17.242 EXT=IC( 0.03 ) 
 G1 X13.174 Y17.43 EXT=IC( 0.032 ) 
 G1 X11.324 Y17.687 EXT=IC( 0.057 ) 
 G1 X10.357 Y17.781 EXT=IC( 0.03 ) 
 G1 X9.694 Y17.799 EXT=IC( 0.02 ) 
 G1 X-10.017 Y17.789 EXT=IC( 0.603 ) 
 G1 X-10.988 Y17.749 EXT=IC( 0.03 ) 
 G1 X-11.862 Y17.643 EXT=IC( 0.027 ) 
 G1 X-13.373 Y17.403 EXT=IC( 0.047 ) 
 G1 X-14.325 Y17.211 EXT=IC( 0.03 ) 
 G1 X-15.259 Y16.942 EXT=IC( 0.03 ) 
 G1 X-16.167 Y16.596 EXT=IC( 0.03 ) 
 G1 X-16.83 Y16.288 EXT=IC( 0.022 ) 
 G1 X-18.208 Y15.594 EXT=IC( 0.047 ) 
 G1 X-19.057 Y15.122 EXT=IC( 0.03 ) 
 G1 X-19.864 Y14.581 EXT=IC( 0.03 ) 
 G1 X-20.624 Y13.976 EXT=IC( 0.03 ) 
 G1 X-21.188 Y13.454 EXT=IC( 0.024 ) 
 G1 X-22.319 Y12.338 EXT=IC( 0.049 ) 
 G1 X-22.982 Y11.628 EXT=IC( 0.03 ) 
 G1 X-23.584 Y10.866 EXT=IC( 0.03 ) 
 G1 X-24.121 Y10.057 EXT=IC( 0.03 ) 
 G1 X-24.535 Y9.316 EXT=IC( 0.026 ) 
 G1 X-25.246 Y7.927 EXT=IC( 0.048 ) 
 G1 X-25.653 Y7.045 EXT=IC( 0.03 ) 
 G1 X-25.985 Y6.132 EXT=IC( 0.03 ) 
 G1 X-26.242 Y5.195 EXT=IC( 0.03 ) 
 G1 X-26.43 Y4.174 EXT=IC( 0.032 ) 
 G1 X-26.687 Y2.324 EXT=IC( 0.057 ) 
 G1 X-26.781 Y1.357 EXT=IC( 0.03 ) 
 G1 X-26.799 Y0.694 EXT=IC( 0.02 ) 
 G1 X-26.789 Y-19.017 EXT=IC( 0.603 ) 
 G1 X-26.749 Y-19.988 EXT=IC( 0.03 ) 
 G1 X-26.643 Y-20.864 EXT=IC( 0.027 ) 
 G1 X-26.401 Y-22.386 EXT=IC( 0.047 ) 
 G1 X-26.209 Y-23.338 EXT=IC( 0.03 ) 
 G1 X-25.939 Y-24.271 EXT=IC( 0.03 ) 
 G1 X-25.594 Y-25.179 EXT=IC( 0.03 ) 
 G1 X-25.269 Y-25.873 EXT=IC( 0.023 ) 
 G1 X-24.561 Y-27.268 EXT=IC( 0.048 ) 
 G1 X-24.086 Y-28.116 EXT=IC( 0.03 ) 
 G1 X-23.543 Y-28.921 EXT=IC( 0.03 ) 
 G1 X-22.936 Y-29.679 EXT=IC( 0.03 ) 
 G1 X-22.398 Y-30.257 EXT=IC( 0.024 ) 
 G1 X-21.3 Y-31.359 EXT=IC( 0.048 ) 
 G1 X-20.587 Y-32.018 EXT=IC( 0.03 ) 
 G1 X-19.821 Y-32.616 EXT=IC( 0.03 ) 
 G1 X-19.01 Y-33.15 EXT=IC( 0.03 ) 
 G1 X-18.318 Y-33.534 EXT=IC( 0.024 ) 
 G1 X-16.927 Y-34.246 EXT=IC( 0.048 ) 
 G1 X-16.044 Y-34.653 EXT=IC( 0.03 ) 
 G1 X-15.132 Y-34.985 EXT=IC( 0.03 ) 
 G1 X-14.195 Y-35.242 EXT=IC( 0.03 ) 
 G1 X-13.174 Y-35.43 EXT=IC( 0.032 ) 
 G1 X-11.324 Y-35.687 EXT=IC( 0.057 ) 
 G1 X-10.357 Y-35.781 EXT=IC( 0.03 ) 
 G1 X-9.673 Y-35.799 EXT=IC( 0.021 ) 
 G1 X-9.674 Y-35.399 
 G1 X10.319 Y-35.353 EXT=IC( 0.612 ) 
 G1 X11.273 Y-35.311 EXT=IC( 0.029 ) 
 G1 X12.169 Y-35.198 EXT=IC( 0.028 ) 
 G1 X13.41 Y-34.991 EXT=IC( 0.038 ) 
 G1 X14.344 Y-34.794 EXT=IC( 0.029 ) 
 G1 X15.259 Y-34.52 EXT=IC( 0.029 ) 
 G1 X16.147 Y-34.171 EXT=IC( 0.029 ) 
 G1 X16.69 Y-33.913 EXT=IC( 0.018 ) 
 G1 X18.084 Y-33.206 EXT=IC( 0.048 ) 
 G1 X18.917 Y-32.739 EXT=IC( 0.029 ) 
 G1 X19.708 Y-32.204 EXT=IC( 0.029 ) 
 G1 X20.451 Y-31.604 EXT=IC( 0.029 ) 
 G1 X20.974 Y-31.115 EXT=IC( 0.022 ) 
 G1 X22.076 Y-30.017 EXT=IC( 0.048 ) 
 G1 X22.724 Y-29.315 EXT=IC( 0.029 ) 
 G1 X23.31 Y-28.562 EXT=IC( 0.029 ) 
 G1 X23.832 Y-27.762 EXT=IC( 0.029 ) 
 G1 X24.179 Y-27.132 EXT=IC( 0.022 ) 
 G1 X24.89 Y-25.742 EXT=IC( 0.048 ) 
 G1 X25.289 Y-24.875 EXT=IC( 0.029 ) 
 G1 X25.614 Y-23.977 EXT=IC( 0.029 ) 
 G1 X25.863 Y-23.055 EXT=IC( 0.029 ) 
 G1 X26.032 Y-22.125 EXT=IC( 0.029 ) 
 G1 X26.29 Y-20.274 EXT=IC( 0.057 ) 
 G1 X26.382 Y-19.323 EXT=IC( 0.029 ) 
 G1 X26.399 Y-18.694 EXT=IC( 0.019 ) 
 G1 X26.389 Y1.017 EXT=IC( 0.603 ) 
 G1 X26.349 Y1.971 EXT=IC( 0.029 ) 
 G1 X26.248 Y2.799 EXT=IC( 0.026 ) 
 G1 X26.008 Y4.31 EXT=IC( 0.047 ) 
 G1 X25.819 Y5.246 EXT=IC( 0.029 ) 
 G1 X25.552 Y6.163 EXT=IC( 0.029 ) 
 G1 X25.209 Y7.054 EXT=IC( 0.029 ) 
 G1 X24.934 Y7.644 EXT=IC( 0.02 ) 
 G1 X24.246 Y9.012 EXT=IC( 0.047 ) 
 G1 X23.781 Y9.846 EXT=IC( 0.029 ) 
 G1 X23.249 Y10.639 EXT=IC( 0.029 ) 
 G1 X22.652 Y11.384 EXT=IC( 0.029 ) 
 G1 X22.193 Y11.879 EXT=IC( 0.021 ) 
 G1 X21.073 Y13.019 EXT=IC( 0.049 ) 
 G1 X20.376 Y13.672 EXT=IC( 0.029 ) 
 G1 X19.627 Y14.264 EXT=IC( 0.029 ) 
 G1 X18.831 Y14.791 EXT=IC( 0.029 ) 
 G1 X18.135 Y15.178 EXT=IC( 0.024 ) 
 G1 X16.744 Y15.89 EXT=IC( 0.048 ) 
 G1 X15.877 Y16.289 EXT=IC( 0.029 ) 
 G1 X14.979 Y16.614 EXT=IC( 0.029 ) 
 G1 X14.057 Y16.863 EXT=IC( 0.029 ) 
 G1 X13.119 Y17.034 EXT=IC( 0.029 ) 
 G1 X11.269 Y17.291 EXT=IC( 0.057 ) 
 G1 X10.318 Y17.382 EXT=IC( 0.029 ) 
 G1 X9.694 Y17.399 EXT=IC( 0.019 ) 
 G1 X-10.017 Y17.389 EXT=IC( 0.603 ) 
 G1 X-10.971 Y17.349 EXT=IC( 0.029 ) 
 G1 X-11.799 Y17.248 EXT=IC( 0.026 ) 
 G1 X-13.31 Y17.008 EXT=IC( 0.047 ) 
 G1 X-14.246 Y16.819 EXT=IC( 0.029 ) 
 G1 X-15.163 Y16.552 EXT=IC( 0.029 ) 
 G1 X-16.054 Y16.209 EXT=IC( 0.029 ) 
 G1 X-16.65 Y15.931 EXT=IC( 0.02 ) 
 G1 X-18.028 Y15.237 EXT=IC( 0.047 ) 
 G1 X-18.862 Y14.772 EXT=IC( 0.029 ) 
 G1 X-19.654 Y14.239 EXT=IC( 0.029 ) 
 G1 X-20.399 Y13.642 EXT=IC( 0.029 ) 
 G1 X-20.907 Y13.17 EXT=IC( 0.021 ) 
 G1 X-22.038 Y12.054 EXT=IC( 0.049 ) 
 G1 X-22.689 Y11.355 EXT=IC( 0.029 ) 
 G1 X-23.279 Y10.605 EXT=IC( 0.029 ) 
 G1 X-23.805 Y9.807 EXT=IC( 0.029 ) 
 G1 X-24.179 Y9.133 EXT=IC( 0.024 ) 
 G1 X-24.89 Y7.744 EXT=IC( 0.048 ) 
 G1 X-25.289 Y6.877 EXT=IC( 0.029 ) 
 G1 X-25.614 Y5.979 EXT=IC( 0.029 ) 
 G1 X-25.863 Y5.058 EXT=IC( 0.029 ) 
 G1 X-26.034 Y4.119 EXT=IC( 0.029 ) 
 G1 X-26.291 Y2.269 EXT=IC( 0.057 ) 
 G1 X-26.382 Y1.318 EXT=IC( 0.029 ) 
 G1 X-26.399 Y0.694 EXT=IC( 0.019 ) 
 G1 X-26.389 Y-19.017 EXT=IC( 0.603 ) 
 G1 X-26.349 Y-19.971 EXT=IC( 0.029 ) 
 G1 X-26.248 Y-20.801 EXT=IC( 0.026 ) 
 G1 X-26.006 Y-22.323 EXT=IC( 0.047 ) 
 G1 X-25.816 Y-23.259 EXT=IC( 0.029 ) 
 G1 X-25.549 Y-24.176 EXT=IC( 0.029 ) 
 G1 X-25.207 Y-25.067 EXT=IC( 0.029 ) 
 G1 X-24.913 Y-25.692 EXT=IC( 0.021 ) 
 G1 X-24.205 Y-27.087 EXT=IC( 0.048 ) 
 G1 X-23.737 Y-27.92 EXT=IC( 0.029 ) 
 G1 X-23.202 Y-28.71 EXT=IC( 0.029 ) 
 G1 X-22.602 Y-29.453 EXT=IC( 0.029 ) 
 G1 X-22.115 Y-29.974 EXT=IC( 0.022 ) 
 G1 X-21.017 Y-31.076 EXT=IC( 0.048 ) 
 G1 X-20.315 Y-31.724 EXT=IC( 0.029 ) 
 G1 X-19.562 Y-32.31 EXT=IC( 0.029 ) 
 G1 X-18.762 Y-32.832 EXT=IC( 0.029 ) 
 G1 X-18.135 Y-33.178 EXT=IC( 0.022 ) 
 G1 X-16.744 Y-33.89 EXT=IC( 0.048 ) 
 G1 X-15.877 Y-34.289 EXT=IC( 0.029 ) 
 G1 X-14.979 Y-34.614 EXT=IC( 0.029 ) 
 G1 X-14.057 Y-34.863 EXT=IC( 0.029 ) 
 G1 X-13.119 Y-35.034 EXT=IC( 0.029 ) 
 G1 X-11.269 Y-35.291 EXT=IC( 0.057 ) 
 G1 X-10.318 Y-35.382 EXT=IC( 0.029 ) 
 G1 X-9.674 Y-35.399 EXT=IC( 0.02 ) 
 G1 X-9.675 Y-34.999 
 G1 X10.318 Y-34.953 EXT=IC( 0.612 ) 
 G1 X11.255 Y-34.911 EXT=IC( 0.029 ) 
 G1 X12.103 Y-34.803 EXT=IC( 0.026 ) 
 G1 X13.344 Y-34.596 EXT=IC( 0.038 ) 
 G1 X14.261 Y-34.402 EXT=IC( 0.029 ) 
 G1 X15.159 Y-34.131 EXT=IC( 0.029 ) 
 G1 X16.031 Y-33.785 EXT=IC( 0.029 ) 
 G1 X16.51 Y-33.556 EXT=IC( 0.016 ) 
 G1 X17.904 Y-32.849 EXT=IC( 0.048 ) 
 G1 X18.721 Y-32.39 EXT=IC( 0.029 ) 
 G1 X19.497 Y-31.862 EXT=IC( 0.029 ) 
 G1 X20.224 Y-31.271 EXT=IC( 0.029 ) 
 G1 X20.692 Y-30.831 EXT=IC( 0.02 ) 
 G1 X21.794 Y-29.733 EXT=IC( 0.048 ) 
 G1 X22.43 Y-29.044 EXT=IC( 0.029 ) 
 G1 X23.004 Y-28.302 EXT=IC( 0.029 ) 
 G1 X23.513 Y-27.515 EXT=IC( 0.029 ) 
 G1 X23.823 Y-26.95 EXT=IC( 0.02 ) 
 G1 X24.534 Y-25.56 EXT=IC( 0.048 ) 
 G1 X24.925 Y-24.708 EXT=IC( 0.029 ) 
 G1 X25.242 Y-23.825 EXT=IC( 0.029 ) 
 G1 X25.483 Y-22.919 EXT=IC( 0.029 ) 
 G1 X25.636 Y-22.07 EXT=IC( 0.026 ) 
 G1 X25.894 Y-20.219 EXT=IC( 0.057 ) 
 G1 X25.983 Y-19.285 EXT=IC( 0.029 ) 
 G1 X25.999 Y-18.694 EXT=IC( 0.018 ) 
 G1 X25.989 Y1.017 EXT=IC( 0.603 ) 
 G1 X25.949 Y1.954 EXT=IC( 0.029 ) 
 G1 X25.853 Y2.737 EXT=IC( 0.024 ) 
 G1 X25.613 Y4.248 EXT=IC( 0.047 ) 
 G1 X25.426 Y5.167 EXT=IC( 0.029 ) 
 G1 X25.162 Y6.067 EXT=IC( 0.029 ) 
 G1 X24.822 Y6.941 EXT=IC( 0.029 ) 
 G1 X24.576 Y7.464 EXT=IC( 0.018 ) 
 G1 X23.888 Y8.832 EXT=IC( 0.047 ) 
 G1 X23.431 Y9.651 EXT=IC( 0.029 ) 
 G1 X22.907 Y10.429 EXT=IC( 0.029 ) 
 G1 X22.317 Y11.158 EXT=IC( 0.029 ) 
 G1 X21.908 Y11.599 EXT=IC( 0.018 ) 
 G1 X20.788 Y12.739 EXT=IC( 0.049 ) 
 G1 X20.102 Y13.379 EXT=IC( 0.029 ) 
 G1 X19.365 Y13.959 EXT=IC( 0.029 ) 
 G1 X18.581 Y14.474 EXT=IC( 0.029 ) 
 G1 X17.953 Y14.822 EXT=IC( 0.022 ) 
 G1 X16.562 Y15.534 EXT=IC( 0.048 ) 
 G1 X15.71 Y15.925 EXT=IC( 0.029 ) 
 G1 X14.827 Y16.242 EXT=IC( 0.029 ) 
 G1 X13.921 Y16.483 EXT=IC( 0.029 ) 
 G1 X13.064 Y16.637 EXT=IC( 0.027 ) 
 G1 X11.214 Y16.894 EXT=IC( 0.057 ) 
 G1 X10.28 Y16.984 EXT=IC( 0.029 ) 
 G1 X9.694 Y16.999 EXT=IC( 0.018 ) 
 G1 X-10.017 Y16.989 EXT=IC( 0.603 ) 
 G1 X-10.954 Y16.949 EXT=IC( 0.029 ) 
 G1 X-11.737 Y16.853 EXT=IC( 0.024 ) 
 G1 X-13.248 Y16.613 EXT=IC( 0.047 ) 
 G1 X-14.167 Y16.426 EXT=IC( 0.029 ) 
 G1 X-15.067 Y16.162 EXT=IC( 0.029 ) 
 G1 X-15.941 Y15.822 EXT=IC( 0.029 ) 
 G1 X-16.47 Y15.573 EXT=IC( 0.018 ) 
 G1 X-17.848 Y14.879 EXT=IC( 0.047 ) 
 G1 X-18.667 Y14.422 EXT=IC( 0.029 ) 
 G1 X-19.444 Y13.897 EXT=IC( 0.029 ) 
 G1 X-20.173 Y13.307 EXT=IC( 0.029 ) 
 G1 X-20.626 Y12.885 EXT=IC( 0.019 ) 
 G1 X-21.757 Y11.769 EXT=IC( 0.049 ) 
 G1 X-22.396 Y11.082 EXT=IC( 0.029 ) 
 G1 X-22.974 Y10.344 EXT=IC( 0.029 ) 
 G1 X-23.487 Y9.559 EXT=IC( 0.029 ) 
 G1 X-23.823 Y8.951 EXT=IC( 0.021 ) 
 G1 X-24.534 Y7.562 EXT=IC( 0.048 ) 
 G1 X-24.925 Y6.71 EXT=IC( 0.029 ) 
 G1 X-25.242 Y5.827 EXT=IC( 0.029 ) 
 G1 X-25.483 Y4.921 EXT=IC( 0.029 ) 
 G1 X-25.637 Y4.064 EXT=IC( 0.027 ) 
 G1 X-25.894 Y2.214 EXT=IC( 0.057 ) 
 G1 X-25.984 Y1.28 EXT=IC( 0.029 ) 
 G1 X-25.999 Y0.694 EXT=IC( 0.018 ) 
 G1 X-25.989 Y-19.017 EXT=IC( 0.603 ) 
 G1 X-25.949 Y-19.954 EXT=IC( 0.029 ) 
 G1 X-25.853 Y-20.738 EXT=IC( 0.024 ) 
 G1 X-25.611 Y-22.26 EXT=IC( 0.047 ) 
 G1 X-25.424 Y-23.179 EXT=IC( 0.029 ) 
 G1 X-25.16 Y-24.079 EXT=IC( 0.029 ) 
 G1 X-24.82 Y-24.953 EXT=IC( 0.029 ) 
 G1 X-24.556 Y-25.511 EXT=IC( 0.019 ) 
 G1 X-23.848 Y-26.906 EXT=IC( 0.048 ) 
 G1 X-23.388 Y-27.724 EXT=IC( 0.029 ) 
 G1 X-22.861 Y-28.499 EXT=IC( 0.029 ) 
 G1 X-22.269 Y-29.227 EXT=IC( 0.029 ) 
 G1 X-21.831 Y-29.692 EXT=IC( 0.02 ) 
 G1 X-20.733 Y-30.794 EXT=IC( 0.048 ) 
 G1 X-20.044 Y-31.43 EXT=IC( 0.029 ) 
 G1 X-19.302 Y-32.004 EXT=IC( 0.029 ) 
 G1 X-18.515 Y-32.513 EXT=IC( 0.029 ) 
 G1 X-17.953 Y-32.822 EXT=IC( 0.02 ) 
 G1 X-16.562 Y-33.534 EXT=IC( 0.048 ) 
 G1 X-15.71 Y-33.925 EXT=IC( 0.029 ) 
 G1 X-14.827 Y-34.242 EXT=IC( 0.029 ) 
 G1 X-13.921 Y-34.483 EXT=IC( 0.029 ) 
 G1 X-13.064 Y-34.637 EXT=IC( 0.027 ) 
 G1 X-11.214 Y-34.894 EXT=IC( 0.057 ) 
 G1 X-10.28 Y-34.984 EXT=IC( 0.029 ) 
 G1 X-9.675 Y-34.999 EXT=IC( 0.019 ) 
 G1 X-9.676 Y-34.599 
 G1 X10.317 Y-34.553 EXT=IC( 0.612 ) 
 G1 X11.237 Y-34.511 EXT=IC( 0.028 ) 
 G1 X12.037 Y-34.409 EXT=IC( 0.025 ) 
 G1 X13.278 Y-34.202 EXT=IC( 0.038 ) 
 G1 X14.179 Y-34.011 EXT=IC( 0.028 ) 
 G1 X15.059 Y-33.743 EXT=IC( 0.028 ) 
 G1 X15.914 Y-33.399 EXT=IC( 0.028 ) 
 G1 X16.329 Y-33.2 EXT=IC( 0.014 ) 
 G1 X17.723 Y-32.493 EXT=IC( 0.048 ) 
 G1 X18.525 Y-32.041 EXT=IC( 0.028 ) 
 G1 X19.285 Y-31.521 EXT=IC( 0.028 ) 
 G1 X19.997 Y-30.938 EXT=IC( 0.028 ) 
 G1 X20.41 Y-30.548 EXT=IC( 0.017 ) 
 G1 X21.512 Y-29.45 EXT=IC( 0.048 ) 
 G1 X22.135 Y-28.772 EXT=IC( 0.028 ) 
 G1 X22.697 Y-28.043 EXT=IC( 0.028 ) 
 G1 X23.194 Y-27.268 EXT=IC( 0.028 ) 
 G1 X23.467 Y-26.768 EXT=IC( 0.017 ) 
 G1 X24.178 Y-25.378 EXT=IC( 0.048 ) 
 G1 X24.561 Y-24.541 EXT=IC( 0.028 ) 
 G1 X24.871 Y-23.674 EXT=IC( 0.028 ) 
 G1 X25.103 Y-22.783 EXT=IC( 0.028 ) 
 G1 X25.24 Y-22.014 EXT=IC( 0.024 ) 
 G1 X25.498 Y-20.163 EXT=IC( 0.057 ) 
 G1 X25.585 Y-19.247 EXT=IC( 0.028 ) 
 G1 X25.599 Y-18.695 EXT=IC( 0.017 ) 
 G1 X25.589 Y1.016 EXT=IC( 0.603 ) 
 G1 X25.549 Y1.936 EXT=IC( 0.028 ) 
 G1 X25.458 Y2.674 EXT=IC( 0.023 ) 
 G1 X25.218 Y4.185 EXT=IC( 0.047 ) 
 G1 X25.034 Y5.087 EXT=IC( 0.028 ) 
 G1 X24.773 Y5.97 EXT=IC( 0.028 ) 
 G1 X24.436 Y6.826 EXT=IC( 0.028 ) 
 G1 X24.219 Y7.285 EXT=IC( 0.016 ) 
 G1 X23.531 Y8.653 EXT=IC( 0.047 ) 
 G1 X23.082 Y9.456 EXT=IC( 0.028 ) 
 G1 X22.565 Y10.218 EXT=IC( 0.028 ) 
 G1 X21.984 Y10.932 EXT=IC( 0.028 ) 
 G1 X21.622 Y11.319 EXT=IC( 0.016 ) 
 G1 X20.502 Y12.459 EXT=IC( 0.049 ) 
 G1 X19.829 Y13.087 EXT=IC( 0.028 ) 
 G1 X19.104 Y13.654 EXT=IC( 0.028 ) 
 G1 X18.333 Y14.156 EXT=IC( 0.028 ) 
 G1 X17.771 Y14.466 EXT=IC( 0.02 ) 
 G1 X16.38 Y15.178 EXT=IC( 0.048 ) 
 G1 X15.543 Y15.561 EXT=IC( 0.028 ) 
 G1 X14.676 Y15.871 EXT=IC( 0.028 ) 
 G1 X13.785 Y16.104 EXT=IC( 0.028 ) 
 G1 X13.009 Y16.241 EXT=IC( 0.024 ) 
 G1 X11.159 Y16.498 EXT=IC( 0.057 ) 
 G1 X10.242 Y16.585 EXT=IC( 0.028 ) 
 G1 X9.695 Y16.599 EXT=IC( 0.017 ) 
 G1 X-10.016 Y16.589 EXT=IC( 0.603 ) 
 G1 X-10.936 Y16.549 EXT=IC( 0.028 ) 
 G1 X-11.674 Y16.458 EXT=IC( 0.023 ) 
 G1 X-13.185 Y16.218 EXT=IC( 0.047 ) 
 G1 X-14.087 Y16.034 EXT=IC( 0.028 ) 
 G1 X-14.97 Y15.773 EXT=IC( 0.028 ) 
 G1 X-15.826 Y15.436 EXT=IC( 0.028 ) 
 G1 X-16.29 Y15.216 EXT=IC( 0.016 ) 
 G1 X-17.668 Y14.522 EXT=IC( 0.047 ) 
 G1 X-18.471 Y14.073 EXT=IC( 0.028 ) 
 G1 X-19.233 Y13.555 EXT=IC( 0.028 ) 
 G1 X-19.947 Y12.974 EXT=IC( 0.028 ) 
 G1 X-20.345 Y12.6 EXT=IC( 0.017 ) 
 G1 X-21.476 Y11.484 EXT=IC( 0.049 ) 
 G1 X-22.103 Y10.81 EXT=IC( 0.028 ) 
 G1 X-22.669 Y10.083 EXT=IC( 0.028 ) 
 G1 X-23.169 Y9.311 EXT=IC( 0.028 ) 
 G1 X-23.467 Y8.769 EXT=IC( 0.019 ) 
 G1 X-24.178 Y7.38 EXT=IC( 0.048 ) 
 G1 X-24.561 Y6.543 EXT=IC( 0.028 ) 
 G1 X-24.871 Y5.676 EXT=IC( 0.028 ) 
 G1 X-25.104 Y4.785 EXT=IC( 0.028 ) 
 G1 X-25.241 Y4.009 EXT=IC( 0.024 ) 
 G1 X-25.498 Y2.159 EXT=IC( 0.057 ) 
 G1 X-25.585 Y1.242 EXT=IC( 0.028 ) 
 G1 X-25.599 Y0.695 EXT=IC( 0.017 ) 
 G1 X-25.589 Y-19.016 EXT=IC( 0.603 ) 
 G1 X-25.549 Y-19.936 EXT=IC( 0.028 ) 
 G1 X-25.457 Y-20.676 EXT=IC( 0.023 ) 
 G1 X-25.215 Y-22.198 EXT=IC( 0.047 ) 
 G1 X-25.032 Y-23.1 EXT=IC( 0.028 ) 
 G1 X-24.77 Y-23.982 EXT=IC( 0.028 ) 
 G1 X-24.433 Y-24.839 EXT=IC( 0.028 ) 
 G1 X-24.199 Y-25.33 EXT=IC( 0.017 ) 
 G1 X-23.491 Y-26.725 EXT=IC( 0.048 ) 
 G1 X-23.039 Y-27.527 EXT=IC( 0.028 ) 
 G1 X-22.52 Y-28.287 EXT=IC( 0.028 ) 
 G1 X-21.936 Y-28.999 EXT=IC( 0.028 ) 
 G1 X-21.548 Y-29.41 EXT=IC( 0.017 ) 
 G1 X-20.45 Y-30.512 EXT=IC( 0.048 ) 
 G1 X-19.772 Y-31.135 EXT=IC( 0.028 ) 
 G1 X-19.043 Y-31.697 EXT=IC( 0.028 ) 
 G1 X-18.268 Y-32.194 EXT=IC( 0.028 ) 
 G1 X-17.771 Y-32.466 EXT=IC( 0.017 ) 
 G1 X-16.38 Y-33.178 EXT=IC( 0.048 ) 
 G1 X-15.543 Y-33.561 EXT=IC( 0.028 ) 
 G1 X-14.676 Y-33.871 EXT=IC( 0.028 ) 
 G1 X-13.785 Y-34.104 EXT=IC( 0.028 ) 
 G1 X-13.009 Y-34.241 EXT=IC( 0.024 ) 
 G1 X-11.159 Y-34.498 EXT=IC( 0.057 ) 
 G1 X-10.242 Y-34.585 EXT=IC( 0.028 ) 
 G1 X-9.676 Y-34.599 EXT=IC( 0.017 ) 
 G1 X-9.677 Y-34.199 
 G1 X10.316 Y-34.153 EXT=IC( 0.612 ) 
 G1 X11.219 Y-34.111 EXT=IC( 0.028 ) 
 G1 X11.971 Y-34.014 EXT=IC( 0.023 ) 
 G1 X13.212 Y-33.807 EXT=IC( 0.038 ) 
 G1 X14.096 Y-33.619 EXT=IC( 0.028 ) 
 G1 X14.959 Y-33.354 EXT=IC( 0.028 ) 
 G1 X16.148 Y-32.843 EXT=IC( 0.04 ) 
 G1 X17.542 Y-32.136 EXT=IC( 0.048 ) 
 G1 X18.328 Y-31.692 EXT=IC( 0.028 ) 
 G1 X19.073 Y-31.181 EXT=IC( 0.028 ) 
 G1 X19.769 Y-30.605 EXT=IC( 0.028 ) 
 G1 X20.127 Y-30.265 EXT=IC( 0.015 ) 
 G1 X21.229 Y-29.167 EXT=IC( 0.048 ) 
 G1 X21.84 Y-28.501 EXT=IC( 0.028 ) 
 G1 X22.39 Y-27.785 EXT=IC( 0.028 ) 
 G1 X22.874 Y-27.023 EXT=IC( 0.028 ) 
 G1 X23.111 Y-26.586 EXT=IC( 0.015 ) 
 G1 X23.822 Y-25.196 EXT=IC( 0.048 ) 
 G1 X24.197 Y-24.375 EXT=IC( 0.028 ) 
 G1 X24.498 Y-23.523 EXT=IC( 0.028 ) 
 G1 X24.723 Y-22.648 EXT=IC( 0.028 ) 
 G1 X24.843 Y-21.959 EXT=IC( 0.021 ) 
 G1 X25.101 Y-20.108 EXT=IC( 0.057 ) 
 G1 X25.186 Y-19.209 EXT=IC( 0.028 ) 
 G1 X25.199 Y-18.695 EXT=IC( 0.016 ) 
 G1 X25.189 Y1.016 EXT=IC( 0.603 ) 
 G1 X25.149 Y1.918 EXT=IC( 0.028 ) 
 G1 X25.063 Y2.611 EXT=IC( 0.021 ) 
 G1 X24.823 Y4.122 EXT=IC( 0.047 ) 
 G1 X24.642 Y5.007 EXT=IC( 0.028 ) 
 G1 X24.383 Y5.872 EXT=IC( 0.028 ) 
 G1 X23.861 Y7.105 EXT=IC( 0.041 ) 
 G1 X23.173 Y8.473 EXT=IC( 0.047 ) 
 G1 X22.732 Y9.261 EXT=IC( 0.028 ) 
 G1 X22.223 Y10.007 EXT=IC( 0.028 ) 
 G1 X21.65 Y10.705 EXT=IC( 0.028 ) 
 G1 X21.337 Y11.038 EXT=IC( 0.014 ) 
 G1 X20.217 Y12.178 EXT=IC( 0.049 ) 
 G1 X19.556 Y12.794 EXT=IC( 0.028 ) 
 G1 X18.844 Y13.349 EXT=IC( 0.028 ) 
 G1 X18.085 Y13.838 EXT=IC( 0.028 ) 
 G1 X17.589 Y14.11 EXT=IC( 0.017 ) 
 G1 X16.198 Y14.822 EXT=IC( 0.048 ) 
 G1 X15.376 Y15.197 EXT=IC( 0.028 ) 
 G1 X14.525 Y15.499 EXT=IC( 0.028 ) 
 G1 X13.65 Y15.723 EXT=IC( 0.028 ) 
 G1 X12.953 Y15.845 EXT=IC( 0.022 ) 
 G1 X11.103 Y16.102 EXT=IC( 0.057 ) 
 G1 X10.204 Y16.187 EXT=IC( 0.028 ) 
 G1 X9.695 Y16.199 EXT=IC( 0.016 ) 
 G1 X-10.016 Y16.189 EXT=IC( 0.603 ) 
 G1 X-10.918 Y16.149 EXT=IC( 0.028 ) 
 G1 X-11.611 Y16.063 EXT=IC( 0.021 ) 
 G1 X-13.122 Y15.823 EXT=IC( 0.047 ) 
 G1 X-14.007 Y15.642 EXT=IC( 0.028 ) 
 G1 X-14.872 Y15.383 EXT=IC( 0.028 ) 
 G1 X-16.11 Y14.859 EXT=IC( 0.041 ) 
 G1 X-17.488 Y14.165 EXT=IC( 0.047 ) 
 G1 X-18.276 Y13.723 EXT=IC( 0.028 ) 
 G1 X-19.021 Y13.214 EXT=IC( 0.028 ) 
 G1 X-19.719 Y12.64 EXT=IC( 0.028 ) 
 G1 X-20.064 Y12.315 EXT=IC( 0.015 ) 
 G1 X-21.195 Y11.199 EXT=IC( 0.049 ) 
 G1 X-21.809 Y10.537 EXT=IC( 0.028 ) 
 G1 X-22.362 Y9.823 EXT=IC( 0.028 ) 
 G1 X-22.85 Y9.063 EXT=IC( 0.028 ) 
 G1 X-23.111 Y8.587 EXT=IC( 0.017 ) 
 G1 X-23.822 Y7.198 EXT=IC( 0.048 ) 
 G1 X-24.197 Y6.376 EXT=IC( 0.028 ) 
 G1 X-24.499 Y5.525 EXT=IC( 0.028 ) 
 G1 X-24.723 Y4.65 EXT=IC( 0.028 ) 
 G1 X-24.845 Y3.953 EXT=IC( 0.022 ) 
 G1 X-25.102 Y2.103 EXT=IC( 0.057 ) 
 G1 X-25.187 Y1.204 EXT=IC( 0.028 ) 
 G1 X-25.199 Y0.695 EXT=IC( 0.016 ) 
 G1 X-25.189 Y-19.016 EXT=IC( 0.603 ) 
 G1 X-25.149 Y-19.918 EXT=IC( 0.028 ) 
 G1 X-25.062 Y-20.613 EXT=IC( 0.021 ) 
 G1 X-24.82 Y-22.135 EXT=IC( 0.047 ) 
 G1 X-24.639 Y-23.019 EXT=IC( 0.028 ) 
 G1 X-24.381 Y-23.885 EXT=IC( 0.028 ) 
 G1 X-24.046 Y-24.724 EXT=IC( 0.028 ) 
 G1 X-23.843 Y-25.149 EXT=IC( 0.014 ) 
 G1 X-23.135 Y-26.544 EXT=IC( 0.048 ) 
 G1 X-22.691 Y-27.331 EXT=IC( 0.028 ) 
 G1 X-22.179 Y-28.075 EXT=IC( 0.028 ) 
 G1 X-21.603 Y-28.771 EXT=IC( 0.028 ) 
 G1 X-21.265 Y-29.127 EXT=IC( 0.015 ) 
 G1 X-20.167 Y-30.229 EXT=IC( 0.048 ) 
 G1 X-19.501 Y-30.84 EXT=IC( 0.028 ) 
 G1 X-18.785 Y-31.39 EXT=IC( 0.028 ) 
 G1 X-18.023 Y-31.874 EXT=IC( 0.028 ) 
 G1 X-17.589 Y-32.11 EXT=IC( 0.015 ) 
 G1 X-16.198 Y-32.822 EXT=IC( 0.048 ) 
 G1 X-15.376 Y-33.197 EXT=IC( 0.028 ) 
 G1 X-14.525 Y-33.499 EXT=IC( 0.028 ) 
 G1 X-13.65 Y-33.723 EXT=IC( 0.028 ) 
 G1 X-12.953 Y-33.845 EXT=IC( 0.022 ) 
 G1 X-11.103 Y-34.102 EXT=IC( 0.057 ) 
 G1 X-10.204 Y-34.187 EXT=IC( 0.028 ) 
 G1 X-9.677 Y-34.199 EXT=IC( 0.016 ) 
 G1 EXT=IC( -8.0 ) F1500 
 G1 Z1.2 F300 
;MESH:calibration_block_0_4_nozzle.stl

 G1 X11.359 Y-23.177 Z1.2 F1200 
;TYPE:WALL-INNER

 G1 Z0.2 F300 
 G1 EXT=IC( 8.0 ) F1500 
 G1 X12.583 Y-22.553 EXT=IC( 0.042 ) F1200 
 G1 X13.553 Y-21.583 EXT=IC( 0.042 ) 
 G1 X14.177 Y-20.359 EXT=IC( 0.042 ) 
 G1 X14.4 Y-18.951 EXT=IC( 0.044 ) 
 G1 X14.4 Y0.951 EXT=IC( 0.609 ) 
 G1 X14.177 Y2.359 EXT=IC( 0.044 ) 
 G1 X13.553 Y3.583 EXT=IC( 0.042 ) 
 G1 X12.583 Y4.553 EXT=IC( 0.042 ) 
 G1 X11.359 Y5.177 EXT=IC( 0.042 ) 
 G1 X9.951 Y5.4 EXT=IC( 0.044 ) 
 G1 X-9.951 Y5.4 EXT=IC( 0.609 ) 
 G1 X-11.359 Y5.177 EXT=IC( 0.044 ) 
 G1 X-12.583 Y4.553 EXT=IC( 0.042 ) 
 G1 X-13.553 Y3.583 EXT=IC( 0.042 ) 
 G1 X-14.177 Y2.359 EXT=IC( 0.042 ) 
 G1 X-14.4 Y0.951 EXT=IC( 0.044 ) 
 G1 X-14.4 Y-18.951 EXT=IC( 0.609 ) 
 G1 X-14.177 Y-20.359 EXT=IC( 0.044 ) 
 G1 X-13.553 Y-21.583 EXT=IC( 0.042 ) 
 G1 X-12.583 Y-22.553 EXT=IC( 0.042 ) 
 G1 X-11.359 Y-23.177 EXT=IC( 0.042 ) 
 G1 X-9.951 Y-23.4 EXT=IC( 0.044 ) 
 G1 X9.951 Y-23.4 EXT=IC( 0.609 ) 
 G1 X11.359 Y-23.177 EXT=IC( 0.044 ) 
 G1 X11.484 Y-23.562 
;TYPE:WALL-OUTER

 G1 X12.822 Y-22.88 EXT=IC( 0.046 ) 
 G1 X13.88 Y-21.822 EXT=IC( 0.046 ) 
 G1 X14.562 Y-20.484 EXT=IC( 0.046 ) 
 G1 X14.8 Y-18.982 EXT=IC( 0.047 ) 
 G1 X14.8 Y0.982 EXT=IC( 0.611 ) 
 G1 X14.562 Y2.484 EXT=IC( 0.047 ) 
 G1 X13.88 Y3.822 EXT=IC( 0.046 ) 
 G1 X12.822 Y4.88 EXT=IC( 0.046 ) 
 G1 X11.484 Y5.562 EXT=IC( 0.046 ) 
 G1 X9.982 Y5.8 EXT=IC( 0.047 ) 
 G1 X-9.982 Y5.8 EXT=IC( 0.611 ) 
 G1 X-11.484 Y5.562 EXT=IC( 0.047 ) 
 G1 X-12.822 Y4.88 EXT=IC( 0.046 ) 
 G1 X-13.88 Y3.822 EXT=IC( 0.046 ) 
 G1 X-14.562 Y2.484 EXT=IC( 0.046 ) 
 G1 X-14.8 Y0.982 EXT=IC( 0.047 ) 
 G1 X-14.8 Y-18.982 EXT=IC( 0.611 ) 
 G1 X-14.562 Y-20.484 EXT=IC( 0.047 ) 
 G1 X-13.88 Y-21.822 EXT=IC( 0.046 ) 
 G1 X-12.822 Y-22.88 EXT=IC( 0.046 ) 
 G1 X-11.484 Y-23.562 EXT=IC( 0.046 ) 
 G1 X-9.982 Y-23.8 EXT=IC( 0.047 ) 
 G1 X9.982 Y-23.8 EXT=IC( 0.611 ) 
 G1 X11.484 Y-23.562 EXT=IC( 0.047 ) 
 G1 X11.662 Y-23.472 
 G1 X11.462 Y-23.08 
 G1 X11.241 Y-22.8 
;TYPE:SKIN

 G1 X12.352 Y-22.234 EXT=IC( 0.038 ) 
 G1 X13.234 Y-21.352 EXT=IC( 0.038 ) 
 G1 X13.8 Y-20.241 EXT=IC( 0.038 ) 
 G1 X14.01 Y-18.916 EXT=IC( 0.041 ) 
 G1 X14.01 Y0.916 EXT=IC( 0.607 ) 
 G1 X13.8 Y2.241 EXT=IC( 0.041 ) 
 G1 X13.234 Y3.352 EXT=IC( 0.038 ) 
 G1 X12.352 Y4.234 EXT=IC( 0.038 ) 
 G1 X11.241 Y4.8 EXT=IC( 0.038 ) 
 G1 X9.916 Y5.01 EXT=IC( 0.041 ) 
 G1 X-9.916 Y5.01 EXT=IC( 0.607 ) 
 G1 X-11.241 Y4.8 EXT=IC( 0.041 ) 
 G1 X-12.352 Y4.234 EXT=IC( 0.038 ) 
 G1 X-13.234 Y3.352 EXT=IC( 0.038 ) 
 G1 X-13.8 Y2.241 EXT=IC( 0.038 ) 
 G1 X-14.01 Y0.916 EXT=IC( 0.041 ) 
 G1 X-14.01 Y-18.916 EXT=IC( 0.607 ) 
 G1 X-13.8 Y-20.241 EXT=IC( 0.041 ) 
 G1 X-13.234 Y-21.352 EXT=IC( 0.038 ) 
 G1 X-12.352 Y-22.234 EXT=IC( 0.038 ) 
 G1 X-11.241 Y-22.8 EXT=IC( 0.038 ) 
 G1 X-9.916 Y-23.01 EXT=IC( 0.041 ) 
 G1 X9.916 Y-23.01 EXT=IC( 0.607 ) 
 G1 X11.241 Y-22.8 EXT=IC( 0.041 ) 
 G1 X11.347 Y-22.542 
 G1 X13.543 Y-20.346 EXT=IC( 0.095 ) 
 G1 X13.717 Y-19.607 
 G1 X10.608 Y-22.716 EXT=IC( 0.135 ) 
 G1 X9.935 Y-22.823 
 G1 X13.823 Y-18.934 EXT=IC( 0.168 ) 
 G1 X13.828 Y-18.364 
 G1 X9.364 Y-22.828 EXT=IC( 0.193 ) 
 G1 X8.798 Y-22.828 
 G1 X13.828 Y-17.798 EXT=IC( 0.218 ) 
 G1 X13.828 Y-17.232 
 G1 X8.232 Y-22.828 EXT=IC( 0.242 ) 
 G1 X7.667 Y-22.828 
 G1 X13.828 Y-16.667 EXT=IC( 0.267 ) 
 G1 X13.828 Y-16.101 
 G1 X7.101 Y-22.828 EXT=IC( 0.291 ) 
 G1 X6.535 Y-22.828 
 G1 X13.828 Y-15.535 EXT=IC( 0.316 ) 
 G1 X13.828 Y-14.97 
 G1 X5.97 Y-22.828 EXT=IC( 0.34 ) 
 G1 X5.404 Y-22.828 
 G1 X13.828 Y-14.404 EXT=IC( 0.365 ) 
 G1 X13.828 Y-13.838 
 G1 X4.838 Y-22.828 EXT=IC( 0.389 ) 
 G1 X4.273 Y-22.828 
 G1 X13.828 Y-13.273 EXT=IC( 0.413 ) 
 G1 X13.828 Y-12.707 
 G1 X3.707 Y-22.828 EXT=IC( 0.438 ) 
 G1 X3.141 Y-22.828 
 G1 X13.828 Y-12.141 EXT=IC( 0.462 ) 
 G1 X13.828 Y-11.575 
 G1 X2.575 Y-22.828 EXT=IC( 0.487 ) 
 G1 X2.01 Y-22.828 
 G1 X13.828 Y-11.01 EXT=IC( 0.511 ) 
 G1 X13.828 Y-10.444 
 G1 X1.444 Y-22.828 EXT=IC( 0.536 ) 
 G1 X0.878 Y-22.828 
 G1 X13.828 Y-9.878 EXT=IC( 0.56 ) 
 G1 X13.828 Y-9.313 
 G1 X0.313 Y-22.828 EXT=IC( 0.585 ) 
 G1 X-.252 Y-22.828 
 G1 X13.828 Y-8.748 EXT=IC( 0.609 ) 
 G1 X13.828 Y-8.182 
 G1 X-.818 Y-22.828 EXT=IC( 0.634 ) 
 G1 X-1.383 Y-22.828 
 G1 X13.828 Y-7.617 EXT=IC( 0.658 ) 
 G1 X13.828 Y-7.051 
 G1 X-1.949 Y-22.828 EXT=IC( 0.683 ) 
 G1 X-2.515 Y-22.828 
 G1 X13.828 Y-6.485 EXT=IC( 0.707 ) 
 G1 X13.828 Y-5.92 
 G1 X-3.08 Y-22.828 EXT=IC( 0.732 ) 
 G1 X-3.646 Y-22.828 
 G1 X13.828 Y-5.354 EXT=IC( 0.756 ) 
 G1 X13.828 Y-4.788 
 G1 X-4.212 Y-22.828 EXT=IC( 0.781 ) 
 G1 X-4.777 Y-22.828 
 G1 X13.828 Y-4.223 EXT=IC( 0.805 ) 
 G1 X13.828 Y-3.657 
 G1 X-5.343 Y-22.828 EXT=IC( 0.83 ) 
 G1 X-5.909 Y-22.828 
 G1 X13.828 Y-3.091 EXT=IC( 0.854 ) 
 G1 X13.828 Y-2.526 
 G1 X-6.474 Y-22.828 EXT=IC( 0.879 ) 
 G1 X-7.04 Y-22.828 
 G1 X13.828 Y-1.96 EXT=IC( 0.903 ) 
 G1 X13.828 Y-1.394 
 G1 X-7.606 Y-22.828 EXT=IC( 0.928 ) 
 G1 X-8.172 Y-22.828 
 G1 X13.828 Y-.828 EXT=IC( 0.952 ) 
 G1 X13.828 Y-.263 
 G1 X-8.737 Y-22.828 EXT=IC( 0.976 ) 
 G1 X-9.303 Y-22.828 
 G1 X13.828 Y0.303 EXT=IC( 1.001 ) 
 G1 X13.828 Y0.869 
 G1 X-9.869 Y-22.828 EXT=IC( 1.025 ) 
 G1 X-10.361 Y-22.755 
 G1 X13.756 Y1.361 EXT=IC( 1.044 ) 
 G1 X13.678 Y1.85 
 G1 X-10.849 Y-22.678 EXT=IC( 1.061 ) 
 G1 X-11.302 Y-22.565 
 G1 X13.565 Y2.303 EXT=IC( 1.076 ) 
 G1 X13.374 Y2.677 
 G1 X-11.677 Y-22.374 EXT=IC( 1.084 ) 
 G1 X-12.051 Y-22.183 
 G1 X13.184 Y3.052 EXT=IC( 1.092 ) 
 G1 X12.948 Y3.382 
 G1 X-12.382 Y-21.948 EXT=IC( 1.096 ) 
 G1 X-12.665 Y-21.665 
 G1 X12.665 Y3.665 EXT=IC( 1.096 ) 
 G1 X12.382 Y3.948 
 G1 X-12.948 Y-21.382 EXT=IC( 1.096 ) 
 G1 X-13.184 Y-21.052 
 G1 X12.051 Y4.183 EXT=IC( 1.092 ) 
 G1 X11.677 Y4.374 
 G1 X-13.374 Y-20.677 EXT=IC( 1.084 ) 
 G1 X-13.565 Y-20.303 
 G1 X11.302 Y4.565 EXT=IC( 1.076 ) 
 G1 X10.849 Y4.678 
 G1 X-13.678 Y-19.85 EXT=IC( 1.061 ) 
 G1 X-13.756 Y-19.361 
 G1 X10.361 Y4.755 EXT=IC( 1.044 ) 
 G1 X9.869 Y4.828 
 G1 X-13.828 Y-18.869 EXT=IC( 1.025 ) 
 G1 X-13.828 Y-18.303 
 G1 X9.303 Y4.828 EXT=IC( 1.001 ) 
 G1 X8.737 Y4.828 
 G1 X-13.828 Y-17.737 EXT=IC( 0.976 ) 
 G1 X-13.828 Y-17.172 
 G1 X8.172 Y4.828 EXT=IC( 0.952 ) 
 G1 X7.606 Y4.828 
 G1 X-13.828 Y-16.606 EXT=IC( 0.928 ) 
 G1 X-13.828 Y-16.04 
 G1 X7.04 Y4.828 EXT=IC( 0.903 ) 
 G1 X6.474 Y4.828 
 G1 X-13.828 Y-15.474 EXT=IC( 0.879 ) 
 G1 X-13.828 Y-14.909 
 G1 X5.909 Y4.828 EXT=IC( 0.854 ) 
 G1 X5.343 Y4.828 
 G1 X-13.828 Y-14.343 EXT=IC( 0.83 ) 
 G1 X-13.828 Y-13.777 
 G1 X4.777 Y4.828 EXT=IC( 0.805 ) 
 G1 X4.212 Y4.828 
 G1 X-13.828 Y-13.212 EXT=IC( 0.781 ) 
 G1 X-13.828 Y-12.646 
 G1 X3.646 Y4.828 EXT=IC( 0.756 ) 
 G1 X3.08 Y4.828 
 G1 X-13.828 Y-12.08 EXT=IC( 0.732 ) 
 G1 X-13.828 Y-11.515 
 G1 X2.515 Y4.828 EXT=IC( 0.707 ) 
 G1 X1.949 Y4.828 
 G1 X-13.828 Y-10.949 EXT=IC( 0.683 ) 
 G1 X-13.828 Y-10.383 
 G1 X1.383 Y4.828 EXT=IC( 0.658 ) 
 G1 X0.818 Y4.828 
 G1 X-13.828 Y-9.818 EXT=IC( 0.634 ) 
 G1 X-13.828 Y-9.252 
 G1 X0.252 Y4.828 EXT=IC( 0.609 ) 
 G1 X-.313 Y4.828 
 G1 X-13.828 Y-8.687 EXT=IC( 0.585 ) 
 G1 X-13.828 Y-8.122 
 G1 X-.878 Y4.828 EXT=IC( 0.56 ) 
 G1 X-1.444 Y4.828 
 G1 X-13.828 Y-7.556 EXT=IC( 0.536 ) 
 G1 X-13.828 Y-6.99 
 G1 X-2.01 Y4.828 EXT=IC( 0.511 ) 
 G1 X-2.575 Y4.828 
 G1 X-13.828 Y-6.425 EXT=IC( 0.487 ) 
 G1 X-13.828 Y-5.859 
 G1 X-3.141 Y4.828 EXT=IC( 0.462 ) 
 G1 X-3.707 Y4.828 
 G1 X-13.828 Y-5.293 EXT=IC( 0.438 ) 
 G1 X-13.828 Y-4.727 
 G1 X-4.273 Y4.828 EXT=IC( 0.413 ) 
 G1 X-4.838 Y4.828 
 G1 X-13.828 Y-4.162 EXT=IC( 0.389 ) 
 G1 X-13.828 Y-3.596 
 G1 X-5.404 Y4.828 EXT=IC( 0.365 ) 
 G1 X-5.97 Y4.828 
 G1 X-13.828 Y-3.03 EXT=IC( 0.34 ) 
 G1 X-13.828 Y-2.465 
 G1 X-6.535 Y4.828 EXT=IC( 0.316 ) 
 G1 X-7.101 Y4.828 
 G1 X-13.828 Y-1.899 EXT=IC( 0.291 ) 
 G1 X-13.828 Y-1.333 
 G1 X-7.667 Y4.828 EXT=IC( 0.267 ) 
 G1 X-8.232 Y4.828 
 G1 X-13.828 Y-.768 EXT=IC( 0.242 ) 
 G1 X-13.828 Y-.202 
 G1 X-8.798 Y4.828 EXT=IC( 0.218 ) 
 G1 X-9.364 Y4.828 
 G1 X-13.828 Y0.364 EXT=IC( 0.193 ) 
 G1 X-13.823 Y0.934 
 G1 X-9.935 Y4.823 EXT=IC( 0.168 ) 
 G1 X-10.608 Y4.716 
 G1 X-13.717 Y1.607 EXT=IC( 0.135 ) 
 G1 X-13.543 Y2.346 
 G1 X-11.347 Y4.542 EXT=IC( 0.095 ) 
 G1 X-11.277 Y4.612 
;MESH:NONMESH

 G1 X11.329 Y-23.082 
 G1 X11.359 Y-23.177 
;TIME_ELAPSED:198.297399

;LAYER:1

;MESH:calibration_block_0_4_nozzle.stl

 G1 X11.359 Y-23.177 Z0.4 F1800 
;TYPE:WALL-INNER

 G1 X12.583 Y-22.553 EXT=IC( 0.041 ) 
 G1 X13.553 Y-21.583 EXT=IC( 0.041 ) 
 G1 X14.177 Y-20.359 EXT=IC( 0.041 ) 
 G1 X14.4 Y-18.951 EXT=IC( 0.042 ) 
 G1 X14.4 Y0.951 EXT=IC( 0.589 ) 
 G1 X14.177 Y2.359 EXT=IC( 0.042 ) 
 G1 X13.553 Y3.583 EXT=IC( 0.041 ) 
 G1 X12.583 Y4.553 EXT=IC( 0.041 ) 
 G1 X11.359 Y5.177 EXT=IC( 0.041 ) 
 G1 X9.951 Y5.4 EXT=IC( 0.042 ) 
 G1 X-9.951 Y5.4 EXT=IC( 0.589 ) 
 G1 X-11.359 Y5.177 EXT=IC( 0.042 ) 
 G1 X-12.583 Y4.553 EXT=IC( 0.041 ) 
 G1 X-13.553 Y3.583 EXT=IC( 0.041 ) 
 G1 X-14.177 Y2.359 EXT=IC( 0.041 ) 
 G1 X-14.4 Y0.951 EXT=IC( 0.042 ) 
 G1 X-14.4 Y-18.951 EXT=IC( 0.589 ) 
 G1 X-14.177 Y-20.359 EXT=IC( 0.042 ) 
 G1 X-13.553 Y-21.583 EXT=IC( 0.041 ) 
 G1 X-12.583 Y-22.553 EXT=IC( 0.041 ) 
 G1 X-11.359 Y-23.177 EXT=IC( 0.041 ) 
 G1 X-9.951 Y-23.4 EXT=IC( 0.042 ) 
 G1 X9.951 Y-23.4 EXT=IC( 0.589 ) 
 G1 X11.359 Y-23.177 EXT=IC( 0.042 ) 
 G1 X11.484 Y-23.562 
;TYPE:WALL-OUTER

 G1 X12.822 Y-22.88 EXT=IC( 0.044 ) F1200 
 G1 X13.88 Y-21.822 EXT=IC( 0.044 ) 
 G1 X14.562 Y-20.484 EXT=IC( 0.044 ) 
 G1 X14.8 Y-18.982 EXT=IC( 0.045 ) 
 G1 X14.8 Y0.982 EXT=IC( 0.591 ) 
 G1 X14.562 Y2.484 EXT=IC( 0.045 ) 
 G1 X13.88 Y3.822 EXT=IC( 0.044 ) 
 G1 X12.822 Y4.88 EXT=IC( 0.044 ) 
 G1 X11.484 Y5.562 EXT=IC( 0.044 ) 
 G1 X9.982 Y5.8 EXT=IC( 0.045 ) 
 G1 X-9.982 Y5.8 EXT=IC( 0.591 ) 
 G1 X-11.484 Y5.562 EXT=IC( 0.045 ) 
 G1 X-12.822 Y4.88 EXT=IC( 0.044 ) 
 G1 X-13.88 Y3.822 EXT=IC( 0.044 ) 
 G1 X-14.562 Y2.484 EXT=IC( 0.044 ) 
 G1 X-14.8 Y0.982 EXT=IC( 0.045 ) 
 G1 X-14.8 Y-18.982 EXT=IC( 0.591 ) 
 G1 X-14.562 Y-20.484 EXT=IC( 0.045 ) 
 G1 X-13.88 Y-21.822 EXT=IC( 0.044 ) 
 G1 X-12.822 Y-22.88 EXT=IC( 0.044 ) 
 G1 X-11.484 Y-23.562 EXT=IC( 0.044 ) 
 G1 X-9.982 Y-23.8 EXT=IC( 0.045 ) 
 G1 X9.982 Y-23.8 EXT=IC( 0.591 ) 
 G1 X11.484 Y-23.562 EXT=IC( 0.045 ) 
 G1 X11.662 Y-23.472 F1800 
 G1 X11.462 Y-23.08 
 G1 X11.241 Y-22.8 
;TYPE:SKIN

 G1 X12.352 Y-22.234 EXT=IC( 0.037 ) F1200 
 G1 X13.234 Y-21.352 EXT=IC( 0.037 ) 
 G1 X13.8 Y-20.241 EXT=IC( 0.037 ) 
 G1 X14.01 Y-18.916 EXT=IC( 0.04 ) 
 G1 X14.01 Y0.916 EXT=IC( 0.587 ) 
 G1 X13.8 Y2.241 EXT=IC( 0.04 ) 
 G1 X13.234 Y3.352 EXT=IC( 0.037 ) 
 G1 X12.352 Y4.234 EXT=IC( 0.037 ) 
 G1 X11.241 Y4.8 EXT=IC( 0.037 ) 
 G1 X9.916 Y5.01 EXT=IC( 0.04 ) 
 G1 X-9.916 Y5.01 EXT=IC( 0.587 ) 
 G1 X-11.241 Y4.8 EXT=IC( 0.04 ) 
 G1 X-12.352 Y4.234 EXT=IC( 0.037 ) 
 G1 X-13.234 Y3.352 EXT=IC( 0.037 ) 
 G1 X-13.8 Y2.241 EXT=IC( 0.037 ) 
 G1 X-14.01 Y0.916 EXT=IC( 0.04 ) 
 G1 X-14.01 Y-18.916 EXT=IC( 0.587 ) 
 G1 X-13.8 Y-20.241 EXT=IC( 0.04 ) 
 G1 X-13.234 Y-21.352 EXT=IC( 0.037 ) 
 G1 X-12.352 Y-22.234 EXT=IC( 0.037 ) 
 G1 X-11.241 Y-22.8 EXT=IC( 0.037 ) 
 G1 X-9.916 Y-23.01 EXT=IC( 0.04 ) 
 G1 X9.916 Y-23.01 EXT=IC( 0.587 ) 
 G1 X11.241 Y-22.8 EXT=IC( 0.04 ) 
 G1 X-13.542 Y-20.347 F1800 
 G1 X-11.346 Y-22.543 EXT=IC( 0.092 ) F1200 
 G1 X-10.607 Y-22.717 F1800 
 G1 X-13.716 Y-19.608 EXT=IC( 0.13 ) F1200 
 G1 X-13.823 Y-18.935 F1800 
 G1 X-9.934 Y-22.823 EXT=IC( 0.163 ) F1200 
 G1 X-9.364 Y-22.828 F1800 
 G1 X-13.828 Y-18.364 EXT=IC( 0.187 ) F1200 
 G1 X-13.828 Y-17.798 F1800 
 G1 X-8.798 Y-22.828 EXT=IC( 0.211 ) F1200 
 G1 X-8.232 Y-22.828 F1800 
 G1 X-13.828 Y-17.232 EXT=IC( 0.234 ) F1200 
 G1 X-13.828 Y-16.667 F1800 
 G1 X-7.667 Y-22.828 EXT=IC( 0.258 ) F1200 
 G1 X-7.101 Y-22.828 F1800 
 G1 X-13.828 Y-16.101 EXT=IC( 0.282 ) F1200 
 G1 X-13.828 Y-15.535 F1800 
 G1 X-6.535 Y-22.828 EXT=IC( 0.305 ) F1200 
 G1 X-5.97 Y-22.828 F1800 
 G1 X-13.828 Y-14.97 EXT=IC( 0.329 ) F1200 
 G1 X-13.828 Y-14.404 F1800 
 G1 X-5.404 Y-22.828 EXT=IC( 0.353 ) F1200 
 G1 X-4.838 Y-22.828 F1800 
 G1 X-13.828 Y-13.838 EXT=IC( 0.376 ) F1200 
 G1 X-13.828 Y-13.273 F1800 
 G1 X-4.273 Y-22.828 EXT=IC( 0.4 ) F1200 
 G1 X-3.707 Y-22.828 F1800 
 G1 X-13.828 Y-12.707 EXT=IC( 0.424 ) F1200 
 G1 X-13.828 Y-12.141 F1800 
 G1 X-3.141 Y-22.828 EXT=IC( 0.447 ) F1200 
 G1 X-2.575 Y-22.828 F1800 
 G1 X-13.828 Y-11.575 EXT=IC( 0.471 ) F1200 
 G1 X-13.828 Y-11.01 F1800 
 G1 X-2.01 Y-22.828 EXT=IC( 0.495 ) F1200 
 G1 X-1.444 Y-22.828 F1800 
 G1 X-13.828 Y-10.444 EXT=IC( 0.518 ) F1200 
 G1 X-13.828 Y-9.878 F1800 
 G1 X-.878 Y-22.828 EXT=IC( 0.542 ) F1200 
 G1 X-.313 Y-22.828 F1800 
 G1 X-13.828 Y-9.313 EXT=IC( 0.566 ) F1200 
 G1 X-13.828 Y-8.748 F1800 
 G1 X0.252 Y-22.828 EXT=IC( 0.589 ) F1200 
 G1 X0.818 Y-22.828 F1800 
 G1 X-13.828 Y-8.182 EXT=IC( 0.613 ) F1200 
 G1 X-13.828 Y-7.617 F1800 
 G1 X1.383 Y-22.828 EXT=IC( 0.637 ) F1200 
 G1 X1.949 Y-22.828 F1800 
 G1 X-13.828 Y-7.051 EXT=IC( 0.66 ) F1200 
 G1 X-13.828 Y-6.485 F1800 
 G1 X2.515 Y-22.828 EXT=IC( 0.684 ) F1200 
 G1 X3.08 Y-22.828 F1800 
 G1 X-13.828 Y-5.92 EXT=IC( 0.708 ) F1200 
 G1 X-13.828 Y-5.354 F1800 
 G1 X3.646 Y-22.828 EXT=IC( 0.732 ) F1200 
 G1 X4.212 Y-22.828 F1800 
 G1 X-13.828 Y-4.788 EXT=IC( 0.755 ) F1200 
 G1 X-13.828 Y-4.223 F1800 
 G1 X4.777 Y-22.828 EXT=IC( 0.779 ) F1200 
 G1 X5.343 Y-22.828 F1800 
 G1 X-13.828 Y-3.657 EXT=IC( 0.803 ) F1200 
 G1 X-13.828 Y-3.091 F1800 
 G1 X5.909 Y-22.828 EXT=IC( 0.826 ) F1200 
 G1 X6.474 Y-22.828 F1800 
 G1 X-13.828 Y-2.526 EXT=IC( 0.85 ) F1200 
 G1 X-13.828 Y-1.96 F1800 
 G1 X7.04 Y-22.828 EXT=IC( 0.874 ) F1200 
 G1 X7.606 Y-22.828 F1800 
 G1 X-13.828 Y-1.394 EXT=IC( 0.897 ) F1200 
 G1 X-13.828 Y-.828 F1800 
 G1 X8.172 Y-22.828 EXT=IC( 0.921 ) F1200 
 G1 X8.737 Y-22.828 F1800 
 G1 X-13.828 Y-.263 EXT=IC( 0.945 ) F1200 
 G1 X-13.828 Y0.303 F1800 
 G1 X9.303 Y-22.828 EXT=IC( 0.968 ) F1200 
 G1 X9.869 Y-22.828 F1800 
 G1 X-13.828 Y0.869 EXT=IC( 0.992 ) F1200 
 G1 X-13.755 Y1.361 F1800 
 G1 X10.361 Y-22.756 EXT=IC( 1.01 ) F1200 
 G1 X10.85 Y-22.678 F1800 
 G1 X-13.678 Y1.849 EXT=IC( 1.027 ) F1200 
 G1 X-13.565 Y2.302 F1800 
 G1 X11.303 Y-22.565 EXT=IC( 1.041 ) F1200 
 G1 X11.677 Y-22.374 F1800 
 G1 X-13.374 Y2.677 EXT=IC( 1.049 ) F1200 
 G1 X-13.183 Y3.051 F1800 
 G1 X12.052 Y-22.184 EXT=IC( 1.056 ) F1200 
 G1 X12.382 Y-21.948 F1800 
 G1 X-12.948 Y3.382 EXT=IC( 1.06 ) F1200 
 G1 X-12.665 Y3.665 F1800 
 G1 X12.665 Y-21.665 EXT=IC( 1.06 ) F1200 
 G1 X12.948 Y-21.382 F1800 
 G1 X-12.382 Y3.948 EXT=IC( 1.06 ) F1200 
 G1 X-12.052 Y4.184 F1800 
 G1 X13.183 Y-21.051 EXT=IC( 1.056 ) F1200 
 G1 X13.374 Y-20.677 F1800 
 G1 X-11.677 Y4.374 EXT=IC( 1.049 ) F1200 
 G1 X-11.303 Y4.565 F1800 
 G1 X13.565 Y-20.302 EXT=IC( 1.041 ) F1200 
 G1 X13.678 Y-19.849 F1800 
 G1 X-10.85 Y4.678 EXT=IC( 1.027 ) F1200 
 G1 X-10.361 Y4.756 F1800 
 G1 X13.755 Y-19.361 EXT=IC( 1.01 ) F1200 
 G1 X13.828 Y-18.869 F1800 
 G1 X-9.869 Y4.828 EXT=IC( 0.992 ) F1200 
 G1 X-9.303 Y4.828 F1800 
 G1 X13.828 Y-18.303 EXT=IC( 0.968 ) F1200 
 G1 X13.828 Y-17.737 F1800 
 G1 X-8.737 Y4.828 EXT=IC( 0.945 ) F1200 
 G1 X-8.172 Y4.828 F1800 
 G1 X13.828 Y-17.172 EXT=IC( 0.921 ) F1200 
 G1 X13.828 Y-16.606 F1800 
 G1 X-7.606 Y4.828 EXT=IC( 0.897 ) F1200 
 G1 X-7.04 Y4.828 F1800 
 G1 X13.828 Y-16.04 EXT=IC( 0.874 ) F1200 
 G1 X13.828 Y-15.474 F1800 
 G1 X-6.474 Y4.828 EXT=IC( 0.85 ) F1200 
 G1 X-5.909 Y4.828 F1800 
 G1 X13.828 Y-14.909 EXT=IC( 0.826 ) F1200 
 G1 X13.828 Y-14.343 F1800 
 G1 X-5.343 Y4.828 EXT=IC( 0.803 ) F1200 
 G1 X-4.777 Y4.828 F1800 
 G1 X13.828 Y-13.777 EXT=IC( 0.779 ) F1200 
 G1 X13.828 Y-13.212 F1800 
 G1 X-4.212 Y4.828 EXT=IC( 0.755 ) F1200 
 G1 X-3.646 Y4.828 F1800 
 G1 X13.828 Y-12.646 EXT=IC( 0.732 ) F1200 
 G1 X13.828 Y-12.08 F1800 
 G1 X-3.08 Y4.828 EXT=IC( 0.708 ) F1200 
 G1 X-2.515 Y4.828 F1800 
 G1 X13.828 Y-11.515 EXT=IC( 0.684 ) F1200 
 G1 X13.828 Y-10.949 F1800 
 G1 X-1.949 Y4.828 EXT=IC( 0.66 ) F1200 
 G1 X-1.383 Y4.828 F1800 
 G1 X13.828 Y-10.383 EXT=IC( 0.637 ) F1200 
 G1 X13.828 Y-9.818 F1800 
 G1 X-.818 Y4.828 EXT=IC( 0.613 ) F1200 
 G1 X-.252 Y4.828 F1800 
 G1 X13.828 Y-9.252 EXT=IC( 0.589 ) F1200 
 G1 X13.828 Y-8.687 F1800 
 G1 X0.313 Y4.828 EXT=IC( 0.566 ) F1200 
 G1 X0.878 Y4.828 F1800 
 G1 X13.828 Y-8.122 EXT=IC( 0.542 ) F1200 
 G1 X13.828 Y-7.556 F1800 
 G1 X1.444 Y4.828 EXT=IC( 0.518 ) F1200 
 G1 X2.01 Y4.828 F1800 
 G1 X13.828 Y-6.99 EXT=IC( 0.495 ) F1200 
 G1 X13.828 Y-6.425 F1800 
 G1 X2.575 Y4.828 EXT=IC( 0.471 ) F1200 
 G1 X3.141 Y4.828 F1800 
 G1 X13.828 Y-5.859 EXT=IC( 0.447 ) F1200 
 G1 X13.828 Y-5.293 F1800 
 G1 X3.707 Y4.828 EXT=IC( 0.424 ) F1200 
 G1 X4.273 Y4.828 F1800 
 G1 X13.828 Y-4.727 EXT=IC( 0.4 ) F1200 
 G1 X13.828 Y-4.162 F1800 
 G1 X4.838 Y4.828 EXT=IC( 0.376 ) F1200 
 G1 X5.404 Y4.828 F1800 
 G1 X13.828 Y-3.596 EXT=IC( 0.353 ) F1200 
 G1 X13.828 Y-3.03 F1800 
 G1 X5.97 Y4.828 EXT=IC( 0.329 ) F1200 
 G1 X6.535 Y4.828 F1800 
 G1 X13.828 Y-2.465 EXT=IC( 0.305 ) F1200 
 G1 X13.828 Y-1.899 F1800 
 G1 X7.101 Y4.828 EXT=IC( 0.282 ) F1200 
 G1 X7.667 Y4.828 F1800 
 G1 X13.828 Y-1.333 EXT=IC( 0.258 ) F1200 
 G1 X13.828 Y-.768 F1800 
 G1 X8.232 Y4.828 EXT=IC( 0.234 ) F1200 
 G1 X8.798 Y4.828 F1800 
 G1 X13.828 Y-.202 EXT=IC( 0.211 ) F1200 
 G1 X13.828 Y0.364 F1800 
 G1 X9.364 Y4.828 EXT=IC( 0.187 ) F1200 
 G1 X9.934 Y4.823 F1800 
 G1 X13.823 Y0.935 EXT=IC( 0.163 ) F1200 
 G1 X13.716 Y1.608 F1800 
 G1 X10.607 Y4.717 EXT=IC( 0.13 ) F1200 
 G1 X11.346 Y4.543 F1800 
 G1 X13.542 Y2.347 EXT=IC( 0.092 ) F1200 
 G1 X13.612 Y2.277 
;MESH:NONMESH

 G1 X11.329 Y-23.082 F1800 
 G1 X11.359 Y-23.177 
;TIME_ELAPSED:310.185454

;LAYER:2

;MESH:calibration_block_0_4_nozzle.stl

 G1 X11.359 Y-23.177 Z0.6 F2400 
;TYPE:WALL-INNER

 G1 X12.583 Y-22.553 EXT=IC( 0.041 ) 
 G1 X13.553 Y-21.583 EXT=IC( 0.041 ) 
 G1 X14.177 Y-20.359 EXT=IC( 0.041 ) 
 G1 X14.4 Y-18.951 EXT=IC( 0.042 ) 
 G1 X14.4 Y0.951 EXT=IC( 0.589 ) 
 G1 X14.177 Y2.359 EXT=IC( 0.042 ) 
 G1 X13.553 Y3.583 EXT=IC( 0.041 ) 
 G1 X12.583 Y4.553 EXT=IC( 0.041 ) 
 G1 X11.359 Y5.177 EXT=IC( 0.041 ) 
 G1 X9.951 Y5.4 EXT=IC( 0.042 ) 
 G1 X-9.951 Y5.4 EXT=IC( 0.589 ) 
 G1 X-11.359 Y5.177 EXT=IC( 0.042 ) 
 G1 X-12.583 Y4.553 EXT=IC( 0.041 ) 
 G1 X-13.553 Y3.583 EXT=IC( 0.041 ) 
 G1 X-14.177 Y2.359 EXT=IC( 0.041 ) 
 G1 X-14.4 Y0.951 EXT=IC( 0.042 ) 
 G1 X-14.4 Y-18.951 EXT=IC( 0.589 ) 
 G1 X-14.177 Y-20.359 EXT=IC( 0.042 ) 
 G1 X-13.553 Y-21.583 EXT=IC( 0.041 ) 
 G1 X-12.583 Y-22.553 EXT=IC( 0.041 ) 
 G1 X-11.359 Y-23.177 EXT=IC( 0.041 ) 
 G1 X-9.951 Y-23.4 EXT=IC( 0.042 ) 
 G1 X9.951 Y-23.4 EXT=IC( 0.589 ) 
 G1 X11.359 Y-23.177 EXT=IC( 0.042 ) 
 G1 X11.484 Y-23.562 
;TYPE:WALL-OUTER

 G1 X12.822 Y-22.88 EXT=IC( 0.044 ) F1200 
 G1 X13.88 Y-21.822 EXT=IC( 0.044 ) 
 G1 X14.562 Y-20.484 EXT=IC( 0.044 ) 
 G1 X14.8 Y-18.982 EXT=IC( 0.045 ) 
 G1 X14.8 Y0.982 EXT=IC( 0.591 ) 
 G1 X14.562 Y2.484 EXT=IC( 0.045 ) 
 G1 X13.88 Y3.822 EXT=IC( 0.044 ) 
 G1 X12.822 Y4.88 EXT=IC( 0.044 ) 
 G1 X11.484 Y5.562 EXT=IC( 0.044 ) 
 G1 X9.982 Y5.8 EXT=IC( 0.045 ) 
 G1 X-9.982 Y5.8 EXT=IC( 0.591 ) 
 G1 X-11.484 Y5.562 EXT=IC( 0.045 ) 
 G1 X-12.822 Y4.88 EXT=IC( 0.044 ) 
 G1 X-13.88 Y3.822 EXT=IC( 0.044 ) 
 G1 X-14.562 Y2.484 EXT=IC( 0.044 ) 
 G1 X-14.8 Y0.982 EXT=IC( 0.045 ) 
 G1 X-14.8 Y-18.982 EXT=IC( 0.591 ) 
 G1 X-14.562 Y-20.484 EXT=IC( 0.045 ) 
 G1 X-13.88 Y-21.822 EXT=IC( 0.044 ) 
 G1 X-12.822 Y-22.88 EXT=IC( 0.044 ) 
 G1 X-11.484 Y-23.562 EXT=IC( 0.044 ) 
 G1 X-9.982 Y-23.8 EXT=IC( 0.045 ) 
 G1 X9.982 Y-23.8 EXT=IC( 0.591 ) 
 G1 X11.484 Y-23.562 EXT=IC( 0.045 ) 
 G1 X11.662 Y-23.472 F2400 
 G1 X11.462 Y-23.08 
 G1 X11.298 Y-22.76 
;MESH:NONMESH

 G1 X11.359 Y-23.177 
;TIME_ELAPSED:318.513361

;LAYER:3

;MESH:calibration_block_0_4_nozzle.stl

 G1 X11.359 Y-23.177 Z0.8 
;TYPE:WALL-INNER

 G1 X12.583 Y-22.553 EXT=IC( 0.041 ) 
 G1 X13.553 Y-21.583 EXT=IC( 0.041 ) 
 G1 X14.177 Y-20.359 EXT=IC( 0.041 ) 
 G1 X14.4 Y-18.951 EXT=IC( 0.042 ) 
 G1 X14.4 Y0.951 EXT=IC( 0.589 ) 
 G1 X14.177 Y2.359 EXT=IC( 0.042 ) 
 G1 X13.553 Y3.583 EXT=IC( 0.041 ) 
 G1 X12.583 Y4.553 EXT=IC( 0.041 ) 
 G1 X11.359 Y5.177 EXT=IC( 0.041 ) 
 G1 X9.951 Y5.4 EXT=IC( 0.042 ) 
 G1 X-9.951 Y5.4 EXT=IC( 0.589 ) 
 G1 X-11.359 Y5.177 EXT=IC( 0.042 ) 
 G1 X-12.583 Y4.553 EXT=IC( 0.041 ) 
 G1 X-13.553 Y3.583 EXT=IC( 0.041 ) 
 G1 X-14.177 Y2.359 EXT=IC( 0.041 ) 
 G1 X-14.4 Y0.951 EXT=IC( 0.042 ) 
 G1 X-14.4 Y-18.951 EXT=IC( 0.589 ) 
 G1 X-14.177 Y-20.359 EXT=IC( 0.042 ) 
 G1 X-13.553 Y-21.583 EXT=IC( 0.041 ) 
 G1 X-12.583 Y-22.553 EXT=IC( 0.041 ) 
 G1 X-11.359 Y-23.177 EXT=IC( 0.041 ) 
 G1 X-9.951 Y-23.4 EXT=IC( 0.042 ) 
 G1 X9.951 Y-23.4 EXT=IC( 0.589 ) 
 G1 X11.359 Y-23.177 EXT=IC( 0.042 ) 
 G1 X11.484 Y-23.562 
;TYPE:WALL-OUTER

 G1 X12.822 Y-22.88 EXT=IC( 0.044 ) F1200 
 G1 X13.88 Y-21.822 EXT=IC( 0.044 ) 
 G1 X14.562 Y-20.484 EXT=IC( 0.044 ) 
 G1 X14.8 Y-18.982 EXT=IC( 0.045 ) 
 G1 X14.8 Y0.982 EXT=IC( 0.591 ) 
 G1 X14.562 Y2.484 EXT=IC( 0.045 ) 
 G1 X13.88 Y3.822 EXT=IC( 0.044 ) 
 G1 X12.822 Y4.88 EXT=IC( 0.044 ) 
 G1 X11.484 Y5.562 EXT=IC( 0.044 ) 
 G1 X9.982 Y5.8 EXT=IC( 0.045 ) 
 G1 X-9.982 Y5.8 EXT=IC( 0.591 ) 
 G1 X-11.484 Y5.562 EXT=IC( 0.045 ) 
 G1 X-12.822 Y4.88 EXT=IC( 0.044 ) 
 G1 X-13.88 Y3.822 EXT=IC( 0.044 ) 
 G1 X-14.562 Y2.484 EXT=IC( 0.044 ) 
 G1 X-14.8 Y0.982 EXT=IC( 0.045 ) 
 G1 X-14.8 Y-18.982 EXT=IC( 0.591 ) 
 G1 X-14.562 Y-20.484 EXT=IC( 0.045 ) 
 G1 X-13.88 Y-21.822 EXT=IC( 0.044 ) 
 G1 X-12.822 Y-22.88 EXT=IC( 0.044 ) 
 G1 X-11.484 Y-23.562 EXT=IC( 0.044 ) 
 G1 X-9.982 Y-23.8 EXT=IC( 0.045 ) 
 G1 X9.982 Y-23.8 EXT=IC( 0.591 ) 
 G1 X11.484 Y-23.562 EXT=IC( 0.045 ) 
 G1 X11.662 Y-23.472 F2400 
 G1 X11.462 Y-23.08 
 G1 X11.298 Y-22.76 
;MESH:NONMESH

 G1 X11.359 Y-23.177 
;TIME_ELAPSED:326.841268

;LAYER:4

;MESH:calibration_block_0_4_nozzle.stl

 G1 X11.359 Y-23.177 Z1 
;TYPE:WALL-INNER

 G1 X12.583 Y-22.553 EXT=IC( 0.041 ) 
 G1 X13.553 Y-21.583 EXT=IC( 0.041 ) 
 G1 X14.177 Y-20.359 EXT=IC( 0.041 ) 
 G1 X14.4 Y-18.951 EXT=IC( 0.042 ) 
 G1 X14.4 Y0.951 EXT=IC( 0.589 ) 
 G1 X14.177 Y2.359 EXT=IC( 0.042 ) 
 G1 X13.553 Y3.583 EXT=IC( 0.041 ) 
 G1 X12.583 Y4.553 EXT=IC( 0.041 ) 
 G1 X11.359 Y5.177 EXT=IC( 0.041 ) 
 G1 X9.951 Y5.4 EXT=IC( 0.042 ) 
 G1 X-9.951 Y5.4 EXT=IC( 0.589 ) 
 G1 X-11.359 Y5.177 EXT=IC( 0.042 ) 
 G1 X-12.583 Y4.553 EXT=IC( 0.041 ) 
 G1 X-13.553 Y3.583 EXT=IC( 0.041 ) 
 G1 X-14.177 Y2.359 EXT=IC( 0.041 ) 
 G1 X-14.4 Y0.951 EXT=IC( 0.042 ) 
 G1 X-14.4 Y-18.951 EXT=IC( 0.589 ) 
 G1 X-14.177 Y-20.359 EXT=IC( 0.042 ) 
 G1 X-13.553 Y-21.583 EXT=IC( 0.041 ) 
 G1 X-12.583 Y-22.553 EXT=IC( 0.041 ) 
 G1 X-11.359 Y-23.177 EXT=IC( 0.041 ) 
 G1 X-9.951 Y-23.4 EXT=IC( 0.042 ) 
 G1 X9.951 Y-23.4 EXT=IC( 0.589 ) 
 G1 X11.359 Y-23.177 EXT=IC( 0.042 ) 
 G1 X11.484 Y-23.562 
;TYPE:WALL-OUTER

 G1 X12.822 Y-22.88 EXT=IC( 0.044 ) F1200 
 G1 X13.88 Y-21.822 EXT=IC( 0.044 ) 
 G1 X14.562 Y-20.484 EXT=IC( 0.044 ) 
 G1 X14.8 Y-18.982 EXT=IC( 0.045 ) 
 G1 X14.8 Y0.982 EXT=IC( 0.591 ) 
 G1 X14.562 Y2.484 EXT=IC( 0.045 ) 
 G1 X13.88 Y3.822 EXT=IC( 0.044 ) 
 G1 X12.822 Y4.88 EXT=IC( 0.044 ) 
 G1 X11.484 Y5.562 EXT=IC( 0.044 ) 
 G1 X9.982 Y5.8 EXT=IC( 0.045 ) 
 G1 X-9.982 Y5.8 EXT=IC( 0.591 ) 
 G1 X-11.484 Y5.562 EXT=IC( 0.045 ) 
 G1 X-12.822 Y4.88 EXT=IC( 0.044 ) 
 G1 X-13.88 Y3.822 EXT=IC( 0.044 ) 
 G1 X-14.562 Y2.484 EXT=IC( 0.044 ) 
 G1 X-14.8 Y0.982 EXT=IC( 0.045 ) 
 G1 X-14.8 Y-18.982 EXT=IC( 0.591 ) 
 G1 X-14.562 Y-20.484 EXT=IC( 0.045 ) 
 G1 X-13.88 Y-21.822 EXT=IC( 0.044 ) 
 G1 X-12.822 Y-22.88 EXT=IC( 0.044 ) 
 G1 X-11.484 Y-23.562 EXT=IC( 0.044 ) 
 G1 X-9.982 Y-23.8 EXT=IC( 0.045 ) 
 G1 X9.982 Y-23.8 EXT=IC( 0.591 ) 
 G1 X11.484 Y-23.562 EXT=IC( 0.045 ) 
 G1 X11.662 Y-23.472 F2400 
 G1 X11.462 Y-23.08 
 G1 X11.298 Y-22.76 
;MESH:NONMESH

 G1 X11.359 Y-23.177 
;TIME_ELAPSED:335.169176

;LAYER:5

;MESH:calibration_block_0_4_nozzle.stl

 G1 X11.359 Y-23.177 Z1.2 
;TYPE:WALL-INNER

 G1 X12.583 Y-22.553 EXT=IC( 0.041 ) 
 G1 X13.553 Y-21.583 EXT=IC( 0.041 ) 
 G1 X14.177 Y-20.359 EXT=IC( 0.041 ) 
 G1 X14.4 Y-18.951 EXT=IC( 0.042 ) 
 G1 X14.4 Y0.951 EXT=IC( 0.589 ) 
 G1 X14.177 Y2.359 EXT=IC( 0.042 ) 
 G1 X13.553 Y3.583 EXT=IC( 0.041 ) 
 G1 X12.583 Y4.553 EXT=IC( 0.041 ) 
 G1 X11.359 Y5.177 EXT=IC( 0.041 ) 
 G1 X9.951 Y5.4 EXT=IC( 0.042 ) 
 G1 X-9.951 Y5.4 EXT=IC( 0.589 ) 
 G1 X-11.359 Y5.177 EXT=IC( 0.042 ) 
 G1 X-12.583 Y4.553 EXT=IC( 0.041 ) 
 G1 X-13.553 Y3.583 EXT=IC( 0.041 ) 
 G1 X-14.177 Y2.359 EXT=IC( 0.041 ) 
 G1 X-14.4 Y0.951 EXT=IC( 0.042 ) 
 G1 X-14.4 Y-18.951 EXT=IC( 0.589 ) 
 G1 X-14.177 Y-20.359 EXT=IC( 0.042 ) 
 G1 X-13.553 Y-21.583 EXT=IC( 0.041 ) 
 G1 X-12.583 Y-22.553 EXT=IC( 0.041 ) 
 G1 X-11.359 Y-23.177 EXT=IC( 0.041 ) 
 G1 X-9.951 Y-23.4 EXT=IC( 0.042 ) 
 G1 X9.951 Y-23.4 EXT=IC( 0.589 ) 
 G1 X11.359 Y-23.177 EXT=IC( 0.042 ) 
 G1 X11.484 Y-23.562 
;TYPE:WALL-OUTER

 G1 X12.822 Y-22.88 EXT=IC( 0.044 ) F1200 
 G1 X13.88 Y-21.822 EXT=IC( 0.044 ) 
 G1 X14.562 Y-20.484 EXT=IC( 0.044 ) 
 G1 X14.8 Y-18.982 EXT=IC( 0.045 ) 
 G1 X14.8 Y0.982 EXT=IC( 0.591 ) 
 G1 X14.562 Y2.484 EXT=IC( 0.045 ) 
 G1 X13.88 Y3.822 EXT=IC( 0.044 ) 
 G1 X12.822 Y4.88 EXT=IC( 0.044 ) 
 G1 X11.484 Y5.562 EXT=IC( 0.044 ) 
 G1 X9.982 Y5.8 EXT=IC( 0.045 ) 
 G1 X-9.982 Y5.8 EXT=IC( 0.591 ) 
 G1 X-11.484 Y5.562 EXT=IC( 0.045 ) 
 G1 X-12.822 Y4.88 EXT=IC( 0.044 ) 
 G1 X-13.88 Y3.822 EXT=IC( 0.044 ) 
 G1 X-14.562 Y2.484 EXT=IC( 0.044 ) 
 G1 X-14.8 Y0.982 EXT=IC( 0.045 ) 
 G1 X-14.8 Y-18.982 EXT=IC( 0.591 ) 
 G1 X-14.562 Y-20.484 EXT=IC( 0.045 ) 
 G1 X-13.88 Y-21.822 EXT=IC( 0.044 ) 
 G1 X-12.822 Y-22.88 EXT=IC( 0.044 ) 
 G1 X-11.484 Y-23.562 EXT=IC( 0.044 ) 
 G1 X-9.982 Y-23.8 EXT=IC( 0.045 ) 
 G1 X9.982 Y-23.8 EXT=IC( 0.591 ) 
 G1 X11.484 Y-23.562 EXT=IC( 0.045 ) 
 G1 X11.662 Y-23.472 F2400 
 G1 X11.462 Y-23.08 
 G1 X11.298 Y-22.76 
;MESH:NONMESH

 G1 X11.359 Y-23.177 
;TIME_ELAPSED:343.497083

;LAYER:6

;MESH:calibration_block_0_4_nozzle.stl

 G1 X11.359 Y-23.177 Z1.4 
;TYPE:WALL-INNER

 G1 X12.583 Y-22.553 EXT=IC( 0.041 ) 
 G1 X13.553 Y-21.583 EXT=IC( 0.041 ) 
 G1 X14.177 Y-20.359 EXT=IC( 0.041 ) 
 G1 X14.4 Y-18.951 EXT=IC( 0.042 ) 
 G1 X14.4 Y0.951 EXT=IC( 0.589 ) 
 G1 X14.177 Y2.359 EXT=IC( 0.042 ) 
 G1 X13.553 Y3.583 EXT=IC( 0.041 ) 
 G1 X12.583 Y4.553 EXT=IC( 0.041 ) 
 G1 X11.359 Y5.177 EXT=IC( 0.041 ) 
 G1 X9.951 Y5.4 EXT=IC( 0.042 ) 
 G1 X-9.951 Y5.4 EXT=IC( 0.589 ) 
 G1 X-11.359 Y5.177 EXT=IC( 0.042 ) 
 G1 X-12.583 Y4.553 EXT=IC( 0.041 ) 
 G1 X-13.553 Y3.583 EXT=IC( 0.041 ) 
 G1 X-14.177 Y2.359 EXT=IC( 0.041 ) 
 G1 X-14.4 Y0.951 EXT=IC( 0.042 ) 
 G1 X-14.4 Y-18.951 EXT=IC( 0.589 ) 
 G1 X-14.177 Y-20.359 EXT=IC( 0.042 ) 
 G1 X-13.553 Y-21.583 EXT=IC( 0.041 ) 
 G1 X-12.583 Y-22.553 EXT=IC( 0.041 ) 
 G1 X-11.359 Y-23.177 EXT=IC( 0.041 ) 
 G1 X-9.951 Y-23.4 EXT=IC( 0.042 ) 
 G1 X9.951 Y-23.4 EXT=IC( 0.589 ) 
 G1 X11.359 Y-23.177 EXT=IC( 0.042 ) 
 G1 X11.484 Y-23.562 
;TYPE:WALL-OUTER

 G1 X12.822 Y-22.88 EXT=IC( 0.044 ) F1200 
 G1 X13.88 Y-21.822 EXT=IC( 0.044 ) 
 G1 X14.562 Y-20.484 EXT=IC( 0.044 ) 
 G1 X14.8 Y-18.982 EXT=IC( 0.045 ) 
 G1 X14.8 Y0.982 EXT=IC( 0.591 ) 
 G1 X14.562 Y2.484 EXT=IC( 0.045 ) 
 G1 X13.88 Y3.822 EXT=IC( 0.044 ) 
 G1 X12.822 Y4.88 EXT=IC( 0.044 ) 
 G1 X11.484 Y5.562 EXT=IC( 0.044 ) 
 G1 X9.982 Y5.8 EXT=IC( 0.045 ) 
 G1 X-9.982 Y5.8 EXT=IC( 0.591 ) 
 G1 X-11.484 Y5.562 EXT=IC( 0.045 ) 
 G1 X-12.822 Y4.88 EXT=IC( 0.044 ) 
 G1 X-13.88 Y3.822 EXT=IC( 0.044 ) 
 G1 X-14.562 Y2.484 EXT=IC( 0.044 ) 
 G1 X-14.8 Y0.982 EXT=IC( 0.045 ) 
 G1 X-14.8 Y-18.982 EXT=IC( 0.591 ) 
 G1 X-14.562 Y-20.484 EXT=IC( 0.045 ) 
 G1 X-13.88 Y-21.822 EXT=IC( 0.044 ) 
 G1 X-12.822 Y-22.88 EXT=IC( 0.044 ) 
 G1 X-11.484 Y-23.562 EXT=IC( 0.044 ) 
 G1 X-9.982 Y-23.8 EXT=IC( 0.045 ) 
 G1 X9.982 Y-23.8 EXT=IC( 0.591 ) 
 G1 X11.484 Y-23.562 EXT=IC( 0.045 ) 
 G1 X11.662 Y-23.472 F2400 
 G1 X11.462 Y-23.08 
 G1 X11.298 Y-22.76 
;MESH:NONMESH

 G1 X11.359 Y-23.177 
;TIME_ELAPSED:351.824990

;LAYER:7

;MESH:calibration_block_0_4_nozzle.stl

 G1 X11.359 Y-23.177 Z1.6 
;TYPE:WALL-INNER

 G1 X12.583 Y-22.553 EXT=IC( 0.041 ) 
 G1 X13.553 Y-21.583 EXT=IC( 0.041 ) 
 G1 X14.177 Y-20.359 EXT=IC( 0.041 ) 
 G1 X14.4 Y-18.951 EXT=IC( 0.042 ) 
 G1 X14.4 Y0.951 EXT=IC( 0.589 ) 
 G1 X14.177 Y2.359 EXT=IC( 0.042 ) 
 G1 X13.553 Y3.583 EXT=IC( 0.041 ) 
 G1 X12.583 Y4.553 EXT=IC( 0.041 ) 
 G1 X11.359 Y5.177 EXT=IC( 0.041 ) 
 G1 X9.951 Y5.4 EXT=IC( 0.042 ) 
 G1 X-9.951 Y5.4 EXT=IC( 0.589 ) 
 G1 X-11.359 Y5.177 EXT=IC( 0.042 ) 
 G1 X-12.583 Y4.553 EXT=IC( 0.041 ) 
 G1 X-13.553 Y3.583 EXT=IC( 0.041 ) 
 G1 X-14.177 Y2.359 EXT=IC( 0.041 ) 
 G1 X-14.4 Y0.951 EXT=IC( 0.042 ) 
 G1 X-14.4 Y-18.951 EXT=IC( 0.589 ) 
 G1 X-14.177 Y-20.359 EXT=IC( 0.042 ) 
 G1 X-13.553 Y-21.583 EXT=IC( 0.041 ) 
 G1 X-12.583 Y-22.553 EXT=IC( 0.041 ) 
 G1 X-11.359 Y-23.177 EXT=IC( 0.041 ) 
 G1 X-9.951 Y-23.4 EXT=IC( 0.042 ) 
 G1 X9.951 Y-23.4 EXT=IC( 0.589 ) 
 G1 X11.359 Y-23.177 EXT=IC( 0.042 ) 
 G1 X11.484 Y-23.562 
;TYPE:WALL-OUTER

 G1 X12.822 Y-22.88 EXT=IC( 0.044 ) F1200 
 G1 X13.88 Y-21.822 EXT=IC( 0.044 ) 
 G1 X14.562 Y-20.484 EXT=IC( 0.044 ) 
 G1 X14.8 Y-18.982 EXT=IC( 0.045 ) 
 G1 X14.8 Y0.982 EXT=IC( 0.591 ) 
 G1 X14.562 Y2.484 EXT=IC( 0.045 ) 
 G1 X13.88 Y3.822 EXT=IC( 0.044 ) 
 G1 X12.822 Y4.88 EXT=IC( 0.044 ) 
 G1 X11.484 Y5.562 EXT=IC( 0.044 ) 
 G1 X9.982 Y5.8 EXT=IC( 0.045 ) 
 G1 X-9.982 Y5.8 EXT=IC( 0.591 ) 
 G1 X-11.484 Y5.562 EXT=IC( 0.045 ) 
 G1 X-12.822 Y4.88 EXT=IC( 0.044 ) 
 G1 X-13.88 Y3.822 EXT=IC( 0.044 ) 
 G1 X-14.562 Y2.484 EXT=IC( 0.044 ) 
 G1 X-14.8 Y0.982 EXT=IC( 0.045 ) 
 G1 X-14.8 Y-18.982 EXT=IC( 0.591 ) 
 G1 X-14.562 Y-20.484 EXT=IC( 0.045 ) 
 G1 X-13.88 Y-21.822 EXT=IC( 0.044 ) 
 G1 X-12.822 Y-22.88 EXT=IC( 0.044 ) 
 G1 X-11.484 Y-23.562 EXT=IC( 0.044 ) 
 G1 X-9.982 Y-23.8 EXT=IC( 0.045 ) 
 G1 X9.982 Y-23.8 EXT=IC( 0.591 ) 
 G1 X11.484 Y-23.562 EXT=IC( 0.045 ) 
 G1 X11.662 Y-23.472 F2400 
 G1 X11.462 Y-23.08 
 G1 X11.298 Y-22.76 
;MESH:NONMESH

 G1 X11.359 Y-23.177 
;TIME_ELAPSED:360.152897

;LAYER:8

;MESH:calibration_block_0_4_nozzle.stl

 G1 X11.359 Y-23.177 Z1.8 
;TYPE:WALL-INNER

 G1 X12.583 Y-22.553 EXT=IC( 0.041 ) 
 G1 X13.553 Y-21.583 EXT=IC( 0.041 ) 
 G1 X14.177 Y-20.359 EXT=IC( 0.041 ) 
 G1 X14.4 Y-18.951 EXT=IC( 0.042 ) 
 G1 X14.4 Y0.951 EXT=IC( 0.589 ) 
 G1 X14.177 Y2.359 EXT=IC( 0.042 ) 
 G1 X13.553 Y3.583 EXT=IC( 0.041 ) 
 G1 X12.583 Y4.553 EXT=IC( 0.041 ) 
 G1 X11.359 Y5.177 EXT=IC( 0.041 ) 
 G1 X9.951 Y5.4 EXT=IC( 0.042 ) 
 G1 X-9.951 Y5.4 EXT=IC( 0.589 ) 
 G1 X-11.359 Y5.177 EXT=IC( 0.042 ) 
 G1 X-12.583 Y4.553 EXT=IC( 0.041 ) 
 G1 X-13.553 Y3.583 EXT=IC( 0.041 ) 
 G1 X-14.177 Y2.359 EXT=IC( 0.041 ) 
 G1 X-14.4 Y0.951 EXT=IC( 0.042 ) 
 G1 X-14.4 Y-18.951 EXT=IC( 0.589 ) 
 G1 X-14.177 Y-20.359 EXT=IC( 0.042 ) 
 G1 X-13.553 Y-21.583 EXT=IC( 0.041 ) 
 G1 X-12.583 Y-22.553 EXT=IC( 0.041 ) 
 G1 X-11.359 Y-23.177 EXT=IC( 0.041 ) 
 G1 X-9.951 Y-23.4 EXT=IC( 0.042 ) 
 G1 X9.951 Y-23.4 EXT=IC( 0.589 ) 
 G1 X11.359 Y-23.177 EXT=IC( 0.042 ) 
 G1 X11.484 Y-23.562 
;TYPE:WALL-OUTER

 G1 X12.822 Y-22.88 EXT=IC( 0.044 ) F1200 
 G1 X13.88 Y-21.822 EXT=IC( 0.044 ) 
 G1 X14.562 Y-20.484 EXT=IC( 0.044 ) 
 G1 X14.8 Y-18.982 EXT=IC( 0.045 ) 
 G1 X14.8 Y0.982 EXT=IC( 0.591 ) 
 G1 X14.562 Y2.484 EXT=IC( 0.045 ) 
 G1 X13.88 Y3.822 EXT=IC( 0.044 ) 
 G1 X12.822 Y4.88 EXT=IC( 0.044 ) 
 G1 X11.484 Y5.562 EXT=IC( 0.044 ) 
 G1 X9.982 Y5.8 EXT=IC( 0.045 ) 
 G1 X-9.982 Y5.8 EXT=IC( 0.591 ) 
 G1 X-11.484 Y5.562 EXT=IC( 0.045 ) 
 G1 X-12.822 Y4.88 EXT=IC( 0.044 ) 
 G1 X-13.88 Y3.822 EXT=IC( 0.044 ) 
 G1 X-14.562 Y2.484 EXT=IC( 0.044 ) 
 G1 X-14.8 Y0.982 EXT=IC( 0.045 ) 
 G1 X-14.8 Y-18.982 EXT=IC( 0.591 ) 
 G1 X-14.562 Y-20.484 EXT=IC( 0.045 ) 
 G1 X-13.88 Y-21.822 EXT=IC( 0.044 ) 
 G1 X-12.822 Y-22.88 EXT=IC( 0.044 ) 
 G1 X-11.484 Y-23.562 EXT=IC( 0.044 ) 
 G1 X-9.982 Y-23.8 EXT=IC( 0.045 ) 
 G1 X9.982 Y-23.8 EXT=IC( 0.591 ) 
 G1 X11.484 Y-23.562 EXT=IC( 0.045 ) 
 G1 X11.662 Y-23.472 F2400 
 G1 X11.462 Y-23.08 
 G1 X11.298 Y-22.76 
;MESH:NONMESH

 G1 X11.359 Y-23.177 
;TIME_ELAPSED:368.480805

;LAYER:9

;MESH:calibration_block_0_4_nozzle.stl

 G1 X11.359 Y-23.177 Z2 
;TYPE:WALL-INNER

 G1 X12.583 Y-22.553 EXT=IC( 0.041 ) 
 G1 X13.553 Y-21.583 EXT=IC( 0.041 ) 
 G1 X14.177 Y-20.359 EXT=IC( 0.041 ) 
 G1 X14.4 Y-18.951 EXT=IC( 0.042 ) 
 G1 X14.4 Y0.951 EXT=IC( 0.589 ) 
 G1 X14.177 Y2.359 EXT=IC( 0.042 ) 
 G1 X13.553 Y3.583 EXT=IC( 0.041 ) 
 G1 X12.583 Y4.553 EXT=IC( 0.041 ) 
 G1 X11.359 Y5.177 EXT=IC( 0.041 ) 
 G1 X9.951 Y5.4 EXT=IC( 0.042 ) 
 G1 X-9.951 Y5.4 EXT=IC( 0.589 ) 
 G1 X-11.359 Y5.177 EXT=IC( 0.042 ) 
 G1 X-12.583 Y4.553 EXT=IC( 0.041 ) 
 G1 X-13.553 Y3.583 EXT=IC( 0.041 ) 
 G1 X-14.177 Y2.359 EXT=IC( 0.041 ) 
 G1 X-14.4 Y0.951 EXT=IC( 0.042 ) 
 G1 X-14.4 Y-18.951 EXT=IC( 0.589 ) 
 G1 X-14.177 Y-20.359 EXT=IC( 0.042 ) 
 G1 X-13.553 Y-21.583 EXT=IC( 0.041 ) 
 G1 X-12.583 Y-22.553 EXT=IC( 0.041 ) 
 G1 X-11.359 Y-23.177 EXT=IC( 0.041 ) 
 G1 X-9.951 Y-23.4 EXT=IC( 0.042 ) 
 G1 X9.951 Y-23.4 EXT=IC( 0.589 ) 
 G1 X11.359 Y-23.177 EXT=IC( 0.042 ) 
 G1 X11.484 Y-23.562 
;TYPE:WALL-OUTER

 G1 X12.822 Y-22.88 EXT=IC( 0.044 ) F1200 
 G1 X13.88 Y-21.822 EXT=IC( 0.044 ) 
 G1 X14.562 Y-20.484 EXT=IC( 0.044 ) 
 G1 X14.8 Y-18.982 EXT=IC( 0.045 ) 
 G1 X14.8 Y0.982 EXT=IC( 0.591 ) 
 G1 X14.562 Y2.484 EXT=IC( 0.045 ) 
 G1 X13.88 Y3.822 EXT=IC( 0.044 ) 
 G1 X12.822 Y4.88 EXT=IC( 0.044 ) 
 G1 X11.484 Y5.562 EXT=IC( 0.044 ) 
 G1 X9.982 Y5.8 EXT=IC( 0.045 ) 
 G1 X-9.982 Y5.8 EXT=IC( 0.591 ) 
 G1 X-11.484 Y5.562 EXT=IC( 0.045 ) 
 G1 X-12.822 Y4.88 EXT=IC( 0.044 ) 
 G1 X-13.88 Y3.822 EXT=IC( 0.044 ) 
 G1 X-14.562 Y2.484 EXT=IC( 0.044 ) 
 G1 X-14.8 Y0.982 EXT=IC( 0.045 ) 
 G1 X-14.8 Y-18.982 EXT=IC( 0.591 ) 
 G1 X-14.562 Y-20.484 EXT=IC( 0.045 ) 
 G1 X-13.88 Y-21.822 EXT=IC( 0.044 ) 
 G1 X-12.822 Y-22.88 EXT=IC( 0.044 ) 
 G1 X-11.484 Y-23.562 EXT=IC( 0.044 ) 
 G1 X-9.982 Y-23.8 EXT=IC( 0.045 ) 
 G1 X9.982 Y-23.8 EXT=IC( 0.591 ) 
 G1 X11.484 Y-23.562 EXT=IC( 0.045 ) 
 G1 X11.662 Y-23.472 F2400 
 G1 X11.462 Y-23.08 
 G1 X11.298 Y-22.76 
;MESH:NONMESH

 G1 X11.359 Y-23.177 
;TIME_ELAPSED:376.808712

;LAYER:10

;MESH:calibration_block_0_4_nozzle.stl

 G1 X11.359 Y-23.177 Z2.2 
;TYPE:WALL-INNER

 G1 X12.583 Y-22.553 EXT=IC( 0.041 ) 
 G1 X13.553 Y-21.583 EXT=IC( 0.041 ) 
 G1 X14.177 Y-20.359 EXT=IC( 0.041 ) 
 G1 X14.4 Y-18.951 EXT=IC( 0.042 ) 
 G1 X14.4 Y0.951 EXT=IC( 0.589 ) 
 G1 X14.177 Y2.359 EXT=IC( 0.042 ) 
 G1 X13.553 Y3.583 EXT=IC( 0.041 ) 
 G1 X12.583 Y4.553 EXT=IC( 0.041 ) 
 G1 X11.359 Y5.177 EXT=IC( 0.041 ) 
 G1 X9.951 Y5.4 EXT=IC( 0.042 ) 
 G1 X-9.951 Y5.4 EXT=IC( 0.589 ) 
 G1 X-11.359 Y5.177 EXT=IC( 0.042 ) 
 G1 X-12.583 Y4.553 EXT=IC( 0.041 ) 
 G1 X-13.553 Y3.583 EXT=IC( 0.041 ) 
 G1 X-14.177 Y2.359 EXT=IC( 0.041 ) 
 G1 X-14.4 Y0.951 EXT=IC( 0.042 ) 
 G1 X-14.4 Y-18.951 EXT=IC( 0.589 ) 
 G1 X-14.177 Y-20.359 EXT=IC( 0.042 ) 
 G1 X-13.553 Y-21.583 EXT=IC( 0.041 ) 
 G1 X-12.583 Y-22.553 EXT=IC( 0.041 ) 
 G1 X-11.359 Y-23.177 EXT=IC( 0.041 ) 
 G1 X-9.951 Y-23.4 EXT=IC( 0.042 ) 
 G1 X9.951 Y-23.4 EXT=IC( 0.589 ) 
 G1 X11.359 Y-23.177 EXT=IC( 0.042 ) 
 G1 X11.484 Y-23.562 
;TYPE:WALL-OUTER

 G1 X12.822 Y-22.88 EXT=IC( 0.044 ) F1200 
 G1 X13.88 Y-21.822 EXT=IC( 0.044 ) 
 G1 X14.562 Y-20.484 EXT=IC( 0.044 ) 
 G1 X14.8 Y-18.982 EXT=IC( 0.045 ) 
 G1 X14.8 Y0.982 EXT=IC( 0.591 ) 
 G1 X14.562 Y2.484 EXT=IC( 0.045 ) 
 G1 X13.88 Y3.822 EXT=IC( 0.044 ) 
 G1 X12.822 Y4.88 EXT=IC( 0.044 ) 
 G1 X11.484 Y5.562 EXT=IC( 0.044 ) 
 G1 X9.982 Y5.8 EXT=IC( 0.045 ) 
 G1 X-9.982 Y5.8 EXT=IC( 0.591 ) 
 G1 X-11.484 Y5.562 EXT=IC( 0.045 ) 
 G1 X-12.822 Y4.88 EXT=IC( 0.044 ) 
 G1 X-13.88 Y3.822 EXT=IC( 0.044 ) 
 G1 X-14.562 Y2.484 EXT=IC( 0.044 ) 
 G1 X-14.8 Y0.982 EXT=IC( 0.045 ) 
 G1 X-14.8 Y-18.982 EXT=IC( 0.591 ) 
 G1 X-14.562 Y-20.484 EXT=IC( 0.045 ) 
 G1 X-13.88 Y-21.822 EXT=IC( 0.044 ) 
 G1 X-12.822 Y-22.88 EXT=IC( 0.044 ) 
 G1 X-11.484 Y-23.562 EXT=IC( 0.044 ) 
 G1 X-9.982 Y-23.8 EXT=IC( 0.045 ) 
 G1 X9.982 Y-23.8 EXT=IC( 0.591 ) 
 G1 X11.484 Y-23.562 EXT=IC( 0.045 ) 
 G1 X11.662 Y-23.472 F2400 
 G1 X11.462 Y-23.08 
 G1 X11.298 Y-22.76 
;MESH:NONMESH

 G1 X11.359 Y-23.177 
;TIME_ELAPSED:385.136619

;LAYER:11

;MESH:calibration_block_0_4_nozzle.stl

 G1 X11.359 Y-23.177 Z2.4 
;TYPE:WALL-INNER

 G1 X12.583 Y-22.553 EXT=IC( 0.041 ) 
 G1 X13.553 Y-21.583 EXT=IC( 0.041 ) 
 G1 X14.177 Y-20.359 EXT=IC( 0.041 ) 
 G1 X14.4 Y-18.951 EXT=IC( 0.042 ) 
 G1 X14.4 Y0.951 EXT=IC( 0.589 ) 
 G1 X14.177 Y2.359 EXT=IC( 0.042 ) 
 G1 X13.553 Y3.583 EXT=IC( 0.041 ) 
 G1 X12.583 Y4.553 EXT=IC( 0.041 ) 
 G1 X11.359 Y5.177 EXT=IC( 0.041 ) 
 G1 X9.951 Y5.4 EXT=IC( 0.042 ) 
 G1 X-9.951 Y5.4 EXT=IC( 0.589 ) 
 G1 X-11.359 Y5.177 EXT=IC( 0.042 ) 
 G1 X-12.583 Y4.553 EXT=IC( 0.041 ) 
 G1 X-13.553 Y3.583 EXT=IC( 0.041 ) 
 G1 X-14.177 Y2.359 EXT=IC( 0.041 ) 
 G1 X-14.4 Y0.951 EXT=IC( 0.042 ) 
 G1 X-14.4 Y-18.951 EXT=IC( 0.589 ) 
 G1 X-14.177 Y-20.359 EXT=IC( 0.042 ) 
 G1 X-13.553 Y-21.583 EXT=IC( 0.041 ) 
 G1 X-12.583 Y-22.553 EXT=IC( 0.041 ) 
 G1 X-11.359 Y-23.177 EXT=IC( 0.041 ) 
 G1 X-9.951 Y-23.4 EXT=IC( 0.042 ) 
 G1 X9.951 Y-23.4 EXT=IC( 0.589 ) 
 G1 X11.359 Y-23.177 EXT=IC( 0.042 ) 
 G1 X11.484 Y-23.562 
;TYPE:WALL-OUTER

 G1 X12.822 Y-22.88 EXT=IC( 0.044 ) F1200 
 G1 X13.88 Y-21.822 EXT=IC( 0.044 ) 
 G1 X14.562 Y-20.484 EXT=IC( 0.044 ) 
 G1 X14.8 Y-18.982 EXT=IC( 0.045 ) 
 G1 X14.8 Y0.982 EXT=IC( 0.591 ) 
 G1 X14.562 Y2.484 EXT=IC( 0.045 ) 
 G1 X13.88 Y3.822 EXT=IC( 0.044 ) 
 G1 X12.822 Y4.88 EXT=IC( 0.044 ) 
 G1 X11.484 Y5.562 EXT=IC( 0.044 ) 
 G1 X9.982 Y5.8 EXT=IC( 0.045 ) 
 G1 X-9.982 Y5.8 EXT=IC( 0.591 ) 
 G1 X-11.484 Y5.562 EXT=IC( 0.045 ) 
 G1 X-12.822 Y4.88 EXT=IC( 0.044 ) 
 G1 X-13.88 Y3.822 EXT=IC( 0.044 ) 
 G1 X-14.562 Y2.484 EXT=IC( 0.044 ) 
 G1 X-14.8 Y0.982 EXT=IC( 0.045 ) 
 G1 X-14.8 Y-18.982 EXT=IC( 0.591 ) 
 G1 X-14.562 Y-20.484 EXT=IC( 0.045 ) 
 G1 X-13.88 Y-21.822 EXT=IC( 0.044 ) 
 G1 X-12.822 Y-22.88 EXT=IC( 0.044 ) 
 G1 X-11.484 Y-23.562 EXT=IC( 0.044 ) 
 G1 X-9.982 Y-23.8 EXT=IC( 0.045 ) 
 G1 X9.982 Y-23.8 EXT=IC( 0.591 ) 
 G1 X11.484 Y-23.562 EXT=IC( 0.045 ) 
 G1 X11.662 Y-23.472 F2400 
 G1 X11.462 Y-23.08 
 G1 X11.298 Y-22.76 
;MESH:NONMESH

 G1 X11.359 Y-23.177 
;TIME_ELAPSED:393.464527

;LAYER:12

;MESH:calibration_block_0_4_nozzle.stl

 G1 X11.359 Y-23.177 Z2.6 
;TYPE:WALL-INNER

 G1 X12.583 Y-22.553 EXT=IC( 0.041 ) 
 G1 X13.553 Y-21.583 EXT=IC( 0.041 ) 
 G1 X14.177 Y-20.359 EXT=IC( 0.041 ) 
 G1 X14.4 Y-18.951 EXT=IC( 0.042 ) 
 G1 X14.4 Y0.951 EXT=IC( 0.589 ) 
 G1 X14.177 Y2.359 EXT=IC( 0.042 ) 
 G1 X13.553 Y3.583 EXT=IC( 0.041 ) 
 G1 X12.583 Y4.553 EXT=IC( 0.041 ) 
 G1 X11.359 Y5.177 EXT=IC( 0.041 ) 
 G1 X9.951 Y5.4 EXT=IC( 0.042 ) 
 G1 X-9.951 Y5.4 EXT=IC( 0.589 ) 
 G1 X-11.359 Y5.177 EXT=IC( 0.042 ) 
 G1 X-12.583 Y4.553 EXT=IC( 0.041 ) 
 G1 X-13.553 Y3.583 EXT=IC( 0.041 ) 
 G1 X-14.177 Y2.359 EXT=IC( 0.041 ) 
 G1 X-14.4 Y0.951 EXT=IC( 0.042 ) 
 G1 X-14.4 Y-18.951 EXT=IC( 0.589 ) 
 G1 X-14.177 Y-20.359 EXT=IC( 0.042 ) 
 G1 X-13.553 Y-21.583 EXT=IC( 0.041 ) 
 G1 X-12.583 Y-22.553 EXT=IC( 0.041 ) 
 G1 X-11.359 Y-23.177 EXT=IC( 0.041 ) 
 G1 X-9.951 Y-23.4 EXT=IC( 0.042 ) 
 G1 X9.951 Y-23.4 EXT=IC( 0.589 ) 
 G1 X11.359 Y-23.177 EXT=IC( 0.042 ) 
 G1 X11.484 Y-23.562 
;TYPE:WALL-OUTER

 G1 X12.822 Y-22.88 EXT=IC( 0.044 ) F1200 
 G1 X13.88 Y-21.822 EXT=IC( 0.044 ) 
 G1 X14.562 Y-20.484 EXT=IC( 0.044 ) 
 G1 X14.8 Y-18.982 EXT=IC( 0.045 ) 
 G1 X14.8 Y0.982 EXT=IC( 0.591 ) 
 G1 X14.562 Y2.484 EXT=IC( 0.045 ) 
 G1 X13.88 Y3.822 EXT=IC( 0.044 ) 
 G1 X12.822 Y4.88 EXT=IC( 0.044 ) 
 G1 X11.484 Y5.562 EXT=IC( 0.044 ) 
 G1 X9.982 Y5.8 EXT=IC( 0.045 ) 
 G1 X-9.982 Y5.8 EXT=IC( 0.591 ) 
 G1 X-11.484 Y5.562 EXT=IC( 0.045 ) 
 G1 X-12.822 Y4.88 EXT=IC( 0.044 ) 
 G1 X-13.88 Y3.822 EXT=IC( 0.044 ) 
 G1 X-14.562 Y2.484 EXT=IC( 0.044 ) 
 G1 X-14.8 Y0.982 EXT=IC( 0.045 ) 
 G1 X-14.8 Y-18.982 EXT=IC( 0.591 ) 
 G1 X-14.562 Y-20.484 EXT=IC( 0.045 ) 
 G1 X-13.88 Y-21.822 EXT=IC( 0.044 ) 
 G1 X-12.822 Y-22.88 EXT=IC( 0.044 ) 
 G1 X-11.484 Y-23.562 EXT=IC( 0.044 ) 
 G1 X-9.982 Y-23.8 EXT=IC( 0.045 ) 
 G1 X9.982 Y-23.8 EXT=IC( 0.591 ) 
 G1 X11.484 Y-23.562 EXT=IC( 0.045 ) 
 G1 X11.662 Y-23.472 F2400 
 G1 X11.462 Y-23.08 
 G1 X11.298 Y-22.76 
;MESH:NONMESH

 G1 X11.359 Y-23.177 
;TIME_ELAPSED:401.792434

;LAYER:13

;MESH:calibration_block_0_4_nozzle.stl

 G1 X11.359 Y-23.177 Z2.8 
;TYPE:WALL-INNER

 G1 X12.583 Y-22.553 EXT=IC( 0.041 ) 
 G1 X13.553 Y-21.583 EXT=IC( 0.041 ) 
 G1 X14.177 Y-20.359 EXT=IC( 0.041 ) 
 G1 X14.4 Y-18.951 EXT=IC( 0.042 ) 
 G1 X14.4 Y0.951 EXT=IC( 0.589 ) 
 G1 X14.177 Y2.359 EXT=IC( 0.042 ) 
 G1 X13.553 Y3.583 EXT=IC( 0.041 ) 
 G1 X12.583 Y4.553 EXT=IC( 0.041 ) 
 G1 X11.359 Y5.177 EXT=IC( 0.041 ) 
 G1 X9.951 Y5.4 EXT=IC( 0.042 ) 
 G1 X-9.951 Y5.4 EXT=IC( 0.589 ) 
 G1 X-11.359 Y5.177 EXT=IC( 0.042 ) 
 G1 X-12.583 Y4.553 EXT=IC( 0.041 ) 
 G1 X-13.553 Y3.583 EXT=IC( 0.041 ) 
 G1 X-14.177 Y2.359 EXT=IC( 0.041 ) 
 G1 X-14.4 Y0.951 EXT=IC( 0.042 ) 
 G1 X-14.4 Y-18.951 EXT=IC( 0.589 ) 
 G1 X-14.177 Y-20.359 EXT=IC( 0.042 ) 
 G1 X-13.553 Y-21.583 EXT=IC( 0.041 ) 
 G1 X-12.583 Y-22.553 EXT=IC( 0.041 ) 
 G1 X-11.359 Y-23.177 EXT=IC( 0.041 ) 
 G1 X-9.951 Y-23.4 EXT=IC( 0.042 ) 
 G1 X9.951 Y-23.4 EXT=IC( 0.589 ) 
 G1 X11.359 Y-23.177 EXT=IC( 0.042 ) 
 G1 X11.484 Y-23.562 
;TYPE:WALL-OUTER

 G1 X12.822 Y-22.88 EXT=IC( 0.044 ) F1200 
 G1 X13.88 Y-21.822 EXT=IC( 0.044 ) 
 G1 X14.562 Y-20.484 EXT=IC( 0.044 ) 
 G1 X14.8 Y-18.982 EXT=IC( 0.045 ) 
 G1 X14.8 Y0.982 EXT=IC( 0.591 ) 
 G1 X14.562 Y2.484 EXT=IC( 0.045 ) 
 G1 X13.88 Y3.822 EXT=IC( 0.044 ) 
 G1 X12.822 Y4.88 EXT=IC( 0.044 ) 
 G1 X11.484 Y5.562 EXT=IC( 0.044 ) 
 G1 X9.982 Y5.8 EXT=IC( 0.045 ) 
 G1 X-9.982 Y5.8 EXT=IC( 0.591 ) 
 G1 X-11.484 Y5.562 EXT=IC( 0.045 ) 
 G1 X-12.822 Y4.88 EXT=IC( 0.044 ) 
 G1 X-13.88 Y3.822 EXT=IC( 0.044 ) 
 G1 X-14.562 Y2.484 EXT=IC( 0.044 ) 
 G1 X-14.8 Y0.982 EXT=IC( 0.045 ) 
 G1 X-14.8 Y-18.982 EXT=IC( 0.591 ) 
 G1 X-14.562 Y-20.484 EXT=IC( 0.045 ) 
 G1 X-13.88 Y-21.822 EXT=IC( 0.044 ) 
 G1 X-12.822 Y-22.88 EXT=IC( 0.044 ) 
 G1 X-11.484 Y-23.562 EXT=IC( 0.044 ) 
 G1 X-9.982 Y-23.8 EXT=IC( 0.045 ) 
 G1 X9.982 Y-23.8 EXT=IC( 0.591 ) 
 G1 X11.484 Y-23.562 EXT=IC( 0.045 ) 
 G1 X11.662 Y-23.472 F2400 
 G1 X11.462 Y-23.08 
 G1 X11.298 Y-22.76 
;MESH:NONMESH

 G1 X11.359 Y-23.177 
;TIME_ELAPSED:410.120341

;LAYER:14

;MESH:calibration_block_0_4_nozzle.stl

 G1 X11.359 Y-23.177 Z3 
;TYPE:WALL-INNER

 G1 X12.583 Y-22.553 EXT=IC( 0.041 ) 
 G1 X13.553 Y-21.583 EXT=IC( 0.041 ) 
 G1 X14.177 Y-20.359 EXT=IC( 0.041 ) 
 G1 X14.4 Y-18.951 EXT=IC( 0.042 ) 
 G1 X14.4 Y0.951 EXT=IC( 0.589 ) 
 G1 X14.177 Y2.359 EXT=IC( 0.042 ) 
 G1 X13.553 Y3.583 EXT=IC( 0.041 ) 
 G1 X12.583 Y4.553 EXT=IC( 0.041 ) 
 G1 X11.359 Y5.177 EXT=IC( 0.041 ) 
 G1 X9.951 Y5.4 EXT=IC( 0.042 ) 
 G1 X-9.951 Y5.4 EXT=IC( 0.589 ) 
 G1 X-11.359 Y5.177 EXT=IC( 0.042 ) 
 G1 X-12.583 Y4.553 EXT=IC( 0.041 ) 
 G1 X-13.553 Y3.583 EXT=IC( 0.041 ) 
 G1 X-14.177 Y2.359 EXT=IC( 0.041 ) 
 G1 X-14.4 Y0.951 EXT=IC( 0.042 ) 
 G1 X-14.4 Y-18.951 EXT=IC( 0.589 ) 
 G1 X-14.177 Y-20.359 EXT=IC( 0.042 ) 
 G1 X-13.553 Y-21.583 EXT=IC( 0.041 ) 
 G1 X-12.583 Y-22.553 EXT=IC( 0.041 ) 
 G1 X-11.359 Y-23.177 EXT=IC( 0.041 ) 
 G1 X-9.951 Y-23.4 EXT=IC( 0.042 ) 
 G1 X9.951 Y-23.4 EXT=IC( 0.589 ) 
 G1 X11.359 Y-23.177 EXT=IC( 0.042 ) 
 G1 X11.484 Y-23.562 
;TYPE:WALL-OUTER

 G1 X12.822 Y-22.88 EXT=IC( 0.044 ) F1200 
 G1 X13.88 Y-21.822 EXT=IC( 0.044 ) 
 G1 X14.562 Y-20.484 EXT=IC( 0.044 ) 
 G1 X14.8 Y-18.982 EXT=IC( 0.045 ) 
 G1 X14.8 Y0.982 EXT=IC( 0.591 ) 
 G1 X14.562 Y2.484 EXT=IC( 0.045 ) 
 G1 X13.88 Y3.822 EXT=IC( 0.044 ) 
 G1 X12.822 Y4.88 EXT=IC( 0.044 ) 
 G1 X11.484 Y5.562 EXT=IC( 0.044 ) 
 G1 X9.982 Y5.8 EXT=IC( 0.045 ) 
 G1 X-9.982 Y5.8 EXT=IC( 0.591 ) 
 G1 X-11.484 Y5.562 EXT=IC( 0.045 ) 
 G1 X-12.822 Y4.88 EXT=IC( 0.044 ) 
 G1 X-13.88 Y3.822 EXT=IC( 0.044 ) 
 G1 X-14.562 Y2.484 EXT=IC( 0.044 ) 
 G1 X-14.8 Y0.982 EXT=IC( 0.045 ) 
 G1 X-14.8 Y-18.982 EXT=IC( 0.591 ) 
 G1 X-14.562 Y-20.484 EXT=IC( 0.045 ) 
 G1 X-13.88 Y-21.822 EXT=IC( 0.044 ) 
 G1 X-12.822 Y-22.88 EXT=IC( 0.044 ) 
 G1 X-11.484 Y-23.562 EXT=IC( 0.044 ) 
 G1 X-9.982 Y-23.8 EXT=IC( 0.045 ) 
 G1 X9.982 Y-23.8 EXT=IC( 0.591 ) 
 G1 X11.484 Y-23.562 EXT=IC( 0.045 ) 
 G1 X11.662 Y-23.472 F2400 
 G1 X11.462 Y-23.08 
 G1 X11.298 Y-22.76 
;MESH:NONMESH

 G1 X11.359 Y-23.177 
;TIME_ELAPSED:418.448248

;LAYER:15

;MESH:calibration_block_0_4_nozzle.stl

 G1 X11.359 Y-23.177 Z3.2 
;TYPE:WALL-INNER

 G1 X12.583 Y-22.553 EXT=IC( 0.041 ) 
 G1 X13.553 Y-21.583 EXT=IC( 0.041 ) 
 G1 X14.177 Y-20.359 EXT=IC( 0.041 ) 
 G1 X14.4 Y-18.951 EXT=IC( 0.042 ) 
 G1 X14.4 Y0.951 EXT=IC( 0.589 ) 
 G1 X14.177 Y2.359 EXT=IC( 0.042 ) 
 G1 X13.553 Y3.583 EXT=IC( 0.041 ) 
 G1 X12.583 Y4.553 EXT=IC( 0.041 ) 
 G1 X11.359 Y5.177 EXT=IC( 0.041 ) 
 G1 X9.951 Y5.4 EXT=IC( 0.042 ) 
 G1 X-9.951 Y5.4 EXT=IC( 0.589 ) 
 G1 X-11.359 Y5.177 EXT=IC( 0.042 ) 
 G1 X-12.583 Y4.553 EXT=IC( 0.041 ) 
 G1 X-13.553 Y3.583 EXT=IC( 0.041 ) 
 G1 X-14.177 Y2.359 EXT=IC( 0.041 ) 
 G1 X-14.4 Y0.951 EXT=IC( 0.042 ) 
 G1 X-14.4 Y-18.951 EXT=IC( 0.589 ) 
 G1 X-14.177 Y-20.359 EXT=IC( 0.042 ) 
 G1 X-13.553 Y-21.583 EXT=IC( 0.041 ) 
 G1 X-12.583 Y-22.553 EXT=IC( 0.041 ) 
 G1 X-11.359 Y-23.177 EXT=IC( 0.041 ) 
 G1 X-9.951 Y-23.4 EXT=IC( 0.042 ) 
 G1 X9.951 Y-23.4 EXT=IC( 0.589 ) 
 G1 X11.359 Y-23.177 EXT=IC( 0.042 ) 
 G1 X11.484 Y-23.562 
;TYPE:WALL-OUTER

 G1 X12.822 Y-22.88 EXT=IC( 0.044 ) F1200 
 G1 X13.88 Y-21.822 EXT=IC( 0.044 ) 
 G1 X14.562 Y-20.484 EXT=IC( 0.044 ) 
 G1 X14.8 Y-18.982 EXT=IC( 0.045 ) 
 G1 X14.8 Y0.982 EXT=IC( 0.591 ) 
 G1 X14.562 Y2.484 EXT=IC( 0.045 ) 
 G1 X13.88 Y3.822 EXT=IC( 0.044 ) 
 G1 X12.822 Y4.88 EXT=IC( 0.044 ) 
 G1 X11.484 Y5.562 EXT=IC( 0.044 ) 
 G1 X9.982 Y5.8 EXT=IC( 0.045 ) 
 G1 X-9.982 Y5.8 EXT=IC( 0.591 ) 
 G1 X-11.484 Y5.562 EXT=IC( 0.045 ) 
 G1 X-12.822 Y4.88 EXT=IC( 0.044 ) 
 G1 X-13.88 Y3.822 EXT=IC( 0.044 ) 
 G1 X-14.562 Y2.484 EXT=IC( 0.044 ) 
 G1 X-14.8 Y0.982 EXT=IC( 0.045 ) 
 G1 X-14.8 Y-18.982 EXT=IC( 0.591 ) 
 G1 X-14.562 Y-20.484 EXT=IC( 0.045 ) 
 G1 X-13.88 Y-21.822 EXT=IC( 0.044 ) 
 G1 X-12.822 Y-22.88 EXT=IC( 0.044 ) 
 G1 X-11.484 Y-23.562 EXT=IC( 0.044 ) 
 G1 X-9.982 Y-23.8 EXT=IC( 0.045 ) 
 G1 X9.982 Y-23.8 EXT=IC( 0.591 ) 
 G1 X11.484 Y-23.562 EXT=IC( 0.045 ) 
 G1 X11.662 Y-23.472 F2400 
 G1 X11.462 Y-23.08 
 G1 X11.298 Y-22.76 
;MESH:NONMESH

 G1 X11.359 Y-23.177 
;TIME_ELAPSED:426.776156

;LAYER:16

;MESH:calibration_block_0_4_nozzle.stl

 G1 X11.359 Y-23.177 Z3.4 
;TYPE:WALL-INNER

 G1 X12.583 Y-22.553 EXT=IC( 0.041 ) 
 G1 X13.553 Y-21.583 EXT=IC( 0.041 ) 
 G1 X14.177 Y-20.359 EXT=IC( 0.041 ) 
 G1 X14.4 Y-18.951 EXT=IC( 0.042 ) 
 G1 X14.4 Y0.951 EXT=IC( 0.589 ) 
 G1 X14.177 Y2.359 EXT=IC( 0.042 ) 
 G1 X13.553 Y3.583 EXT=IC( 0.041 ) 
 G1 X12.583 Y4.553 EXT=IC( 0.041 ) 
 G1 X11.359 Y5.177 EXT=IC( 0.041 ) 
 G1 X9.951 Y5.4 EXT=IC( 0.042 ) 
 G1 X-9.951 Y5.4 EXT=IC( 0.589 ) 
 G1 X-11.359 Y5.177 EXT=IC( 0.042 ) 
 G1 X-12.583 Y4.553 EXT=IC( 0.041 ) 
 G1 X-13.553 Y3.583 EXT=IC( 0.041 ) 
 G1 X-14.177 Y2.359 EXT=IC( 0.041 ) 
 G1 X-14.4 Y0.951 EXT=IC( 0.042 ) 
 G1 X-14.4 Y-18.951 EXT=IC( 0.589 ) 
 G1 X-14.177 Y-20.359 EXT=IC( 0.042 ) 
 G1 X-13.553 Y-21.583 EXT=IC( 0.041 ) 
 G1 X-12.583 Y-22.553 EXT=IC( 0.041 ) 
 G1 X-11.359 Y-23.177 EXT=IC( 0.041 ) 
 G1 X-9.951 Y-23.4 EXT=IC( 0.042 ) 
 G1 X9.951 Y-23.4 EXT=IC( 0.589 ) 
 G1 X11.359 Y-23.177 EXT=IC( 0.042 ) 
 G1 X11.484 Y-23.562 
;TYPE:WALL-OUTER

 G1 X12.822 Y-22.88 EXT=IC( 0.044 ) F1200 
 G1 X13.88 Y-21.822 EXT=IC( 0.044 ) 
 G1 X14.562 Y-20.484 EXT=IC( 0.044 ) 
 G1 X14.8 Y-18.982 EXT=IC( 0.045 ) 
 G1 X14.8 Y0.982 EXT=IC( 0.591 ) 
 G1 X14.562 Y2.484 EXT=IC( 0.045 ) 
 G1 X13.88 Y3.822 EXT=IC( 0.044 ) 
 G1 X12.822 Y4.88 EXT=IC( 0.044 ) 
 G1 X11.484 Y5.562 EXT=IC( 0.044 ) 
 G1 X9.982 Y5.8 EXT=IC( 0.045 ) 
 G1 X-9.982 Y5.8 EXT=IC( 0.591 ) 
 G1 X-11.484 Y5.562 EXT=IC( 0.045 ) 
 G1 X-12.822 Y4.88 EXT=IC( 0.044 ) 
 G1 X-13.88 Y3.822 EXT=IC( 0.044 ) 
 G1 X-14.562 Y2.484 EXT=IC( 0.044 ) 
 G1 X-14.8 Y0.982 EXT=IC( 0.045 ) 
 G1 X-14.8 Y-18.982 EXT=IC( 0.591 ) 
 G1 X-14.562 Y-20.484 EXT=IC( 0.045 ) 
 G1 X-13.88 Y-21.822 EXT=IC( 0.044 ) 
 G1 X-12.822 Y-22.88 EXT=IC( 0.044 ) 
 G1 X-11.484 Y-23.562 EXT=IC( 0.044 ) 
 G1 X-9.982 Y-23.8 EXT=IC( 0.045 ) 
 G1 X9.982 Y-23.8 EXT=IC( 0.591 ) 
 G1 X11.484 Y-23.562 EXT=IC( 0.045 ) 
 G1 X11.662 Y-23.472 F2400 
 G1 X11.462 Y-23.08 
 G1 X11.298 Y-22.76 
;MESH:NONMESH

 G1 X11.359 Y-23.177 
;TIME_ELAPSED:435.104063

;LAYER:17

;MESH:calibration_block_0_4_nozzle.stl

 G1 X11.359 Y-23.177 Z3.6 
;TYPE:WALL-INNER

 G1 X12.583 Y-22.553 EXT=IC( 0.041 ) 
 G1 X13.553 Y-21.583 EXT=IC( 0.041 ) 
 G1 X14.177 Y-20.359 EXT=IC( 0.041 ) 
 G1 X14.4 Y-18.951 EXT=IC( 0.042 ) 
 G1 X14.4 Y0.951 EXT=IC( 0.589 ) 
 G1 X14.177 Y2.359 EXT=IC( 0.042 ) 
 G1 X13.553 Y3.583 EXT=IC( 0.041 ) 
 G1 X12.583 Y4.553 EXT=IC( 0.041 ) 
 G1 X11.359 Y5.177 EXT=IC( 0.041 ) 
 G1 X9.951 Y5.4 EXT=IC( 0.042 ) 
 G1 X-9.951 Y5.4 EXT=IC( 0.589 ) 
 G1 X-11.359 Y5.177 EXT=IC( 0.042 ) 
 G1 X-12.583 Y4.553 EXT=IC( 0.041 ) 
 G1 X-13.553 Y3.583 EXT=IC( 0.041 ) 
 G1 X-14.177 Y2.359 EXT=IC( 0.041 ) 
 G1 X-14.4 Y0.951 EXT=IC( 0.042 ) 
 G1 X-14.4 Y-18.951 EXT=IC( 0.589 ) 
 G1 X-14.177 Y-20.359 EXT=IC( 0.042 ) 
 G1 X-13.553 Y-21.583 EXT=IC( 0.041 ) 
 G1 X-12.583 Y-22.553 EXT=IC( 0.041 ) 
 G1 X-11.359 Y-23.177 EXT=IC( 0.041 ) 
 G1 X-9.951 Y-23.4 EXT=IC( 0.042 ) 
 G1 X9.951 Y-23.4 EXT=IC( 0.589 ) 
 G1 X11.359 Y-23.177 EXT=IC( 0.042 ) 
 G1 X11.484 Y-23.562 
;TYPE:WALL-OUTER

 G1 X12.822 Y-22.88 EXT=IC( 0.044 ) F1200 
 G1 X13.88 Y-21.822 EXT=IC( 0.044 ) 
 G1 X14.562 Y-20.484 EXT=IC( 0.044 ) 
 G1 X14.8 Y-18.982 EXT=IC( 0.045 ) 
 G1 X14.8 Y0.982 EXT=IC( 0.591 ) 
 G1 X14.562 Y2.484 EXT=IC( 0.045 ) 
 G1 X13.88 Y3.822 EXT=IC( 0.044 ) 
 G1 X12.822 Y4.88 EXT=IC( 0.044 ) 
 G1 X11.484 Y5.562 EXT=IC( 0.044 ) 
 G1 X9.982 Y5.8 EXT=IC( 0.045 ) 
 G1 X-9.982 Y5.8 EXT=IC( 0.591 ) 
 G1 X-11.484 Y5.562 EXT=IC( 0.045 ) 
 G1 X-12.822 Y4.88 EXT=IC( 0.044 ) 
 G1 X-13.88 Y3.822 EXT=IC( 0.044 ) 
 G1 X-14.562 Y2.484 EXT=IC( 0.044 ) 
 G1 X-14.8 Y0.982 EXT=IC( 0.045 ) 
 G1 X-14.8 Y-18.982 EXT=IC( 0.591 ) 
 G1 X-14.562 Y-20.484 EXT=IC( 0.045 ) 
 G1 X-13.88 Y-21.822 EXT=IC( 0.044 ) 
 G1 X-12.822 Y-22.88 EXT=IC( 0.044 ) 
 G1 X-11.484 Y-23.562 EXT=IC( 0.044 ) 
 G1 X-9.982 Y-23.8 EXT=IC( 0.045 ) 
 G1 X9.982 Y-23.8 EXT=IC( 0.591 ) 
 G1 X11.484 Y-23.562 EXT=IC( 0.045 ) 
 G1 X11.662 Y-23.472 F2400 
 G1 X11.462 Y-23.08 
 G1 X11.298 Y-22.76 
;MESH:NONMESH

 G1 X11.359 Y-23.177 
;TIME_ELAPSED:443.431970

;LAYER:18

;MESH:calibration_block_0_4_nozzle.stl

 G1 X11.359 Y-23.177 Z3.8 
;TYPE:WALL-INNER

 G1 X12.583 Y-22.553 EXT=IC( 0.041 ) 
 G1 X13.553 Y-21.583 EXT=IC( 0.041 ) 
 G1 X14.177 Y-20.359 EXT=IC( 0.041 ) 
 G1 X14.4 Y-18.951 EXT=IC( 0.042 ) 
 G1 X14.4 Y0.951 EXT=IC( 0.589 ) 
 G1 X14.177 Y2.359 EXT=IC( 0.042 ) 
 G1 X13.553 Y3.583 EXT=IC( 0.041 ) 
 G1 X12.583 Y4.553 EXT=IC( 0.041 ) 
 G1 X11.359 Y5.177 EXT=IC( 0.041 ) 
 G1 X9.951 Y5.4 EXT=IC( 0.042 ) 
 G1 X-9.951 Y5.4 EXT=IC( 0.589 ) 
 G1 X-11.359 Y5.177 EXT=IC( 0.042 ) 
 G1 X-12.583 Y4.553 EXT=IC( 0.041 ) 
 G1 X-13.553 Y3.583 EXT=IC( 0.041 ) 
 G1 X-14.177 Y2.359 EXT=IC( 0.041 ) 
 G1 X-14.4 Y0.951 EXT=IC( 0.042 ) 
 G1 X-14.4 Y-18.951 EXT=IC( 0.589 ) 
 G1 X-14.177 Y-20.359 EXT=IC( 0.042 ) 
 G1 X-13.553 Y-21.583 EXT=IC( 0.041 ) 
 G1 X-12.583 Y-22.553 EXT=IC( 0.041 ) 
 G1 X-11.359 Y-23.177 EXT=IC( 0.041 ) 
 G1 X-9.951 Y-23.4 EXT=IC( 0.042 ) 
 G1 X9.951 Y-23.4 EXT=IC( 0.589 ) 
 G1 X11.359 Y-23.177 EXT=IC( 0.042 ) 
 G1 X11.484 Y-23.562 
;TYPE:WALL-OUTER

 G1 X12.822 Y-22.88 EXT=IC( 0.044 ) F1200 
 G1 X13.88 Y-21.822 EXT=IC( 0.044 ) 
 G1 X14.562 Y-20.484 EXT=IC( 0.044 ) 
 G1 X14.8 Y-18.982 EXT=IC( 0.045 ) 
 G1 X14.8 Y0.982 EXT=IC( 0.591 ) 
 G1 X14.562 Y2.484 EXT=IC( 0.045 ) 
 G1 X13.88 Y3.822 EXT=IC( 0.044 ) 
 G1 X12.822 Y4.88 EXT=IC( 0.044 ) 
 G1 X11.484 Y5.562 EXT=IC( 0.044 ) 
 G1 X9.982 Y5.8 EXT=IC( 0.045 ) 
 G1 X-9.982 Y5.8 EXT=IC( 0.591 ) 
 G1 X-11.484 Y5.562 EXT=IC( 0.045 ) 
 G1 X-12.822 Y4.88 EXT=IC( 0.044 ) 
 G1 X-13.88 Y3.822 EXT=IC( 0.044 ) 
 G1 X-14.562 Y2.484 EXT=IC( 0.044 ) 
 G1 X-14.8 Y0.982 EXT=IC( 0.045 ) 
 G1 X-14.8 Y-18.982 EXT=IC( 0.591 ) 
 G1 X-14.562 Y-20.484 EXT=IC( 0.045 ) 
 G1 X-13.88 Y-21.822 EXT=IC( 0.044 ) 
 G1 X-12.822 Y-22.88 EXT=IC( 0.044 ) 
 G1 X-11.484 Y-23.562 EXT=IC( 0.044 ) 
 G1 X-9.982 Y-23.8 EXT=IC( 0.045 ) 
 G1 X9.982 Y-23.8 EXT=IC( 0.591 ) 
 G1 X11.484 Y-23.562 EXT=IC( 0.045 ) 
 G1 X11.662 Y-23.472 F2400 
 G1 X11.462 Y-23.08 
 G1 X11.298 Y-22.76 
;MESH:NONMESH

 G1 X11.359 Y-23.177 
;TIME_ELAPSED:451.759878

;LAYER:19

;MESH:calibration_block_0_4_nozzle.stl

 G1 X11.359 Y-23.177 Z4 
;TYPE:WALL-INNER

 G1 X12.583 Y-22.553 EXT=IC( 0.041 ) 
 G1 X13.553 Y-21.583 EXT=IC( 0.041 ) 
 G1 X14.177 Y-20.359 EXT=IC( 0.041 ) 
 G1 X14.4 Y-18.951 EXT=IC( 0.042 ) 
 G1 X14.4 Y0.951 EXT=IC( 0.589 ) 
 G1 X14.177 Y2.359 EXT=IC( 0.042 ) 
 G1 X13.553 Y3.583 EXT=IC( 0.041 ) 
 G1 X12.583 Y4.553 EXT=IC( 0.041 ) 
 G1 X11.359 Y5.177 EXT=IC( 0.041 ) 
 G1 X9.951 Y5.4 EXT=IC( 0.042 ) 
 G1 X-9.951 Y5.4 EXT=IC( 0.589 ) 
 G1 X-11.359 Y5.177 EXT=IC( 0.042 ) 
 G1 X-12.583 Y4.553 EXT=IC( 0.041 ) 
 G1 X-13.553 Y3.583 EXT=IC( 0.041 ) 
 G1 X-14.177 Y2.359 EXT=IC( 0.041 ) 
 G1 X-14.4 Y0.951 EXT=IC( 0.042 ) 
 G1 X-14.4 Y-18.951 EXT=IC( 0.589 ) 
 G1 X-14.177 Y-20.359 EXT=IC( 0.042 ) 
 G1 X-13.553 Y-21.583 EXT=IC( 0.041 ) 
 G1 X-12.583 Y-22.553 EXT=IC( 0.041 ) 
 G1 X-11.359 Y-23.177 EXT=IC( 0.041 ) 
 G1 X-9.951 Y-23.4 EXT=IC( 0.042 ) 
 G1 X9.951 Y-23.4 EXT=IC( 0.589 ) 
 G1 X11.359 Y-23.177 EXT=IC( 0.042 ) 
 G1 X11.484 Y-23.562 
;TYPE:WALL-OUTER

 G1 X12.822 Y-22.88 EXT=IC( 0.044 ) F1200 
 G1 X13.88 Y-21.822 EXT=IC( 0.044 ) 
 G1 X14.562 Y-20.484 EXT=IC( 0.044 ) 
 G1 X14.8 Y-18.982 EXT=IC( 0.045 ) 
 G1 X14.8 Y0.982 EXT=IC( 0.591 ) 
 G1 X14.562 Y2.484 EXT=IC( 0.045 ) 
 G1 X13.88 Y3.822 EXT=IC( 0.044 ) 
 G1 X12.822 Y4.88 EXT=IC( 0.044 ) 
 G1 X11.484 Y5.562 EXT=IC( 0.044 ) 
 G1 X9.982 Y5.8 EXT=IC( 0.045 ) 
 G1 X-9.982 Y5.8 EXT=IC( 0.591 ) 
 G1 X-11.484 Y5.562 EXT=IC( 0.045 ) 
 G1 X-12.822 Y4.88 EXT=IC( 0.044 ) 
 G1 X-13.88 Y3.822 EXT=IC( 0.044 ) 
 G1 X-14.562 Y2.484 EXT=IC( 0.044 ) 
 G1 X-14.8 Y0.982 EXT=IC( 0.045 ) 
 G1 X-14.8 Y-18.982 EXT=IC( 0.591 ) 
 G1 X-14.562 Y-20.484 EXT=IC( 0.045 ) 
 G1 X-13.88 Y-21.822 EXT=IC( 0.044 ) 
 G1 X-12.822 Y-22.88 EXT=IC( 0.044 ) 
 G1 X-11.484 Y-23.562 EXT=IC( 0.044 ) 
 G1 X-9.982 Y-23.8 EXT=IC( 0.045 ) 
 G1 X9.982 Y-23.8 EXT=IC( 0.591 ) 
 G1 X11.484 Y-23.562 EXT=IC( 0.045 ) 
 G1 X11.662 Y-23.472 F2400 
 G1 X11.462 Y-23.08 
 G1 X11.298 Y-22.76 
;MESH:NONMESH

 G1 X11.359 Y-23.177 
;TIME_ELAPSED:460.087785

;LAYER:20

;MESH:calibration_block_0_4_nozzle.stl

 G1 X11.359 Y-23.177 Z4.2 
;TYPE:WALL-INNER

 G1 X12.583 Y-22.553 EXT=IC( 0.041 ) 
 G1 X13.553 Y-21.583 EXT=IC( 0.041 ) 
 G1 X14.177 Y-20.359 EXT=IC( 0.041 ) 
 G1 X14.4 Y-18.951 EXT=IC( 0.042 ) 
 G1 X14.4 Y0.951 EXT=IC( 0.589 ) 
 G1 X14.177 Y2.359 EXT=IC( 0.042 ) 
 G1 X13.553 Y3.583 EXT=IC( 0.041 ) 
 G1 X12.583 Y4.553 EXT=IC( 0.041 ) 
 G1 X11.359 Y5.177 EXT=IC( 0.041 ) 
 G1 X9.951 Y5.4 EXT=IC( 0.042 ) 
 G1 X-9.951 Y5.4 EXT=IC( 0.589 ) 
 G1 X-11.359 Y5.177 EXT=IC( 0.042 ) 
 G1 X-12.583 Y4.553 EXT=IC( 0.041 ) 
 G1 X-13.553 Y3.583 EXT=IC( 0.041 ) 
 G1 X-14.177 Y2.359 EXT=IC( 0.041 ) 
 G1 X-14.4 Y0.951 EXT=IC( 0.042 ) 
 G1 X-14.4 Y-18.951 EXT=IC( 0.589 ) 
 G1 X-14.177 Y-20.359 EXT=IC( 0.042 ) 
 G1 X-13.553 Y-21.583 EXT=IC( 0.041 ) 
 G1 X-12.583 Y-22.553 EXT=IC( 0.041 ) 
 G1 X-11.359 Y-23.177 EXT=IC( 0.041 ) 
 G1 X-9.951 Y-23.4 EXT=IC( 0.042 ) 
 G1 X9.951 Y-23.4 EXT=IC( 0.589 ) 
 G1 X11.359 Y-23.177 EXT=IC( 0.042 ) 
 G1 X11.484 Y-23.562 
;TYPE:WALL-OUTER

 G1 X12.822 Y-22.88 EXT=IC( 0.044 ) F1200 
 G1 X13.88 Y-21.822 EXT=IC( 0.044 ) 
 G1 X14.562 Y-20.484 EXT=IC( 0.044 ) 
 G1 X14.8 Y-18.982 EXT=IC( 0.045 ) 
 G1 X14.8 Y0.982 EXT=IC( 0.591 ) 
 G1 X14.562 Y2.484 EXT=IC( 0.045 ) 
 G1 X13.88 Y3.822 EXT=IC( 0.044 ) 
 G1 X12.822 Y4.88 EXT=IC( 0.044 ) 
 G1 X11.484 Y5.562 EXT=IC( 0.044 ) 
 G1 X9.982 Y5.8 EXT=IC( 0.045 ) 
 G1 X-9.982 Y5.8 EXT=IC( 0.591 ) 
 G1 X-11.484 Y5.562 EXT=IC( 0.045 ) 
 G1 X-12.822 Y4.88 EXT=IC( 0.044 ) 
 G1 X-13.88 Y3.822 EXT=IC( 0.044 ) 
 G1 X-14.562 Y2.484 EXT=IC( 0.044 ) 
 G1 X-14.8 Y0.982 EXT=IC( 0.045 ) 
 G1 X-14.8 Y-18.982 EXT=IC( 0.591 ) 
 G1 X-14.562 Y-20.484 EXT=IC( 0.045 ) 
 G1 X-13.88 Y-21.822 EXT=IC( 0.044 ) 
 G1 X-12.822 Y-22.88 EXT=IC( 0.044 ) 
 G1 X-11.484 Y-23.562 EXT=IC( 0.044 ) 
 G1 X-9.982 Y-23.8 EXT=IC( 0.045 ) 
 G1 X9.982 Y-23.8 EXT=IC( 0.591 ) 
 G1 X11.484 Y-23.562 EXT=IC( 0.045 ) 
 G1 X11.662 Y-23.472 F2400 
 G1 X11.462 Y-23.08 
 G1 X11.298 Y-22.76 
;MESH:NONMESH

 G1 X11.359 Y-23.177 
;TIME_ELAPSED:468.415692

;LAYER:21

;MESH:calibration_block_0_4_nozzle.stl

 G1 X11.359 Y-23.177 Z4.4 
;TYPE:WALL-INNER

 G1 X12.583 Y-22.553 EXT=IC( 0.041 ) 
 G1 X13.553 Y-21.583 EXT=IC( 0.041 ) 
 G1 X14.177 Y-20.359 EXT=IC( 0.041 ) 
 G1 X14.4 Y-18.951 EXT=IC( 0.042 ) 
 G1 X14.4 Y0.951 EXT=IC( 0.589 ) 
 G1 X14.177 Y2.359 EXT=IC( 0.042 ) 
 G1 X13.553 Y3.583 EXT=IC( 0.041 ) 
 G1 X12.583 Y4.553 EXT=IC( 0.041 ) 
 G1 X11.359 Y5.177 EXT=IC( 0.041 ) 
 G1 X9.951 Y5.4 EXT=IC( 0.042 ) 
 G1 X-9.951 Y5.4 EXT=IC( 0.589 ) 
 G1 X-11.359 Y5.177 EXT=IC( 0.042 ) 
 G1 X-12.583 Y4.553 EXT=IC( 0.041 ) 
 G1 X-13.553 Y3.583 EXT=IC( 0.041 ) 
 G1 X-14.177 Y2.359 EXT=IC( 0.041 ) 
 G1 X-14.4 Y0.951 EXT=IC( 0.042 ) 
 G1 X-14.4 Y-18.951 EXT=IC( 0.589 ) 
 G1 X-14.177 Y-20.359 EXT=IC( 0.042 ) 
 G1 X-13.553 Y-21.583 EXT=IC( 0.041 ) 
 G1 X-12.583 Y-22.553 EXT=IC( 0.041 ) 
 G1 X-11.359 Y-23.177 EXT=IC( 0.041 ) 
 G1 X-9.951 Y-23.4 EXT=IC( 0.042 ) 
 G1 X9.951 Y-23.4 EXT=IC( 0.589 ) 
 G1 X11.359 Y-23.177 EXT=IC( 0.042 ) 
 G1 X11.484 Y-23.562 
;TYPE:WALL-OUTER

 G1 X12.822 Y-22.88 EXT=IC( 0.044 ) F1200 
 G1 X13.88 Y-21.822 EXT=IC( 0.044 ) 
 G1 X14.562 Y-20.484 EXT=IC( 0.044 ) 
 G1 X14.8 Y-18.982 EXT=IC( 0.045 ) 
 G1 X14.8 Y0.982 EXT=IC( 0.591 ) 
 G1 X14.562 Y2.484 EXT=IC( 0.045 ) 
 G1 X13.88 Y3.822 EXT=IC( 0.044 ) 
 G1 X12.822 Y4.88 EXT=IC( 0.044 ) 
 G1 X11.484 Y5.562 EXT=IC( 0.044 ) 
 G1 X9.982 Y5.8 EXT=IC( 0.045 ) 
 G1 X-9.982 Y5.8 EXT=IC( 0.591 ) 
 G1 X-11.484 Y5.562 EXT=IC( 0.045 ) 
 G1 X-12.822 Y4.88 EXT=IC( 0.044 ) 
 G1 X-13.88 Y3.822 EXT=IC( 0.044 ) 
 G1 X-14.562 Y2.484 EXT=IC( 0.044 ) 
 G1 X-14.8 Y0.982 EXT=IC( 0.045 ) 
 G1 X-14.8 Y-18.982 EXT=IC( 0.591 ) 
 G1 X-14.562 Y-20.484 EXT=IC( 0.045 ) 
 G1 X-13.88 Y-21.822 EXT=IC( 0.044 ) 
 G1 X-12.822 Y-22.88 EXT=IC( 0.044 ) 
 G1 X-11.484 Y-23.562 EXT=IC( 0.044 ) 
 G1 X-9.982 Y-23.8 EXT=IC( 0.045 ) 
 G1 X9.982 Y-23.8 EXT=IC( 0.591 ) 
 G1 X11.484 Y-23.562 EXT=IC( 0.045 ) 
 G1 X11.662 Y-23.472 F2400 
 G1 X11.462 Y-23.08 
 G1 X11.298 Y-22.76 
;MESH:NONMESH

 G1 X11.359 Y-23.177 
;TIME_ELAPSED:476.743600

;LAYER:22

;MESH:calibration_block_0_4_nozzle.stl

 G1 X11.359 Y-23.177 Z4.6 
;TYPE:WALL-INNER

 G1 X12.583 Y-22.553 EXT=IC( 0.041 ) 
 G1 X13.553 Y-21.583 EXT=IC( 0.041 ) 
 G1 X14.177 Y-20.359 EXT=IC( 0.041 ) 
 G1 X14.4 Y-18.951 EXT=IC( 0.042 ) 
 G1 X14.4 Y0.951 EXT=IC( 0.589 ) 
 G1 X14.177 Y2.359 EXT=IC( 0.042 ) 
 G1 X13.553 Y3.583 EXT=IC( 0.041 ) 
 G1 X12.583 Y4.553 EXT=IC( 0.041 ) 
 G1 X11.359 Y5.177 EXT=IC( 0.041 ) 
 G1 X9.951 Y5.4 EXT=IC( 0.042 ) 
 G1 X-9.951 Y5.4 EXT=IC( 0.589 ) 
 G1 X-11.359 Y5.177 EXT=IC( 0.042 ) 
 G1 X-12.583 Y4.553 EXT=IC( 0.041 ) 
 G1 X-13.553 Y3.583 EXT=IC( 0.041 ) 
 G1 X-14.177 Y2.359 EXT=IC( 0.041 ) 
 G1 X-14.4 Y0.951 EXT=IC( 0.042 ) 
 G1 X-14.4 Y-18.951 EXT=IC( 0.589 ) 
 G1 X-14.177 Y-20.359 EXT=IC( 0.042 ) 
 G1 X-13.553 Y-21.583 EXT=IC( 0.041 ) 
 G1 X-12.583 Y-22.553 EXT=IC( 0.041 ) 
 G1 X-11.359 Y-23.177 EXT=IC( 0.041 ) 
 G1 X-9.951 Y-23.4 EXT=IC( 0.042 ) 
 G1 X9.951 Y-23.4 EXT=IC( 0.589 ) 
 G1 X11.359 Y-23.177 EXT=IC( 0.042 ) 
 G1 X11.484 Y-23.562 
;TYPE:WALL-OUTER

 G1 X12.822 Y-22.88 EXT=IC( 0.044 ) F1200 
 G1 X13.88 Y-21.822 EXT=IC( 0.044 ) 
 G1 X14.562 Y-20.484 EXT=IC( 0.044 ) 
 G1 X14.8 Y-18.982 EXT=IC( 0.045 ) 
 G1 X14.8 Y0.982 EXT=IC( 0.591 ) 
 G1 X14.562 Y2.484 EXT=IC( 0.045 ) 
 G1 X13.88 Y3.822 EXT=IC( 0.044 ) 
 G1 X12.822 Y4.88 EXT=IC( 0.044 ) 
 G1 X11.484 Y5.562 EXT=IC( 0.044 ) 
 G1 X9.982 Y5.8 EXT=IC( 0.045 ) 
 G1 X-9.982 Y5.8 EXT=IC( 0.591 ) 
 G1 X-11.484 Y5.562 EXT=IC( 0.045 ) 
 G1 X-12.822 Y4.88 EXT=IC( 0.044 ) 
 G1 X-13.88 Y3.822 EXT=IC( 0.044 ) 
 G1 X-14.562 Y2.484 EXT=IC( 0.044 ) 
 G1 X-14.8 Y0.982 EXT=IC( 0.045 ) 
 G1 X-14.8 Y-18.982 EXT=IC( 0.591 ) 
 G1 X-14.562 Y-20.484 EXT=IC( 0.045 ) 
 G1 X-13.88 Y-21.822 EXT=IC( 0.044 ) 
 G1 X-12.822 Y-22.88 EXT=IC( 0.044 ) 
 G1 X-11.484 Y-23.562 EXT=IC( 0.044 ) 
 G1 X-9.982 Y-23.8 EXT=IC( 0.045 ) 
 G1 X9.982 Y-23.8 EXT=IC( 0.591 ) 
 G1 X11.484 Y-23.562 EXT=IC( 0.045 ) 
 G1 X11.662 Y-23.472 F2400 
 G1 X11.462 Y-23.08 
 G1 X11.298 Y-22.76 
;MESH:NONMESH

 G1 X11.359 Y-23.177 
;TIME_ELAPSED:485.071507

;LAYER:23

;MESH:calibration_block_0_4_nozzle.stl

 G1 X11.359 Y-23.177 Z4.8 
;TYPE:WALL-INNER

 G1 X12.583 Y-22.553 EXT=IC( 0.041 ) 
 G1 X13.553 Y-21.583 EXT=IC( 0.041 ) 
 G1 X14.177 Y-20.359 EXT=IC( 0.041 ) 
 G1 X14.4 Y-18.951 EXT=IC( 0.042 ) 
 G1 X14.4 Y0.951 EXT=IC( 0.589 ) 
 G1 X14.177 Y2.359 EXT=IC( 0.042 ) 
 G1 X13.553 Y3.583 EXT=IC( 0.041 ) 
 G1 X12.583 Y4.553 EXT=IC( 0.041 ) 
 G1 X11.359 Y5.177 EXT=IC( 0.041 ) 
 G1 X9.951 Y5.4 EXT=IC( 0.042 ) 
 G1 X-9.951 Y5.4 EXT=IC( 0.589 ) 
 G1 X-11.359 Y5.177 EXT=IC( 0.042 ) 
 G1 X-12.583 Y4.553 EXT=IC( 0.041 ) 
 G1 X-13.553 Y3.583 EXT=IC( 0.041 ) 
 G1 X-14.177 Y2.359 EXT=IC( 0.041 ) 
 G1 X-14.4 Y0.951 EXT=IC( 0.042 ) 
 G1 X-14.4 Y-18.951 EXT=IC( 0.589 ) 
 G1 X-14.177 Y-20.359 EXT=IC( 0.042 ) 
 G1 X-13.553 Y-21.583 EXT=IC( 0.041 ) 
 G1 X-12.583 Y-22.553 EXT=IC( 0.041 ) 
 G1 X-11.359 Y-23.177 EXT=IC( 0.041 ) 
 G1 X-9.951 Y-23.4 EXT=IC( 0.042 ) 
 G1 X9.951 Y-23.4 EXT=IC( 0.589 ) 
 G1 X11.359 Y-23.177 EXT=IC( 0.042 ) 
 G1 X11.484 Y-23.562 
;TYPE:WALL-OUTER

 G1 X12.822 Y-22.88 EXT=IC( 0.044 ) F1200 
 G1 X13.88 Y-21.822 EXT=IC( 0.044 ) 
 G1 X14.562 Y-20.484 EXT=IC( 0.044 ) 
 G1 X14.8 Y-18.982 EXT=IC( 0.045 ) 
 G1 X14.8 Y0.982 EXT=IC( 0.591 ) 
 G1 X14.562 Y2.484 EXT=IC( 0.045 ) 
 G1 X13.88 Y3.822 EXT=IC( 0.044 ) 
 G1 X12.822 Y4.88 EXT=IC( 0.044 ) 
 G1 X11.484 Y5.562 EXT=IC( 0.044 ) 
 G1 X9.982 Y5.8 EXT=IC( 0.045 ) 
 G1 X-9.982 Y5.8 EXT=IC( 0.591 ) 
 G1 X-11.484 Y5.562 EXT=IC( 0.045 ) 
 G1 X-12.822 Y4.88 EXT=IC( 0.044 ) 
 G1 X-13.88 Y3.822 EXT=IC( 0.044 ) 
 G1 X-14.562 Y2.484 EXT=IC( 0.044 ) 
 G1 X-14.8 Y0.982 EXT=IC( 0.045 ) 
 G1 X-14.8 Y-18.982 EXT=IC( 0.591 ) 
 G1 X-14.562 Y-20.484 EXT=IC( 0.045 ) 
 G1 X-13.88 Y-21.822 EXT=IC( 0.044 ) 
 G1 X-12.822 Y-22.88 EXT=IC( 0.044 ) 
 G1 X-11.484 Y-23.562 EXT=IC( 0.044 ) 
 G1 X-9.982 Y-23.8 EXT=IC( 0.045 ) 
 G1 X9.982 Y-23.8 EXT=IC( 0.591 ) 
 G1 X11.484 Y-23.562 EXT=IC( 0.045 ) 
 G1 X11.662 Y-23.472 F2400 
 G1 X11.462 Y-23.08 
 G1 X11.298 Y-22.76 
;MESH:NONMESH

 G1 X11.359 Y-23.177 
;TIME_ELAPSED:493.399414

;LAYER:24

;MESH:calibration_block_0_4_nozzle.stl

 G1 X11.359 Y-23.177 Z5 
;TYPE:WALL-INNER

 G1 X12.583 Y-22.553 EXT=IC( 0.041 ) 
 G1 X13.553 Y-21.583 EXT=IC( 0.041 ) 
 G1 X14.177 Y-20.359 EXT=IC( 0.041 ) 
 G1 X14.4 Y-18.951 EXT=IC( 0.042 ) 
 G1 X14.4 Y0.951 EXT=IC( 0.589 ) 
 G1 X14.177 Y2.359 EXT=IC( 0.042 ) 
 G1 X13.553 Y3.583 EXT=IC( 0.041 ) 
 G1 X12.583 Y4.553 EXT=IC( 0.041 ) 
 G1 X11.359 Y5.177 EXT=IC( 0.041 ) 
 G1 X9.951 Y5.4 EXT=IC( 0.042 ) 
 G1 X-9.951 Y5.4 EXT=IC( 0.589 ) 
 G1 X-11.359 Y5.177 EXT=IC( 0.042 ) 
 G1 X-12.583 Y4.553 EXT=IC( 0.041 ) 
 G1 X-13.553 Y3.583 EXT=IC( 0.041 ) 
 G1 X-14.177 Y2.359 EXT=IC( 0.041 ) 
 G1 X-14.4 Y0.951 EXT=IC( 0.042 ) 
 G1 X-14.4 Y-18.951 EXT=IC( 0.589 ) 
 G1 X-14.177 Y-20.359 EXT=IC( 0.042 ) 
 G1 X-13.553 Y-21.583 EXT=IC( 0.041 ) 
 G1 X-12.583 Y-22.553 EXT=IC( 0.041 ) 
 G1 X-11.359 Y-23.177 EXT=IC( 0.041 ) 
 G1 X-9.951 Y-23.4 EXT=IC( 0.042 ) 
 G1 X9.951 Y-23.4 EXT=IC( 0.589 ) 
 G1 X11.359 Y-23.177 EXT=IC( 0.042 ) 
 G1 X11.484 Y-23.562 
;TYPE:WALL-OUTER

 G1 X12.822 Y-22.88 EXT=IC( 0.044 ) F1200 
 G1 X13.88 Y-21.822 EXT=IC( 0.044 ) 
 G1 X14.562 Y-20.484 EXT=IC( 0.044 ) 
 G1 X14.8 Y-18.982 EXT=IC( 0.045 ) 
 G1 X14.8 Y0.982 EXT=IC( 0.591 ) 
 G1 X14.562 Y2.484 EXT=IC( 0.045 ) 
 G1 X13.88 Y3.822 EXT=IC( 0.044 ) 
 G1 X12.822 Y4.88 EXT=IC( 0.044 ) 
 G1 X11.484 Y5.562 EXT=IC( 0.044 ) 
 G1 X9.982 Y5.8 EXT=IC( 0.045 ) 
 G1 X-9.982 Y5.8 EXT=IC( 0.591 ) 
 G1 X-11.484 Y5.562 EXT=IC( 0.045 ) 
 G1 X-12.822 Y4.88 EXT=IC( 0.044 ) 
 G1 X-13.88 Y3.822 EXT=IC( 0.044 ) 
 G1 X-14.562 Y2.484 EXT=IC( 0.044 ) 
 G1 X-14.8 Y0.982 EXT=IC( 0.045 ) 
 G1 X-14.8 Y-18.982 EXT=IC( 0.591 ) 
 G1 X-14.562 Y-20.484 EXT=IC( 0.045 ) 
 G1 X-13.88 Y-21.822 EXT=IC( 0.044 ) 
 G1 X-12.822 Y-22.88 EXT=IC( 0.044 ) 
 G1 X-11.484 Y-23.562 EXT=IC( 0.044 ) 
 G1 X-9.982 Y-23.8 EXT=IC( 0.045 ) 
 G1 X9.982 Y-23.8 EXT=IC( 0.591 ) 
 G1 X11.484 Y-23.562 EXT=IC( 0.045 ) 
 G1 X11.662 Y-23.472 F2400 
 G1 X11.462 Y-23.08 
 G1 X11.298 Y-22.76 
;MESH:NONMESH

 G1 X11.359 Y-23.177 
;TIME_ELAPSED:501.727321

;LAYER:25

;MESH:calibration_block_0_4_nozzle.stl

 G1 X11.359 Y-23.177 Z5.2 
;TYPE:WALL-INNER

 G1 X12.583 Y-22.553 EXT=IC( 0.041 ) 
 G1 X13.553 Y-21.583 EXT=IC( 0.041 ) 
 G1 X14.177 Y-20.359 EXT=IC( 0.041 ) 
 G1 X14.4 Y-18.951 EXT=IC( 0.042 ) 
 G1 X14.4 Y0.951 EXT=IC( 0.589 ) 
 G1 X14.177 Y2.359 EXT=IC( 0.042 ) 
 G1 X13.553 Y3.583 EXT=IC( 0.041 ) 
 G1 X12.583 Y4.553 EXT=IC( 0.041 ) 
 G1 X11.359 Y5.177 EXT=IC( 0.041 ) 
 G1 X9.951 Y5.4 EXT=IC( 0.042 ) 
 G1 X-9.951 Y5.4 EXT=IC( 0.589 ) 
 G1 X-11.359 Y5.177 EXT=IC( 0.042 ) 
 G1 X-12.583 Y4.553 EXT=IC( 0.041 ) 
 G1 X-13.553 Y3.583 EXT=IC( 0.041 ) 
 G1 X-14.177 Y2.359 EXT=IC( 0.041 ) 
 G1 X-14.4 Y0.951 EXT=IC( 0.042 ) 
 G1 X-14.4 Y-18.951 EXT=IC( 0.589 ) 
 G1 X-14.177 Y-20.359 EXT=IC( 0.042 ) 
 G1 X-13.553 Y-21.583 EXT=IC( 0.041 ) 
 G1 X-12.583 Y-22.553 EXT=IC( 0.041 ) 
 G1 X-11.359 Y-23.177 EXT=IC( 0.041 ) 
 G1 X-9.951 Y-23.4 EXT=IC( 0.042 ) 
 G1 X9.951 Y-23.4 EXT=IC( 0.589 ) 
 G1 X11.359 Y-23.177 EXT=IC( 0.042 ) 
 G1 X11.484 Y-23.562 
;TYPE:WALL-OUTER

 G1 X12.822 Y-22.88 EXT=IC( 0.044 ) F1200 
 G1 X13.88 Y-21.822 EXT=IC( 0.044 ) 
 G1 X14.562 Y-20.484 EXT=IC( 0.044 ) 
 G1 X14.8 Y-18.982 EXT=IC( 0.045 ) 
 G1 X14.8 Y0.982 EXT=IC( 0.591 ) 
 G1 X14.562 Y2.484 EXT=IC( 0.045 ) 
 G1 X13.88 Y3.822 EXT=IC( 0.044 ) 
 G1 X12.822 Y4.88 EXT=IC( 0.044 ) 
 G1 X11.484 Y5.562 EXT=IC( 0.044 ) 
 G1 X9.982 Y5.8 EXT=IC( 0.045 ) 
 G1 X-9.982 Y5.8 EXT=IC( 0.591 ) 
 G1 X-11.484 Y5.562 EXT=IC( 0.045 ) 
 G1 X-12.822 Y4.88 EXT=IC( 0.044 ) 
 G1 X-13.88 Y3.822 EXT=IC( 0.044 ) 
 G1 X-14.562 Y2.484 EXT=IC( 0.044 ) 
 G1 X-14.8 Y0.982 EXT=IC( 0.045 ) 
 G1 X-14.8 Y-18.982 EXT=IC( 0.591 ) 
 G1 X-14.562 Y-20.484 EXT=IC( 0.045 ) 
 G1 X-13.88 Y-21.822 EXT=IC( 0.044 ) 
 G1 X-12.822 Y-22.88 EXT=IC( 0.044 ) 
 G1 X-11.484 Y-23.562 EXT=IC( 0.044 ) 
 G1 X-9.982 Y-23.8 EXT=IC( 0.045 ) 
 G1 X9.982 Y-23.8 EXT=IC( 0.591 ) 
 G1 X11.484 Y-23.562 EXT=IC( 0.045 ) 
 G1 X11.662 Y-23.472 F2400 
 G1 X11.462 Y-23.08 
 G1 X11.298 Y-22.76 
;MESH:NONMESH

 G1 X11.359 Y-23.177 
;TIME_ELAPSED:510.055229

;LAYER:26

;MESH:calibration_block_0_4_nozzle.stl

 G1 X11.359 Y-23.177 Z5.4 
;TYPE:WALL-INNER

 G1 X12.583 Y-22.553 EXT=IC( 0.041 ) 
 G1 X13.553 Y-21.583 EXT=IC( 0.041 ) 
 G1 X14.177 Y-20.359 EXT=IC( 0.041 ) 
 G1 X14.4 Y-18.951 EXT=IC( 0.042 ) 
 G1 X14.4 Y0.951 EXT=IC( 0.589 ) 
 G1 X14.177 Y2.359 EXT=IC( 0.042 ) 
 G1 X13.553 Y3.583 EXT=IC( 0.041 ) 
 G1 X12.583 Y4.553 EXT=IC( 0.041 ) 
 G1 X11.359 Y5.177 EXT=IC( 0.041 ) 
 G1 X9.951 Y5.4 EXT=IC( 0.042 ) 
 G1 X-9.951 Y5.4 EXT=IC( 0.589 ) 
 G1 X-11.359 Y5.177 EXT=IC( 0.042 ) 
 G1 X-12.583 Y4.553 EXT=IC( 0.041 ) 
 G1 X-13.553 Y3.583 EXT=IC( 0.041 ) 
 G1 X-14.177 Y2.359 EXT=IC( 0.041 ) 
 G1 X-14.4 Y0.951 EXT=IC( 0.042 ) 
 G1 X-14.4 Y-18.951 EXT=IC( 0.589 ) 
 G1 X-14.177 Y-20.359 EXT=IC( 0.042 ) 
 G1 X-13.553 Y-21.583 EXT=IC( 0.041 ) 
 G1 X-12.583 Y-22.553 EXT=IC( 0.041 ) 
 G1 X-11.359 Y-23.177 EXT=IC( 0.041 ) 
 G1 X-9.951 Y-23.4 EXT=IC( 0.042 ) 
 G1 X9.951 Y-23.4 EXT=IC( 0.589 ) 
 G1 X11.359 Y-23.177 EXT=IC( 0.042 ) 
 G1 X11.484 Y-23.562 
;TYPE:WALL-OUTER

 G1 X12.822 Y-22.88 EXT=IC( 0.044 ) F1200 
 G1 X13.88 Y-21.822 EXT=IC( 0.044 ) 
 G1 X14.562 Y-20.484 EXT=IC( 0.044 ) 
 G1 X14.8 Y-18.982 EXT=IC( 0.045 ) 
 G1 X14.8 Y0.982 EXT=IC( 0.591 ) 
 G1 X14.562 Y2.484 EXT=IC( 0.045 ) 
 G1 X13.88 Y3.822 EXT=IC( 0.044 ) 
 G1 X12.822 Y4.88 EXT=IC( 0.044 ) 
 G1 X11.484 Y5.562 EXT=IC( 0.044 ) 
 G1 X9.982 Y5.8 EXT=IC( 0.045 ) 
 G1 X-9.982 Y5.8 EXT=IC( 0.591 ) 
 G1 X-11.484 Y5.562 EXT=IC( 0.045 ) 
 G1 X-12.822 Y4.88 EXT=IC( 0.044 ) 
 G1 X-13.88 Y3.822 EXT=IC( 0.044 ) 
 G1 X-14.562 Y2.484 EXT=IC( 0.044 ) 
 G1 X-14.8 Y0.982 EXT=IC( 0.045 ) 
 G1 X-14.8 Y-18.982 EXT=IC( 0.591 ) 
 G1 X-14.562 Y-20.484 EXT=IC( 0.045 ) 
 G1 X-13.88 Y-21.822 EXT=IC( 0.044 ) 
 G1 X-12.822 Y-22.88 EXT=IC( 0.044 ) 
 G1 X-11.484 Y-23.562 EXT=IC( 0.044 ) 
 G1 X-9.982 Y-23.8 EXT=IC( 0.045 ) 
 G1 X9.982 Y-23.8 EXT=IC( 0.591 ) 
 G1 X11.484 Y-23.562 EXT=IC( 0.045 ) 
 G1 X11.662 Y-23.472 F2400 
 G1 X11.462 Y-23.08 
 G1 X11.298 Y-22.76 
;MESH:NONMESH

 G1 X11.359 Y-23.177 
;TIME_ELAPSED:518.383136

;LAYER:27

;MESH:calibration_block_0_4_nozzle.stl

 G1 X11.359 Y-23.177 Z5.6 
;TYPE:WALL-INNER

 G1 X12.583 Y-22.553 EXT=IC( 0.041 ) 
 G1 X13.553 Y-21.583 EXT=IC( 0.041 ) 
 G1 X14.177 Y-20.359 EXT=IC( 0.041 ) 
 G1 X14.4 Y-18.951 EXT=IC( 0.042 ) 
 G1 X14.4 Y0.951 EXT=IC( 0.589 ) 
 G1 X14.177 Y2.359 EXT=IC( 0.042 ) 
